; generated by Slic3r 0.7.0 on 2012-03-12 at 23:39:54

; layer_height = 0.2
; perimeters = 3
; solid_layers = 3
; fill_density = 0.4
; nozzle_diameter = 0.35
; filament_diameter = 1.75
; extrusion_multiplier = 1
; perimeter_speed = 30
; infill_speed = 60
; travel_speed = 130
; extrusion_width_ratio = 0
; scale = 1
; single wall width = 0.49mm

G28 ; home all axes
G90 ; use absolute coordinates
G21 ; set units to millimeters
G92 E0 ; reset extrusion distance
M82 ; use absolute distances for extrusion
G1 Z0.200 F7800.000
G1 X45.910 Y46.090
G1 F1800.000 E1.00000
G1 X46.090 Y45.910 F540.000 E1.00974
G1 X46.470 Y45.570 E1.02924
G1 X47.090 Y45.130 E1.05831
G1 X47.310 Y45.000 E1.06809
G1 X47.770 Y44.770 E1.08776
G1 X48.240 Y44.580 E1.10715
G1 X48.730 Y44.430 E1.12674
G1 X48.980 Y44.370 E1.13658
G1 X49.730 Y44.260 E1.16557
G1 X50.240 Y44.240 E1.18509
G1 X150.260 Y44.260 E5.01040
G1 X151.010 Y44.370 E5.03939
G1 X151.510 Y44.500 E5.05915
G1 X151.990 Y44.670 E5.07862
G1 X152.450 Y44.880 E5.09796
G1 X152.680 Y45.000 E5.10789
G1 X152.900 Y45.130 E5.11766
G1 X153.520 Y45.570 E5.14674
G1 X153.900 Y45.910 E5.16624
G1 X154.080 Y46.090 E5.17597
G1 X154.420 Y46.470 E5.19547
G1 X154.860 Y47.090 E5.22455
G1 X154.990 Y47.310 E5.23432
G1 X155.220 Y47.770 E5.25399
G1 X155.410 Y48.240 E5.27338
G1 X155.560 Y48.730 E5.29298
G1 X155.620 Y48.980 E5.30281
G1 X155.730 Y49.730 E5.33181
G1 X155.730 Y150.260 E9.17662
G1 X155.620 Y151.010 E9.20561
G1 X155.490 Y151.510 E9.22537
G1 X155.320 Y151.990 E9.24485
G1 X155.110 Y152.450 E9.26419
G1 X154.990 Y152.680 E9.27411
G1 X154.860 Y152.900 E9.28388
G1 X154.420 Y153.520 E9.31296
G1 X154.080 Y153.900 E9.33246
G1 X153.900 Y154.080 E9.34220
G1 X153.520 Y154.420 E9.36170
G1 X152.900 Y154.860 E9.39077
G1 X152.680 Y154.990 E9.40055
G1 X152.220 Y155.220 E9.42022
G1 X151.750 Y155.410 E9.43961
G1 X151.260 Y155.560 E9.45920
G1 X151.010 Y155.620 E9.46904
G1 X150.260 Y155.730 E9.49803
G1 X149.750 Y155.750 E9.51755
G1 X49.730 Y155.730 E13.34286
G1 X48.980 Y155.620 E13.37185
G1 X48.480 Y155.490 E13.39161
G1 X48.000 Y155.320 E13.41108
G1 X47.540 Y155.110 E13.43042
G1 X47.310 Y154.990 E13.44035
G1 X47.090 Y154.860 E13.45012
G1 X46.470 Y154.420 E13.47920
G1 X46.090 Y154.080 E13.49870
G1 X45.910 Y153.900 E13.50843
G1 X45.570 Y153.520 E13.52793
G1 X45.130 Y152.900 E13.55701
G1 X45.000 Y152.680 E13.56678
G1 X44.770 Y152.220 E13.58645
G1 X44.580 Y151.750 E13.60584
G1 X44.430 Y151.260 E13.62544
G1 X44.370 Y151.010 E13.63527
G1 X44.260 Y150.260 E13.66427
G1 X44.260 Y49.730 E17.50908
G1 X44.370 Y48.980 E17.53807
G1 X44.500 Y48.480 E17.55783
G1 X44.670 Y48.000 E17.57731
G1 X44.880 Y47.540 E17.59665
G1 X45.000 Y47.310 E17.60657
G1 X45.130 Y47.090 E17.61634
G1 X45.570 Y46.470 E17.64542
G1 X45.861 Y46.145 E17.66211
G1 F1800.000 E16.66211
G1 Z0.500 F7800.000
G92 E0
G1 X51.115 Y51.115
G1 Z0.200
G1 F1800.000 E1.00000
G1 X148.885 Y51.115 F540.000 E4.73926
G1 X148.885 Y148.885 E8.47851
G1 X51.115 Y148.885 E12.21777
G1 X51.115 Y51.189 E15.95422
G1 X50.680 Y50.680 F7800.000
G1 X149.320 Y50.680 F540.000 E19.72675
G1 X149.320 Y149.320 E23.49928
G1 X50.680 Y149.320 E27.27181
G1 X50.680 Y50.754 E31.04153
G1 X50.245 Y50.245 F7800.000
G1 X149.755 Y50.245 F540.000 E34.84734
G1 X149.755 Y149.755 E38.65315
G1 X50.245 Y149.755 E42.45895
G1 X50.245 Y50.319 E46.26195
G1 F1800.000 E45.26195
G1 Z0.500 F7800.000
G92 E0
G1 X148.170 Y51.411
G1 Z0.200
G1 F1800.000 E1.00000
G1 X148.589 Y51.830 F1080.000 E1.02270
G1 X148.589 Y52.446 E1.04633
G1 X147.554 Y51.411 E1.10245
G1 X146.937 Y51.411 E1.12609
G1 X148.589 Y53.063 E1.21563
G1 X148.589 Y53.679 E1.23926
G1 X146.321 Y51.411 E1.36222
G1 X145.705 Y51.411 E1.38586
G1 X148.589 Y54.295 E1.54224
G1 X148.589 Y54.912 E1.56587
G1 X145.088 Y51.411 E1.75568
G1 X144.472 Y51.411 E1.77931
G1 X148.589 Y55.528 E2.00253
G1 X148.589 Y56.144 E2.02617
G1 X143.856 Y51.411 E2.28281
G1 X143.240 Y51.411 E2.30645
G1 X148.589 Y56.760 E2.59651
G1 X148.589 Y57.377 E2.62014
G1 X142.623 Y51.411 E2.94363
G1 X142.007 Y51.411 E2.96727
G1 X148.589 Y57.993 E3.32417
G1 X148.589 Y58.609 E3.34781
G1 X141.391 Y51.411 E3.73814
G1 X140.774 Y51.411 E3.76177
G1 X148.589 Y59.226 E4.18552
G1 X148.589 Y59.842 E4.20915
G1 X140.158 Y51.411 E4.66632
G1 X139.542 Y51.411 E4.68996
G1 X148.589 Y60.458 E5.18055
G1 X148.589 Y61.075 E5.20418
G1 X138.925 Y51.411 E5.72819
G1 X138.309 Y51.411 E5.75183
G1 X148.589 Y61.691 E6.30926
G1 X148.589 Y62.307 E6.33289
G1 X137.693 Y51.411 E6.92375
G1 X137.077 Y51.411 E6.94738
G1 X148.589 Y62.923 E7.57166
G1 X148.589 Y63.540 E7.59529
G1 X136.460 Y51.411 E8.25298
G1 X135.844 Y51.411 E8.27662
G1 X148.589 Y64.156 E8.96773
G1 X148.589 Y64.772 E8.99137
G1 X135.228 Y51.411 E9.71590
G1 X134.611 Y51.411 E9.73954
G1 X148.589 Y65.389 E10.49750
G1 X148.589 Y66.005 E10.52113
G1 X133.995 Y51.411 E11.31251
G1 X133.379 Y51.411 E11.33614
G1 X148.589 Y66.621 E12.16094
G1 X148.589 Y67.237 E12.18457
G1 X132.763 Y51.411 E13.04280
G1 X132.146 Y51.411 E13.06643
G1 X148.589 Y67.854 E13.95807
G1 X148.589 Y68.470 E13.98170
G1 X131.530 Y51.411 E14.90677
G1 X130.914 Y51.411 E14.93040
G1 X148.589 Y69.086 E15.88888
G1 X148.589 Y69.703 E15.91252
G1 X130.297 Y51.411 E16.90442
G1 X129.681 Y51.411 E16.92805
G1 X148.589 Y70.319 E17.95338
G1 X148.589 Y70.935 E17.97701
G1 X129.065 Y51.411 E19.03576
G1 X128.448 Y51.411 E19.05939
G1 X148.589 Y71.552 E20.15156
G1 X148.589 Y72.168 E20.17519
G1 X127.832 Y51.411 E21.30078
G1 X127.216 Y51.411 E21.32441
G1 X148.589 Y72.784 E22.48342
G1 X148.589 Y73.400 E22.50705
G1 X126.600 Y51.411 E23.69948
G1 X125.983 Y51.411 E23.72312
G1 X148.589 Y74.017 E24.94897
G1 X148.589 Y74.633 E24.97260
G1 X125.367 Y51.411 E26.23187
G1 X124.751 Y51.411 E26.25551
G1 X148.589 Y75.249 E27.54820
G1 X148.589 Y75.866 E27.57183
G1 X124.134 Y51.411 E28.89794
G1 X123.518 Y51.411 E28.92158
G1 X148.589 Y76.482 E30.28111
G1 X148.589 Y77.098 E30.30474
G1 X122.902 Y51.411 E31.69770
G1 X122.286 Y51.411 E31.72133
G1 X148.589 Y77.714 E33.14771
G1 X148.589 Y78.331 E33.17134
G1 X121.669 Y51.411 E34.63114
G1 X121.053 Y51.411 E34.65477
G1 X148.589 Y78.947 E36.14799
G1 X148.589 Y79.563 E36.17162
G1 X120.437 Y51.411 E37.69826
G1 X119.820 Y51.411 E37.72189
G1 X148.589 Y80.180 E39.28195
G1 X148.589 Y80.796 E39.30558
G1 X119.204 Y51.411 E40.89907
G1 X118.588 Y51.411 E40.92270
G1 X148.589 Y81.412 E42.54960
G1 X148.589 Y82.029 E42.57323
G1 X117.971 Y51.411 E44.23355
G1 X117.355 Y51.411 E44.25719
G1 X148.589 Y82.645 E45.95093
G1 X148.589 Y83.261 E45.97456
G1 X116.739 Y51.411 E47.70173
G1 X116.123 Y51.411 E47.72536
G1 X148.589 Y83.877 E49.48594
G1 X148.589 Y84.494 E49.50958
G1 X115.506 Y51.411 E51.30358
G1 X114.890 Y51.411 E51.32721
G1 X148.589 Y85.110 E53.15464
G1 X148.589 Y85.726 E53.17827
G1 X114.274 Y51.411 E55.03912
G1 X113.657 Y51.411 E55.06275
G1 X148.589 Y86.343 E56.95702
G1 X148.589 Y86.959 E56.98065
G1 X113.041 Y51.411 E58.90834
G1 X112.425 Y51.411 E58.93198
G1 X148.589 Y87.575 E60.89309
G1 X148.589 Y88.192 E60.91672
G1 X111.808 Y51.411 E62.91125
G1 X111.192 Y51.411 E62.93488
G1 X148.589 Y88.808 E64.96283
G1 X148.589 Y89.424 E64.98647
G1 X110.576 Y51.411 E67.04784
G1 X109.960 Y51.411 E67.07147
G1 X148.589 Y90.040 E69.16627
G1 X148.589 Y90.657 E69.18990
G1 X109.343 Y51.411 E71.31811
G1 X108.727 Y51.411 E71.34174
G1 X148.589 Y91.273 E73.50338
G1 X148.589 Y91.889 E73.52701
G1 X108.111 Y51.411 E75.72207
G1 X107.494 Y51.411 E75.74570
G1 X148.589 Y92.506 E77.97418
G1 X148.589 Y93.122 E77.99781
G1 X106.878 Y51.411 E80.25971
G1 X106.262 Y51.411 E80.28334
G1 X148.589 Y93.738 E82.57866
G1 X148.589 Y94.354 E82.60229
G1 X105.646 Y51.411 E84.93103
G1 X105.029 Y51.411 E84.95466
G1 X148.589 Y94.971 E87.31682
G1 X148.589 Y95.587 E87.34046
G1 X104.413 Y51.411 E89.73604
G1 X103.797 Y51.411 E89.75967
G1 X148.589 Y96.203 E92.18867
G1 X148.589 Y96.820 E92.21230
G1 X103.180 Y51.411 E94.67473
G1 X102.564 Y51.411 E94.69836
G1 X148.589 Y97.436 E97.19420
G1 X148.589 Y98.052 E97.21784
G1 X101.948 Y51.411 E99.74710
G1 X101.331 Y51.411 E99.77073
G1 X148.589 Y98.669 E102.33342
G1 X148.589 Y99.285 E102.35705
G1 X100.715 Y51.411 E104.95316
G1 X100.099 Y51.411 E104.97679
G1 X148.589 Y99.901 E107.60632
G1 X148.589 Y100.517 E107.62995
G1 X99.483 Y51.411 E110.29290
G1 X98.866 Y51.411 E110.31653
G1 X148.589 Y101.134 E113.01290
G1 X148.589 Y101.750 E113.03653
G1 X98.250 Y51.411 E115.76632
G1 X97.634 Y51.411 E115.78996
G1 X148.589 Y102.366 E118.55317
G1 X148.589 Y102.983 E118.57680
G1 X97.017 Y51.411 E121.37343
G1 X96.401 Y51.411 E121.39706
G1 X148.589 Y103.599 E124.22712
G1 X148.589 Y104.215 E124.25075
G1 X95.785 Y51.411 E127.11422
G1 X95.168 Y51.411 E127.13785
G1 X148.589 Y104.832 E130.03475
G1 X148.589 Y105.448 E130.05838
G1 X94.552 Y51.411 E132.98870
G1 X93.936 Y51.411 E133.01233
G1 X148.589 Y106.064 E135.97606
G1 X148.589 Y106.680 E135.99970
G1 X93.320 Y51.411 E138.99685
G1 X92.703 Y51.411 E139.02049
G1 X148.589 Y107.297 E142.05106
G1 X148.589 Y107.913 E142.07470
G1 X92.087 Y51.411 E145.13869
G1 X91.471 Y51.411 E145.16233
G1 X148.589 Y108.529 E148.25975
G1 X148.589 Y109.146 E148.28338
G1 X90.854 Y51.411 E151.41422
G1 X90.238 Y51.411 E151.43785
G1 X148.589 Y109.762 E154.60211
G1 X148.589 Y110.378 E154.62574
G1 X89.622 Y51.411 E157.82343
G1 X89.006 Y51.411 E157.84706
G1 X148.589 Y110.994 E161.07816
G1 X148.589 Y111.611 E161.10179
G1 X88.389 Y51.411 E164.36632
G1 X87.773 Y51.411 E164.38995
G1 X148.589 Y112.227 E167.68790
G1 X148.589 Y112.843 E167.71153
G1 X87.157 Y51.411 E171.04289
G1 X86.540 Y51.411 E171.06653
G1 X148.589 Y113.460 E174.43131
G1 X148.589 Y114.076 E174.45494
G1 X85.924 Y51.411 E177.85315
G1 X85.308 Y51.411 E177.87678
G1 X148.589 Y114.692 E181.30841
G1 X148.589 Y115.309 E181.33204
G1 X84.691 Y51.411 E184.79709
G1 X84.075 Y51.411 E184.82073
G1 X148.589 Y115.925 E188.31920
G1 X148.589 Y116.541 E188.34283
G1 X83.459 Y51.411 E191.87472
G1 X82.843 Y51.411 E191.89835
G1 X148.589 Y117.157 E195.46366
G1 X148.589 Y117.774 E195.48729
G1 X82.226 Y51.411 E199.08603
G1 X81.610 Y51.411 E199.10966
G1 X148.589 Y118.390 E202.74181
G1 X148.589 Y119.006 E202.76545
G1 X80.994 Y51.411 E206.43102
G1 X80.377 Y51.411 E206.45465
G1 X148.589 Y119.623 E210.15365
G1 X148.589 Y120.239 E210.17728
G1 X79.761 Y51.411 E213.90970
G1 X79.145 Y51.411 E213.93333
G1 X148.589 Y120.855 E217.69916
G1 X148.589 Y121.472 E217.72280
G1 X78.528 Y51.411 E221.52205
G1 X77.912 Y51.411 E221.54569
G1 X148.589 Y122.088 E225.37837
G1 X148.589 Y122.704 E225.40200
G1 X77.296 Y51.411 E229.26810
G1 X76.680 Y51.411 E229.29173
G1 X148.589 Y123.320 E233.19125
G1 X148.589 Y123.937 E233.21488
G1 X76.063 Y51.411 E237.14782
G1 X75.447 Y51.411 E237.17145
G1 X148.589 Y124.553 E241.13782
G1 X148.589 Y125.169 E241.16145
G1 X74.831 Y51.411 E245.16123
G1 X74.214 Y51.411 E245.18486
G1 X148.589 Y125.786 E249.21807
G1 X148.589 Y126.402 E249.24170
G1 X73.598 Y51.411 E253.30832
G1 X72.982 Y51.411 E253.33196
G1 X148.589 Y127.018 E257.43200
G1 X148.589 Y127.634 E257.45563
G1 X72.366 Y51.411 E261.58910
G1 X71.749 Y51.411 E261.61273
G1 X148.589 Y128.251 E265.77962
G1 X148.589 Y128.867 E265.80325
G1 X71.133 Y51.411 E270.00356
G1 X70.517 Y51.411 E270.02719
G1 X148.589 Y129.483 E274.26092
G1 X148.589 Y130.100 E274.28455
G1 X69.900 Y51.411 E278.55170
G1 X69.284 Y51.411 E278.57534
G1 X148.589 Y130.716 E282.87591
G1 X148.589 Y131.332 E282.89954
G1 X68.668 Y51.411 E287.23353
G1 X68.051 Y51.411 E287.25716
G1 X148.589 Y131.949 E291.62458
G1 X148.589 Y132.565 E291.64821
G1 X67.435 Y51.411 E296.04904
G1 X66.819 Y51.411 E296.07267
G1 X148.589 Y133.181 E300.50693
G1 X148.589 Y133.797 E300.53056
G1 X66.203 Y51.411 E304.99823
G1 X65.586 Y51.411 E305.02187
G1 X148.589 Y134.414 E309.52296
G1 X148.589 Y135.030 E309.54659
G1 X64.970 Y51.411 E314.08111
G1 X64.354 Y51.411 E314.10474
G1 X148.589 Y135.646 E318.67268
G1 X148.589 Y136.263 E318.69631
G1 X63.737 Y51.411 E323.29767
G1 X63.121 Y51.411 E323.32130
G1 X148.589 Y136.879 E327.95608
G1 X148.589 Y137.495 E327.97971
G1 X62.505 Y51.411 E332.64792
G1 X61.888 Y51.411 E332.67155
G1 X148.589 Y138.112 E337.37317
G1 X148.589 Y138.728 E337.39680
G1 X61.272 Y51.411 E342.13184
G1 X60.656 Y51.411 E342.15547
G1 X148.589 Y139.344 E346.92394
G1 X148.589 Y139.960 E346.94757
G1 X60.040 Y51.411 E351.74945
G1 X59.423 Y51.411 E351.77309
G1 X148.589 Y140.577 E356.60839
G1 X148.589 Y141.193 E356.63202
G1 X58.807 Y51.411 E361.50075
G1 X58.191 Y51.411 E361.52438
G1 X148.589 Y141.809 E366.42653
G1 X148.589 Y142.426 E366.45016
G1 X57.574 Y51.411 E371.38572
G1 X56.958 Y51.411 E371.40936
G1 X148.589 Y143.042 E376.37834
G1 X148.589 Y143.658 E376.40198
G1 X56.342 Y51.411 E381.40439
G1 X55.726 Y51.411 E381.42802
G1 X148.589 Y144.274 E386.46385
G1 X148.589 Y144.891 E386.48748
G1 X55.109 Y51.411 E391.55673
G1 X54.493 Y51.411 E391.58036
G1 X148.589 Y145.507 E396.68303
G1 X148.589 Y146.123 E396.70667
G1 X53.877 Y51.411 E401.84276
G1 X53.260 Y51.411 E401.86639
G1 X148.589 Y146.740 E407.03590
G1 X148.589 Y147.356 E407.05954
G1 X52.644 Y51.411 E412.26247
G1 X52.028 Y51.411 E412.28610
G1 X148.589 Y147.972 E417.52246
G1 X148.589 Y148.589 E417.54609
G1 X51.411 Y51.411 E422.81586
G1 X51.411 Y52.028 E422.83950
G1 X147.972 Y148.589 E428.07585
G1 X147.356 Y148.589 E428.09948
G1 X51.411 Y52.644 E433.30242
G1 X51.411 Y53.260 E433.32605
G1 X146.740 Y148.589 E438.49556
G1 X146.123 Y148.589 E438.51919
G1 X51.411 Y53.877 E443.65529
G1 X51.411 Y54.493 E443.67892
G1 X145.507 Y148.589 E448.78159
G1 X144.891 Y148.589 E448.80522
G1 X51.411 Y55.109 E453.87447
G1 X51.411 Y55.726 E453.89811
G1 X144.274 Y148.589 E458.93393
G1 X143.658 Y148.589 E458.95757
G1 X51.411 Y56.342 E463.95998
G1 X51.411 Y56.958 E463.98361
G1 X143.042 Y148.589 E468.95260
G1 X142.426 Y148.589 E468.97623
G1 X51.411 Y57.574 E473.91179
G1 X51.411 Y58.191 E473.93543
G1 X141.809 Y148.589 E478.83757
G1 X141.193 Y148.589 E478.86121
G1 X51.411 Y58.807 E483.72993
G1 X51.411 Y59.423 E483.75356
G1 X140.577 Y148.589 E488.58887
G1 X139.960 Y148.589 E488.61250
G1 X51.411 Y60.040 E493.41438
G1 X51.411 Y60.656 E493.43802
G1 X139.344 Y148.589 E498.20648
G1 X138.728 Y148.589 E498.23011
G1 X51.411 Y61.272 E502.96515
G1 X51.411 Y61.888 E502.98878
G1 X138.112 Y148.589 E507.69041
G1 X137.495 Y148.589 E507.71404
G1 X51.411 Y62.505 E512.38224
G1 X51.411 Y63.121 E512.40587
G1 X136.879 Y148.589 E517.04065
G1 X136.263 Y148.589 E517.06428
G1 X51.411 Y63.737 E521.66564
G1 X51.411 Y64.354 E521.68927
G1 X135.646 Y148.589 E526.25721
G1 X135.030 Y148.589 E526.28084
G1 X51.411 Y64.970 E530.81536
G1 X51.411 Y65.586 E530.83899
G1 X134.414 Y148.589 E535.34009
G1 X133.797 Y148.589 E535.36372
G1 X51.411 Y66.203 E539.83139
G1 X51.411 Y66.819 E539.85503
G1 X133.181 Y148.589 E544.28928
G1 X132.565 Y148.589 E544.31291
G1 X51.411 Y67.435 E548.71374
G1 X51.411 Y68.051 E548.73738
G1 X131.949 Y148.589 E553.10479
G1 X131.332 Y148.589 E553.12842
G1 X51.411 Y68.668 E557.46241
G1 X51.411 Y69.284 E557.48605
G1 X130.716 Y148.589 E561.78662
G1 X130.100 Y148.589 E561.81025
G1 X51.411 Y69.900 E566.07740
G1 X51.411 Y70.517 E566.10103
G1 X129.483 Y148.589 E570.33476
G1 X128.867 Y148.589 E570.35839
G1 X51.411 Y71.133 E574.55870
G1 X51.411 Y71.749 E574.58233
G1 X128.251 Y148.589 E578.74922
G1 X127.634 Y148.589 E578.77285
G1 X51.411 Y72.366 E582.90632
G1 X51.411 Y72.982 E582.92995
G1 X127.018 Y148.589 E587.02999
G1 X126.402 Y148.589 E587.05363
G1 X51.411 Y73.598 E591.12025
G1 X51.411 Y74.214 E591.14388
G1 X125.786 Y148.589 E595.17709
G1 X125.169 Y148.589 E595.20072
G1 X51.411 Y74.831 E599.20050
G1 X51.411 Y75.447 E599.22413
G1 X124.553 Y148.589 E603.19050
G1 X123.937 Y148.589 E603.21413
G1 X51.411 Y76.063 E607.14707
G1 X51.411 Y76.680 E607.17070
G1 X123.320 Y148.589 E611.07022
G1 X122.704 Y148.589 E611.09385
G1 X51.411 Y77.296 E614.95995
G1 X51.411 Y77.912 E614.98359
G1 X122.088 Y148.589 E618.81627
G1 X121.472 Y148.589 E618.83990
G1 X51.411 Y78.528 E622.63915
G1 X51.411 Y79.145 E622.66279
G1 X120.855 Y148.589 E626.42862
G1 X120.239 Y148.589 E626.45226
G1 X51.411 Y79.761 E630.18467
G1 X51.411 Y80.377 E630.20830
G1 X119.623 Y148.589 E633.90730
G1 X119.006 Y148.589 E633.93093
G1 X51.411 Y80.994 E637.59651
G1 X51.411 Y81.610 E637.62014
