; generated by Slic3r 0.7.1 on 2012-03-21 at 22:27:23

; layer_height = 0.4
; perimeters = 3
; solid_layers = 3
; fill_density = 0.4
; nozzle_diameter = 0.5
; filament_diameter = 3
; extrusion_multiplier = 1
; perimeter_speed = 30
; infill_speed = 60
; travel_speed = 130
; extrusion_width_ratio = 0
; scale = 1
; single wall width = 0.53mm

M104 S200 ; set temperature
G28 ; home all axes
M109 S200 ; wait for temperature to be reached
G90 ; use absolute coordinates
G21 ; set units to millimeters
G92 E0 ; reset extrusion distance
M82 ; use absolute distances for extrusion
G1 Z0.400 F7800.000
G1 X85.930 Y86.110
G1
G1 X86.110 Y85.930 F540.000 E0.00749
G1 X86.490 Y85.590 E0.02248
G1 X87.110 Y85.150 E0.04483
G1 X87.330 Y85.020 E0.05235
G1 X87.790 Y84.790 E0.06747
G1 X88.260 Y84.600 E0.08238
G1 X88.750 Y84.450 E0.09745
G1 X89.000 Y84.390 E0.10501
G1 X89.750 Y84.280 E0.12730
G1 X90.260 Y84.260 E0.14231
G1 X110.240 Y84.280 E0.72982
G1 X110.990 Y84.390 E0.75211
G1 X111.490 Y84.520 E0.76731
G1 X111.970 Y84.690 E0.78228
G1 X112.430 Y84.900 E0.79715
G1 X112.660 Y85.020 E0.80478
G1 X112.880 Y85.150 E0.81229
G1 X113.500 Y85.590 E0.83465
G1 X113.880 Y85.930 E0.84964
G1 X114.060 Y86.110 E0.85713
G1 X114.400 Y86.490 E0.87212
G1 X114.840 Y87.110 E0.89448
G1 X114.970 Y87.330 E0.90199
G1 X115.200 Y87.790 E0.91711
G1 X115.390 Y88.260 E0.93202
G1 X115.540 Y88.750 E0.94709
G1 X115.600 Y89.000 E0.95465
G1 X115.710 Y89.750 E0.97694
G1 X115.710 Y110.240 E1.57945
G1 X115.600 Y110.990 E1.60174
G1 X115.470 Y111.490 E1.61694
G1 X115.300 Y111.970 E1.63191
G1 X115.090 Y112.430 E1.64678
G1 X114.970 Y112.660 E1.65441
G1 X114.840 Y112.880 E1.66192
G1 X114.400 Y113.500 E1.68428
G1 X114.060 Y113.880 E1.69927
G1 X113.880 Y114.060 E1.70676
G1 X113.500 Y114.400 E1.72175
G1 X112.880 Y114.840 E1.74411
G1 X112.660 Y114.970 E1.75162
G1 X112.200 Y115.200 E1.76674
G1 X111.730 Y115.390 E1.78165
G1 X111.240 Y115.540 E1.79672
G1 X110.990 Y115.600 E1.80428
G1 X110.240 Y115.710 E1.82657
G1 X109.730 Y115.730 E1.84158
G1 X89.750 Y115.710 E2.42910
G1 X89.000 Y115.600 E2.45139
G1 X88.500 Y115.470 E2.46658
G1 X88.020 Y115.300 E2.48155
G1 X87.560 Y115.090 E2.49642
G1 X87.330 Y114.970 E2.50405
G1 X87.110 Y114.840 E2.51156
G1 X86.490 Y114.400 E2.53392
G1 X86.110 Y114.060 E2.54891
G1 X85.930 Y113.880 E2.55640
G1 X85.590 Y113.500 E2.57139
G1 X85.150 Y112.880 E2.59375
G1 X85.020 Y112.660 E2.60126
G1 X84.790 Y112.200 E2.61638
G1 X84.600 Y111.730 E2.63129
G1 X84.450 Y111.240 E2.64636
G1 X84.390 Y110.990 E2.65392
G1 X84.280 Y110.240 E2.67621
G1 X84.280 Y89.750 E3.27873
G1 X84.390 Y89.000 E3.30102
G1 X84.520 Y88.500 E3.31621
G1 X84.690 Y88.020 E3.33118
G1 X84.900 Y87.560 E3.34605
G1 X85.020 Y87.330 E3.35368
G1 X85.150 Y87.110 E3.36119
G1 X85.590 Y86.490 E3.38355
G1 X85.877 Y86.169 E3.39623
G1 X91.293 Y91.293 F7800.000
G1 X108.707 Y91.293 F540.000 E3.90830
G1 X108.707 Y108.707 E4.42037
G1 X91.293 Y108.707 E4.93244
G1 X91.293 Y91.372 E5.44220
G1 X90.778 Y90.778 F7800.000
G1 X109.222 Y90.778 F540.000 E5.98457
G1 X109.222 Y109.222 E6.52694
G1 X90.778 Y109.222 E7.06931
G1 X90.778 Y90.856 E7.60936
G1 X90.263 Y90.263 F7800.000
G1 X109.737 Y90.263 F540.000 E8.18203
G1 X109.737 Y109.737 E8.75470
G1 X90.263 Y109.737 E9.32737
G1 X90.263 Y90.341 E9.89772
G1 X107.714 Y91.660 F7800.000
G1 X108.340 Y92.286 F1080.000 E9.92385
G1 X108.340 Y93.016 E9.94536
G1 X106.984 Y91.660 E10.00191
G1 X106.254 Y91.660 E10.02342
G1 X108.340 Y93.746 E10.11039
G1 X108.340 Y94.475 E10.13190
G1 X105.525 Y91.660 E10.24929
G1 X104.795 Y91.660 E10.27080
G1 X108.340 Y95.205 E10.41862
G1 X108.340 Y95.935 E10.44013
G1 X104.065 Y91.660 E10.61836
G1 X103.335 Y91.660 E10.63987
G1 X108.340 Y96.665 E10.84853
G1 X108.340 Y97.394 E10.87004
G1 X102.606 Y91.660 E11.10912
G1 X101.876 Y91.660 E11.13063
G1 X108.340 Y98.124 E11.40013
G1 X108.340 Y98.854 E11.42164
G1 X101.146 Y91.660 E11.72156
G1 X100.416 Y91.660 E11.74307
G1 X108.340 Y99.584 E12.07341
G1 X108.340 Y100.313 E12.09492
G1 X99.687 Y91.660 E12.45569
G1 X98.957 Y91.660 E12.47720
G1 X108.340 Y101.043 E12.86838
G1 X108.340 Y101.773 E12.88989
G1 X98.227 Y91.660 E13.31150
G1 X97.497 Y91.660 E13.33301
G1 X108.340 Y102.503 E13.78504
G1 X108.340 Y103.232 E13.80655
G1 X96.768 Y91.660 E14.28900
G1 X96.038 Y91.660 E14.31051
G1 X108.340 Y103.962 E14.82338
G1 X108.340 Y104.692 E14.84489
G1 X95.308 Y91.660 E15.38819
G1 X94.578 Y91.660 E15.40970
G1 X108.340 Y105.422 E15.98341
G1 X108.340 Y106.151 E16.00492
G1 X93.849 Y91.660 E16.60906
G1 X93.119 Y91.660 E16.63057
G1 X108.340 Y106.881 E17.26513
G1 X108.340 Y107.611 E17.28664
G1 X92.389 Y91.660 E17.95162
G1 X91.660 Y91.660 E17.97313
G1 X108.340 Y108.340 E18.66853
G1 X107.611 Y108.340 E18.69004
G1 X91.660 Y92.389 E19.35502
G1 X91.660 Y93.119 E19.37653
G1 X106.881 Y108.340 E20.01108
G1 X106.151 Y108.340 E20.03260
G1 X91.660 Y93.849 E20.63673
G1 X91.660 Y94.578 E20.65824
G1 X105.422 Y108.340 E21.23196
G1 X104.692 Y108.340 E21.25347
G1 X91.660 Y95.308 E21.79676
G1 X91.660 Y96.038 E21.81827
G1 X103.962 Y108.340 E22.33114
G1 X103.232 Y108.340 E22.35265
G1 X91.660 Y96.768 E22.83510
G1 X91.660 Y97.497 E22.85661
G1 X102.503 Y108.340 E23.30864
G1 X101.773 Y108.340 E23.33015
G1 X91.660 Y98.227 E23.75176
G1 X91.660 Y98.957 E23.77327
G1 X101.043 Y108.340 E24.16446
G1 X100.313 Y108.340 E24.18597
G1 X91.660 Y99.687 E24.54673
G1 X91.660 Y100.416 E24.56824
G1 X99.584 Y108.340 E24.89858
G1 X98.854 Y108.340 E24.92009
G1 X91.660 Y101.146 E25.22002
G1 X91.660 Y101.876 E25.24153
G1 X98.124 Y108.340 E25.51103
G1 X97.394 Y108.340 E25.53254
G1 X91.660 Y102.606 E25.77161
G1 X91.660 Y103.335 E25.79313
G1 X96.665 Y108.340 E26.00178
G1 X95.935 Y108.340 E26.02329
G1 X91.660 Y104.065 E26.20153
G1 X91.660 Y104.795 E26.22304
G1 X95.205 Y108.340 E26.37085
G1 X94.475 Y108.340 E26.39236
G1 X91.660 Y105.525 E26.50975
G1 X91.660 Y106.254 E26.53127
G1 X93.746 Y108.340 E26.61824
G1 X93.016 Y108.340 E26.63975
G1 X91.660 Y106.984 E26.69629
G1 X91.660 Y107.714 E26.71781
G1 X92.286 Y108.340 E26.74393
G1 Z0.800 F7800.000
G1 X91.293 Y108.707
G1 X91.293 Y91.293 F1800.000 E27.25600
G1 X108.707 Y91.293 E27.76808
G1 X108.707 Y108.707 E28.28015
G1 X91.372 Y108.707 E28.78990
G1 X90.778 Y109.222 F7800.000
G1 X90.778 Y90.778 F1800.000 E29.33227
G1 X109.222 Y90.778 E29.87465
G1 X109.222 Y109.222 E30.41702
G1 X90.856 Y109.222 E30.95707
G1 X90.263 Y109.737 F7800.000
G1 X90.263 Y90.263 F1800.000 E31.52974
G1 X109.737 Y90.263 E32.10241
G1 X109.737 Y109.737 E32.67507
G1 X90.341 Y109.737 E33.24543
G1 X91.660 Y92.286 F7800.000
G1 X92.286 Y91.660 F3600.000 E33.27155
G1 X93.016 Y91.660 E33.29307
G1 X91.660 Y93.016 E33.34961
G1 X91.660 Y93.746 E33.37113
G1 X93.746 Y91.660 E33.45810
G1 X94.475 Y91.660 E33.47961
G1 X91.660 Y94.475 E33.59700
G1 X91.660 Y95.205 E33.61851
G1 X95.205 Y91.660 E33.76632
G1 X95.935 Y91.660 E33.78783
G1 X91.660 Y95.935 E33.96607
G1 X91.660 Y96.665 E33.98758
G1 X96.665 Y91.660 E34.19623
G1 X97.394 Y91.660 E34.21775
G1 X91.660 Y97.394 E34.45682
G1 X91.660 Y98.124 E34.47833
G1 X98.124 Y91.660 E34.74783
G1 X98.854 Y91.660 E34.76934
G1 X91.660 Y98.854 E35.06927
G1 X91.660 Y99.584 E35.09078
G1 X99.584 Y91.660 E35.42112
G1 X100.313 Y91.660 E35.44263
G1 X91.660 Y100.313 E35.80339
G1 X91.660 Y101.043 E35.82490
G1 X101.043 Y91.660 E36.21609
G1 X101.773 Y91.660 E36.23760
G1 X91.660 Y101.773 E36.65921
G1 X91.660 Y102.503 E36.68072
G1 X102.503 Y91.660 E37.13275
G1 X103.232 Y91.660 E37.15426
G1 X91.660 Y103.232 E37.63671
G1 X91.660 Y103.962 E37.65822
G1 X103.962 Y91.660 E38.17109
G1 X104.692 Y91.660 E38.19260
G1 X91.660 Y104.692 E38.73589
G1 X91.660 Y105.422 E38.75740
G1 X105.422 Y91.660 E39.33112
G1 X106.151 Y91.660 E39.35263
G1 X91.660 Y106.151 E39.95676
G1 X91.660 Y106.881 E39.97827
G1 X106.881 Y91.660 E40.61283
G1 X107.611 Y91.660 E40.63434
G1 X91.660 Y107.611 E41.29932
G1 X91.660 Y108.340 E41.32083
G1 X108.340 Y91.660 E42.01623
G1 X108.340 Y92.389 E42.03774
G1 X92.389 Y108.340 E42.70272
G1 X93.119 Y108.340 E42.72423
G1 X108.340 Y93.119 E43.35879
G1 X108.340 Y93.849 E43.38030
G1 X93.849 Y108.340 E43.98444
G1 X94.578 Y108.340 E44.00595
G1 X108.340 Y94.578 E44.57966
G1 X108.340 Y95.308 E44.60117
G1 X95.308 Y108.340 E45.14447
G1 X96.038 Y108.340 E45.16598
G1 X108.340 Y96.038 E45.67885
G1 X108.340 Y96.768 E45.70036
G1 X96.768 Y108.340 E46.18281
G1 X97.497 Y108.340 E46.20432
G1 X108.340 Y97.497 E46.65635
G1 X108.340 Y98.227 E46.67786
G1 X98.227 Y108.340 E47.09946
G1 X98.957 Y108.340 E47.12098
G1 X108.340 Y98.957 E47.51216
G1 X108.340 Y99.687 E47.53367
G1 X99.687 Y108.340 E47.89444
G1 X100.416 Y108.340 E47.91595
G1 X108.340 Y100.416 E48.24629
G1 X108.340 Y101.146 E48.26780
G1 X101.146 Y108.340 E48.56772
G1 X101.876 Y108.340 E48.58923
G1 X108.340 Y101.876 E48.85873
G1 X108.340 Y102.606 E48.88024
G1 X102.606 Y108.340 E49.11932
G1 X103.335 Y108.340 E49.14083
G1 X108.340 Y103.335 E49.34949
G1 X108.340 Y104.065 E49.37100
G1 X104.065 Y108.340 E49.54923
G1 X104.795 Y108.340 E49.57074
G1 X108.340 Y104.795 E49.71856
G1 X108.340 Y105.525 E49.74007
G1 X105.525 Y108.340 E49.85746
G1 X106.254 Y108.340 E49.87897
G1 X108.340 Y106.254 E49.96594
G1 X108.340 Y106.984 E49.98745
G1 X106.984 Y108.340 E50.04400
G1 X107.714 Y108.340 E50.06551
G1 X108.340 Y107.714 E50.09164
G1 Z1.200 F7800.000
G1 X108.707 Y108.707
G1 X91.293 Y108.707 F1800.000 E50.60371
G1 X91.293 Y91.293 E51.11578
G1 X108.707 Y91.293 E51.62785
G1 X108.707 Y108.628 E52.13761
G1 X109.222 Y109.222 F7800.000
G1 X90.778 Y109.222 F1800.000 E52.67998
G1 X90.778 Y90.778 E53.22235
G1 X109.222 Y90.778 E53.76472
G1 X109.222 Y109.144 E54.30477
G1 X109.737 Y109.737 F7800.000
G1 X90.263 Y109.737 F1800.000 E54.87744
G1 X90.263 Y90.263 E55.45011
G1 X109.737 Y90.263 E56.02278
G1 X109.737 Y109.659 E56.59313
G1 X92.286 Y108.340 F7800.000
G1 X91.660 Y107.714 F3600.000 E56.61926
G1 X91.660 Y106.984 E56.64077
G1 X93.016 Y108.340 E56.69732
G1 X93.746 Y108.340 E56.71883
G1 X91.660 Y106.254 E56.80580
G1 X91.660 Y105.525 E56.82731
G1 X94.475 Y108.340 E56.94470
G1 X95.205 Y108.340 E56.96621
G1 X91.660 Y104.795 E57.11403
G1 X91.660 Y104.065 E57.13554
G1 X95.935 Y108.340 E57.31377
G1 X96.665 Y108.340 E57.33528
G1 X91.660 Y103.335 E57.54394
G1 X91.660 Y102.606 E57.56545
G1 X97.394 Y108.340 E57.80453
G1 X98.124 Y108.340 E57.82604
G1 X91.660 Y101.876 E58.09554
G1 X91.660 Y101.146 E58.11705
G1 X98.854 Y108.340 E58.41697
G1 X99.584 Y108.340 E58.43848
G1 X91.660 Y100.416 E58.76882
G1 X91.660 Y99.687 E58.79033
G1 X100.313 Y108.340 E59.15110
G1 X101.043 Y108.340 E59.17261
G1 X91.660 Y98.957 E59.56379
G1 X91.660 Y98.227 E59.58531
G1 X101.773 Y108.340 E60.00691
G1 X102.503 Y108.340 E60.02842
G1 X91.660 Y97.497 E60.48045
G1 X91.660 Y96.768 E60.50196
G1 X103.232 Y108.340 E60.98441
G1 X103.962 Y108.340 E61.00592
G1 X91.660 Y96.038 E61.51879
G1 X91.660 Y95.308 E61.54031
G1 X104.692 Y108.340 E62.08360
G1 X105.422 Y108.340 E62.10511
G1 X91.660 Y94.578 E62.67882
G1 X91.660 Y93.849 E62.70033
G1 X106.151 Y108.340 E63.30447
G1 X106.881 Y108.340 E63.32598
G1 X91.660 Y93.119 E63.96054
G1 X91.660 Y92.389 E63.98205
G1 X107.611 Y108.340 E64.64703
G1 X108.340 Y108.340 E64.66854
G1 X91.660 Y91.660 E65.36394
G1 X92.389 Y91.660 E65.38545
G1 X108.340 Y107.611 E66.05043
G1 X108.340 Y106.881 E66.07194
G1 X93.119 Y91.660 E66.70650
G1 X93.849 Y91.660 E66.72801
G1 X108.340 Y106.151 E67.33214
G1 X108.340 Y105.422 E67.35365
G1 X94.578 Y91.660 E67.92737
G1 X95.308 Y91.660 E67.94888
G1 X108.340 Y104.692 E68.49217
G1 X108.340 Y103.962 E68.51368
G1 X96.038 Y91.660 E69.02655
G1 X96.768 Y91.660 E69.04806
G1 X108.340 Y103.232 E69.53051
G1 X108.340 Y102.503 E69.55202
G1 X97.497 Y91.660 E70.00405
G1 X98.227 Y91.660 E70.02556
G1 X108.340 Y101.773 E70.44717
G1 X108.340 Y101.043 E70.46868
G1 X98.957 Y91.660 E70.85987
G1 X99.687 Y91.660 E70.88138
G1 X108.340 Y100.313 E71.24214
G1 X108.340 Y99.584 E71.26365
G1 X100.416 Y91.660 E71.59399
G1 X101.146 Y91.660 E71.61551
G1 X108.340 Y98.854 E71.91543
G1 X108.340 Y98.124 E71.93694
G1 X101.876 Y91.660 E72.20644
G1 X102.606 Y91.660 E72.22795
G1 X108.340 Y97.394 E72.46702
G1 X108.340 Y96.665 E72.48854
G1 X103.335 Y91.660 E72.69719
G1 X104.065 Y91.660 E72.71870
G1 X108.340 Y95.935 E72.89694
G1 X108.340 Y95.205 E72.91845
G1 X104.795 Y91.660 E73.06626
G1 X105.525 Y91.660 E73.08777
G1 X108.340 Y94.475 E73.20516
G1 X108.340 Y93.746 E73.22668
G1 X106.254 Y91.660 E73.31365
G1 X106.984 Y91.660 E73.33516
G1 X108.340 Y93.016 E73.39171
G1 X108.340 Y92.286 E73.41322
G1 X107.714 Y91.660 E73.43934
G1 Z1.600 F7800.000
G1 X108.707 Y91.293
G1 X108.707 Y108.707 F1800.000 E73.95142
G1 X91.293 Y108.707 E74.46349
G1 X91.293 Y91.293 E74.97556
G1 X108.628 Y91.293 E75.48532
G1 X109.222 Y90.778 F7800.000
G1 X109.222 Y109.222 F1800.000 E76.02769
G1 X90.778 Y109.222 E76.57006
G1 X90.778 Y90.778 E77.11243
G1 X109.144 Y90.778 E77.65248
G1 X109.737 Y90.263 F7800.000
G1 X109.737 Y109.737 F1800.000 E78.22515
G1 X90.263 Y109.737 E78.79782
G1 X90.263 Y90.263 E79.37049
G1 X109.659 Y90.263 E79.94084
G1 X108.340 Y106.622 F7800.000
G1 X106.622 Y108.340 F3600.000 E80.01230
G1 X104.801 Y108.340 E80.06586
G1 X108.340 Y104.801 E80.21307
G1 X108.340 Y102.979 E80.26663
G1 X102.979 Y108.340 E80.48958
G1 X101.158 Y108.340 E80.54314
G1 X108.340 Y101.158 E80.84184
G1 X108.340 Y99.336 E80.89540
G1 X99.336 Y108.340 E81.26984
G1 X97.515 Y108.340 E81.32340
G1 X108.340 Y97.515 E81.77359
G1 X108.340 Y95.693 E81.82715
G1 X95.693 Y108.340 E82.35309
G1 X93.872 Y108.340 E82.40665
G1 X108.340 Y93.872 E83.00833
G1 X108.340 Y92.050 E83.06189
G1 X92.050 Y108.340 E83.73931
G1 X91.660 Y106.910 E83.78292
G1 X106.910 Y91.660 E84.41712
G1 X105.088 Y91.660 E84.47068
G1 X91.660 Y105.088 E85.02912
G1 X91.660 Y103.267 E85.08268
G1 X103.267 Y91.660 E85.56539
G1 X101.446 Y91.660 E85.61895
G1 X91.660 Y101.446 E86.02590
G1 X91.660 Y99.624 E86.07946
G1 X99.624 Y91.660 E86.41068
G1 X97.803 Y91.660 E86.46424
G1 X91.660 Y97.803 E86.71970
G1 X91.660 Y95.981 E86.77326
G1 X95.981 Y91.660 E86.95298
G1 X94.160 Y91.660 E87.00654
G1 X91.660 Y94.160 E87.11052
G1 X91.660 Y92.338 E87.16408
G1 X92.338 Y91.660 E87.19231
G1 Z2.000 F7800.000
G1 X91.293 Y91.293
G1 X108.707 Y91.293 F1800.000 E87.70438
G1 X108.707 Y108.707 E88.21645
G1 X91.293 Y108.707 E88.72852
G1 X91.293 Y91.372 E89.23828
G1 X90.778 Y90.778 F7800.000
G1 X109.222 Y90.778 F1800.000 E89.78065
G1 X109.222 Y109.222 E90.32302
G1 X90.778 Y109.222 E90.86539
G1 X90.778 Y90.856 E91.40545
G1 X90.263 Y90.263 F7800.000
G1 X109.737 Y90.263 F1800.000 E91.97811
G1 X109.737 Y109.737 E92.55078
G1 X90.263 Y109.737 E93.12345
G1 X90.263 Y90.341 E93.69380
G1 X108.340 Y92.338 F7800.000
G1 X107.662 Y91.660 F3600.000 E93.72203
G1 X105.840 Y91.660 E93.77559
G1 X108.340 Y94.160 E93.87957
G1 X108.340 Y95.981 E93.93313
G1 X104.019 Y91.660 E94.11285
G1 X102.197 Y91.660 E94.16641
G1 X108.340 Y97.803 E94.42188
G1 X108.340 Y99.624 E94.47544
G1 X100.376 Y91.660 E94.80665
G1 X98.554 Y91.660 E94.86021
G1 X108.340 Y101.446 E95.26716
G1 X108.340 Y103.267 E95.32073
G1 X96.733 Y91.660 E95.80343
G1 X94.912 Y91.660 E95.85699
G1 X108.340 Y105.088 E96.41544
G1 X108.340 Y106.910 E96.46900
G1 X93.090 Y91.660 E97.10319
G1 X91.660 Y92.050 E97.14680
G1 X107.950 Y108.340 E97.82422
G1 X106.128 Y108.340 E97.87778
G1 X91.660 Y93.872 E98.47946
G1 X91.660 Y95.693 E98.53302
G1 X104.307 Y108.340 E99.05896
G1 X102.485 Y108.340 E99.11252
G1 X91.660 Y97.515 E99.56271
G1 X91.660 Y99.336 E99.61627
G1 X100.664 Y108.340 E99.99071
G1 X98.842 Y108.340 E100.04427
G1 X91.660 Y101.158 E100.34297
G1 X91.660 Y102.979 E100.39653
G1 X97.021 Y108.340 E100.61948
G1 X95.199 Y108.340 E100.67304
G1 X91.660 Y104.801 E100.82025
G1 X91.660 Y106.622 E100.87381
G1 X93.378 Y108.340 E100.94527
G1 Z2.400 F7800.000
G1 X91.293 Y108.707
G1 X91.293 Y91.293 F1800.000 E101.45735
G1 X108.707 Y91.293 E101.96942
G1 X108.707 Y108.707 E102.48149
G1 X91.372 Y108.707 E102.99125
G1 X90.778 Y109.222 F7800.000
G1 X90.778 Y90.778 F1800.000 E103.53362
G1 X109.222 Y90.778 E104.07599
G1 X109.222 Y109.222 E104.61836
G1 X90.856 Y109.222 E105.15841
G1 X90.263 Y109.737 F7800.000
G1 X90.263 Y90.263 F1800.000 E105.73108
G1 X109.737 Y90.263 E106.30375
G1 X109.737 Y109.737 E106.87642
