; generated by Slic3r 0.7.1 on 2012-03-21 at 22:17:04

; layer_height = 0.4
; perimeters = 3
; solid_layers = 3
; fill_density = 0.4
; nozzle_diameter = 0.5
; filament_diameter = 3
; extrusion_multiplier = 1
; perimeter_speed = 30
; infill_speed = 60
; travel_speed = 130
; extrusion_width_ratio = 0
; scale = 1
; single wall width = 0.53mm

M104 S200 ; set temperature
G28 ; home all axes
M109 S200 ; wait for temperature to be reached
G90 ; use absolute coordinates
G21 ; set units to millimeters
G92 E0 ; reset extrusion distance
M82 ; use absolute distances for extrusion
G1 Z0.400 F7800.000
G1 X85.930 Y86.110
G1 F1800.000 E1.00000
G1 X86.110 Y85.930 F540.000 E1.00749
G1 X86.490 Y85.590 E1.02248
G1 X87.110 Y85.150 E1.04483
G1 X87.330 Y85.020 E1.05235
G1 X87.790 Y84.790 E1.06747
G1 X88.260 Y84.600 E1.08238
G1 X88.750 Y84.450 E1.09745
G1 X89.000 Y84.390 E1.10501
G1 X89.750 Y84.280 E1.12730
G1 X90.260 Y84.260 E1.14231
G1 X110.240 Y84.280 E1.72982
G1 X110.990 Y84.390 E1.75211
G1 X111.490 Y84.520 E1.76731
G1 X111.970 Y84.690 E1.78228
G1 X112.430 Y84.900 E1.79715
G1 X112.660 Y85.020 E1.80478
G1 X112.880 Y85.150 E1.81229
G1 X113.500 Y85.590 E1.83465
G1 X113.880 Y85.930 E1.84964
G1 X114.060 Y86.110 E1.85713
G1 X114.400 Y86.490 E1.87212
G1 X114.840 Y87.110 E1.89448
G1 X114.970 Y87.330 E1.90199
G1 X115.200 Y87.790 E1.91711
G1 X115.390 Y88.260 E1.93202
G1 X115.540 Y88.750 E1.94709
G1 X115.600 Y89.000 E1.95465
G1 X115.710 Y89.750 E1.97694
G1 X115.710 Y110.240 E2.57945
G1 X115.600 Y110.990 E2.60174
G1 X115.470 Y111.490 E2.61694
G1 X115.300 Y111.970 E2.63191
G1 X115.090 Y112.430 E2.64678
G1 X114.970 Y112.660 E2.65441
G1 X114.840 Y112.880 E2.66192
G1 X114.400 Y113.500 E2.68428
G1 X114.060 Y113.880 E2.69927
G1 X113.880 Y114.060 E2.70676
G1 X113.500 Y114.400 E2.72175
G1 X112.880 Y114.840 E2.74411
G1 X112.660 Y114.970 E2.75162
G1 X112.200 Y115.200 E2.76674
G1 X111.730 Y115.390 E2.78165
G1 X111.240 Y115.540 E2.79672
G1 X110.990 Y115.600 E2.80428
G1 X110.240 Y115.710 E2.82657
G1 X109.730 Y115.730 E2.84158
G1 X89.750 Y115.710 E3.42910
G1 X89.000 Y115.600 E3.45139
G1 X88.500 Y115.470 E3.46658
G1 X88.020 Y115.300 E3.48155
G1 X87.560 Y115.090 E3.49642
G1 X87.330 Y114.970 E3.50405
G1 X87.110 Y114.840 E3.51156
G1 X86.490 Y114.400 E3.53392
G1 X86.110 Y114.060 E3.54891
G1 X85.930 Y113.880 E3.55640
G1 X85.590 Y113.500 E3.57139
G1 X85.150 Y112.880 E3.59375
G1 X85.020 Y112.660 E3.60126
G1 X84.790 Y112.200 E3.61638
G1 X84.600 Y111.730 E3.63129
G1 X84.450 Y111.240 E3.64636
G1 X84.390 Y110.990 E3.65392
G1 X84.280 Y110.240 E3.67621
G1 X84.280 Y89.750 E4.27873
G1 X84.390 Y89.000 E4.30102
G1 X84.520 Y88.500 E4.31621
G1 X84.690 Y88.020 E4.33118
G1 X84.900 Y87.560 E4.34605
G1 X85.020 Y87.330 E4.35368
G1 X85.150 Y87.110 E4.36119
G1 X85.590 Y86.490 E4.38355
G1 X85.877 Y86.169 E4.39623
G1 F1800.000 E3.39623
G92 E0
G1 X91.293 Y91.293 F7800.000
G1 F1800.000 E1.00000
G1 X108.707 Y91.293 F540.000 E1.51207
G1 X108.707 Y108.707 E2.02414
G1 X91.293 Y108.707 E2.53622
G1 X91.293 Y91.372 E3.04597
G1 X90.778 Y90.778 F7800.000
G1 X109.222 Y90.778 F540.000 E3.58834
G1 X109.222 Y109.222 E4.13071
G1 X90.778 Y109.222 E4.67308
G1 X90.778 Y90.856 E5.21314
G1 X90.263 Y90.263 F7800.000
G1 X109.737 Y90.263 F540.000 E5.78581
G1 X109.737 Y109.737 E6.35847
G1 X90.263 Y109.737 E6.93114
G1 X90.263 Y90.341 E7.50149
G1 F1800.000 E6.50149
G92 E0
G1 X107.714 Y91.660 F7800.000
G1 F1800.000 E1.00000
G1 X108.340 Y92.286 F1080.000 E1.02613
G1 X108.340 Y93.016 E1.04764
G1 X106.984 Y91.660 E1.10419
G1 X106.254 Y91.660 E1.12570
G1 X108.340 Y93.746 E1.21267
G1 X108.340 Y94.475 E1.23418
G1 X105.525 Y91.660 E1.35157
G1 X104.795 Y91.660 E1.37308
G1 X108.340 Y95.205 E1.52089
G1 X108.340 Y95.935 E1.54241
G1 X104.065 Y91.660 E1.72064
G1 X103.335 Y91.660 E1.74215
G1 X108.340 Y96.665 E1.95081
G1 X108.340 Y97.394 E1.97232
G1 X102.606 Y91.660 E2.21140
G1 X101.876 Y91.660 E2.23291
G1 X108.340 Y98.124 E2.50241
G1 X108.340 Y98.854 E2.52392
G1 X101.146 Y91.660 E2.82384
G1 X100.416 Y91.660 E2.84535
G1 X108.340 Y99.584 E3.17569
G1 X108.340 Y100.313 E3.19720
G1 X99.687 Y91.660 E3.55797
G1 X98.957 Y91.660 E3.57948
G1 X108.340 Y101.043 E3.97066
G1 X108.340 Y101.773 E3.99217
G1 X98.227 Y91.660 E4.41378
G1 X97.497 Y91.660 E4.43529
G1 X108.340 Y102.503 E4.88732
G1 X108.340 Y103.232 E4.90883
G1 X96.768 Y91.660 E5.39128
G1 X96.038 Y91.660 E5.41279
G1 X108.340 Y103.962 E5.92566
G1 X108.340 Y104.692 E5.94717
G1 X95.308 Y91.660 E6.49047
G1 X94.578 Y91.660 E6.51198
G1 X108.340 Y105.422 E7.08569
G1 X108.340 Y106.151 E7.10720
G1 X93.849 Y91.660 E7.71134
G1 X93.119 Y91.660 E7.73285
G1 X108.340 Y106.881 E8.36741
G1 X108.340 Y107.611 E8.38892
G1 X92.389 Y91.660 E9.05389
G1 X91.660 Y91.660 E9.07541
G1 X108.340 Y108.340 E9.77081
G1 X107.611 Y108.340 E9.79232
G1 X91.660 Y92.389 E10.45730
G1 X91.660 Y93.119 E10.47881
G1 X106.881 Y108.340 E11.11336
G1 X106.151 Y108.340 E11.13487
G1 X91.660 Y93.849 E11.73901
G1 X91.660 Y94.578 E11.76052
G1 X105.422 Y108.340 E12.33424
G1 X104.692 Y108.340 E12.35575
G1 X91.660 Y95.308 E12.89904
G1 X91.660 Y96.038 E12.92055
G1 X103.962 Y108.340 E13.43342
G1 X103.232 Y108.340 E13.45493
G1 X91.660 Y96.768 E13.93738
G1 X91.660 Y97.497 E13.95889
G1 X102.503 Y108.340 E14.41092
G1 X101.773 Y108.340 E14.43243
G1 X91.660 Y98.227 E14.85404
G1 X91.660 Y98.957 E14.87555
G1 X101.043 Y108.340 E15.26673
G1 X100.313 Y108.340 E15.28825
G1 X91.660 Y99.687 E15.64901
G1 X91.660 Y100.416 E15.67052
G1 X99.584 Y108.340 E16.00086
G1 X98.854 Y108.340 E16.02237
G1 X91.660 Y101.146 E16.32229
G1 X91.660 Y101.876 E16.34381
G1 X98.124 Y108.340 E16.61330
G1 X97.394 Y108.340 E16.63482
G1 X91.660 Y102.606 E16.87389
G1 X91.660 Y103.335 E16.89540
G1 X96.665 Y108.340 E17.10406
G1 X95.935 Y108.340 E17.12557
G1 X91.660 Y104.065 E17.30381
G1 X91.660 Y104.795 E17.32532
G1 X95.205 Y108.340 E17.47313
G1 X94.475 Y108.340 E17.49464
G1 X91.660 Y105.525 E17.61203
G1 X91.660 Y106.254 E17.63354
G1 X93.746 Y108.340 E17.72051
G1 X93.016 Y108.340 E17.74203
G1 X91.660 Y106.984 E17.79857
G1 X91.660 Y107.714 E17.82009
G1 X92.286 Y108.340 E17.84621
G1 F1800.000 E16.84621
G92 E0
G1 Z0.800 F7800.000
G1 X91.293 Y108.707
G1 F1800.000 E1.00000
G1 X91.293 Y91.293 F1800.000 E1.51207
G1 X108.707 Y91.293 E2.02414
G1 X108.707 Y108.707 E2.53622
G1 X91.372 Y108.707 E3.04597
G1 X90.778 Y109.222 F7800.000
G1 X90.778 Y90.778 F1800.000 E3.58834
G1 X109.222 Y90.778 E4.13071
G1 X109.222 Y109.222 E4.67308
G1 X90.856 Y109.222 E5.21314
G1 X90.263 Y109.737 F7800.000
G1 X90.263 Y90.263 F1800.000 E5.78581
G1 X109.737 Y90.263 E6.35847
G1 X109.737 Y109.737 E6.93114
G1 X90.341 Y109.737 E7.50149
G1 F1800.000 E6.50149
G92 E0
G1 X91.660 Y92.286 F7800.000
G1 F1800.000 E1.00000
G1 X92.286 Y91.660 F3600.000 E1.02613
G1 X93.016 Y91.660 E1.04764
G1 X91.660 Y93.016 E1.10419
G1 X91.660 Y93.746 E1.12570
G1 X93.746 Y91.660 E1.21267
G1 X94.475 Y91.660 E1.23418
G1 X91.660 Y94.475 E1.35157
G1 X91.660 Y95.205 E1.37308
G1 X95.205 Y91.660 E1.52089
G1 X95.935 Y91.660 E1.54241
G1 X91.660 Y95.935 E1.72064
G1 X91.660 Y96.665 E1.74215
G1 X96.665 Y91.660 E1.95081
G1 X97.394 Y91.660 E1.97232
G1 X91.660 Y97.394 E2.21140
G1 X91.660 Y98.124 E2.23291
G1 X98.124 Y91.660 E2.50241
G1 X98.854 Y91.660 E2.52392
G1 X91.660 Y98.854 E2.82384
G1 X91.660 Y99.584 E2.84535
G1 X99.584 Y91.660 E3.17569
G1 X100.313 Y91.660 E3.19720
G1 X91.660 Y100.313 E3.55797
G1 X91.660 Y101.043 E3.57948
G1 X101.043 Y91.660 E3.97066
G1 X101.773 Y91.660 E3.99217
G1 X91.660 Y101.773 E4.41378
G1 X91.660 Y102.503 E4.43529
G1 X102.503 Y91.660 E4.88732
G1 X103.232 Y91.660 E4.90883
G1 X91.660 Y103.232 E5.39128
G1 X91.660 Y103.962 E5.41279
G1 X103.962 Y91.660 E5.92566
G1 X104.692 Y91.660 E5.94717
G1 X91.660 Y104.692 E6.49046
G1 X91.660 Y105.422 E6.51198
G1 X105.422 Y91.660 E7.08569
G1 X106.151 Y91.660 E7.10720
G1 X91.660 Y106.151 E7.71134
G1 X91.660 Y106.881 E7.73285
G1 X106.881 Y91.660 E8.36740
G1 X107.611 Y91.660 E8.38892
G1 X91.660 Y107.611 E9.05389
G1 X91.660 Y108.340 E9.07540
G1 X108.340 Y91.660 E9.77080
G1 X108.340 Y92.389 E9.79232
G1 X92.389 Y108.340 E10.45729
G1 X93.119 Y108.340 E10.47881
G1 X108.340 Y93.119 E11.11336
G1 X108.340 Y93.849 E11.13487
G1 X93.849 Y108.340 E11.73901
G1 X94.578 Y108.340 E11.76052
G1 X108.340 Y94.578 E12.33423
G1 X108.340 Y95.308 E12.35575
G1 X95.308 Y108.340 E12.89904
G1 X96.038 Y108.340 E12.92055
G1 X108.340 Y96.038 E13.43342
G1 X108.340 Y96.768 E13.45493
G1 X96.768 Y108.340 E13.93738
G1 X97.497 Y108.340 E13.95889
G1 X108.340 Y97.497 E14.41092
G1 X108.340 Y98.227 E14.43243
G1 X98.227 Y108.340 E14.85404
G1 X98.957 Y108.340 E14.87555
G1 X108.340 Y98.957 E15.26673
G1 X108.340 Y99.687 E15.28824
G1 X99.687 Y108.340 E15.64901
G1 X100.416 Y108.340 E15.67052
G1 X108.340 Y100.416 E16.00086
G1 X108.340 Y101.146 E16.02237
G1 X101.146 Y108.340 E16.32229
G1 X101.876 Y108.340 E16.34380
G1 X108.340 Y101.876 E16.61330
G1 X108.340 Y102.606 E16.63481
G1 X102.606 Y108.340 E16.87389
G1 X103.335 Y108.340 E16.89540
G1 X108.340 Y103.335 E17.10406
G1 X108.340 Y104.065 E17.12557
G1 X104.065 Y108.340 E17.30380
G1 X104.795 Y108.340 E17.32532
G1 X108.340 Y104.795 E17.47313
G1 X108.340 Y105.525 E17.49464
G1 X105.525 Y108.340 E17.61203
G1 X106.254 Y108.340 E17.63354
G1 X108.340 Y106.254 E17.72051
G1 X108.340 Y106.984 E17.74202
G1 X106.984 Y108.340 E17.79857
G1 X107.714 Y108.340 E17.82008
G1 X108.340 Y107.714 E17.84621
G1 F1800.000 E16.84621
G92 E0
G1 Z1.200 F7800.000
G1 X108.707 Y108.707
G1 F1800.000 E1.00000
G1 X91.293 Y108.707 F1800.000 E1.51207
G1 X91.293 Y91.293 E2.02414
G1 X108.707 Y91.293 E2.53622
G1 X108.707 Y108.628 E3.04597
G1 X109.222 Y109.222 F7800.000
G1 X90.778 Y109.222 F1800.000 E3.58834
G1 X90.778 Y90.778 E4.13071
G1 X109.222 Y90.778 E4.67308
G1 X109.222 Y109.144 E5.21314
G1 X109.737 Y109.737 F7800.000
G1 X90.263 Y109.737 F1800.000 E5.78580
G1 X90.263 Y90.263 E6.35847
G1 X109.737 Y90.263 E6.93114
G1 X109.737 Y109.659 E7.50149
G1 F1800.000 E6.50149
G92 E0
G1 X92.286 Y108.340 F7800.000
G1 F1800.000 E1.00000
G1 X91.660 Y107.714 F3600.000 E1.02613
G1 X91.660 Y106.984 E1.04764
G1 X93.016 Y108.340 E1.10419
G1 X93.746 Y108.340 E1.12570
G1 X91.660 Y106.254 E1.21267
G1 X91.660 Y105.525 E1.23418
G1 X94.475 Y108.340 E1.35157
G1 X95.205 Y108.340 E1.37308
G1 X91.660 Y104.795 E1.52089
G1 X91.660 Y104.065 E1.54241
G1 X95.935 Y108.340 E1.72064
G1 X96.665 Y108.340 E1.74215
G1 X91.660 Y103.335 E1.95081
G1 X91.660 Y102.606 E1.97232
G1 X97.394 Y108.340 E2.21140
G1 X98.124 Y108.340 E2.23291
G1 X91.660 Y101.876 E2.50241
G1 X91.660 Y101.146 E2.52392
G1 X98.854 Y108.340 E2.82384
G1 X99.584 Y108.340 E2.84535
G1 X91.660 Y100.416 E3.17569
G1 X91.660 Y99.687 E3.19720
G1 X100.313 Y108.340 E3.55797
G1 X101.043 Y108.340 E3.57948
G1 X91.660 Y98.957 E3.97066
G1 X91.660 Y98.227 E3.99217
G1 X101.773 Y108.340 E4.41378
G1 X102.503 Y108.340 E4.43529
G1 X91.660 Y97.497 E4.88732
G1 X91.660 Y96.768 E4.90883
G1 X103.232 Y108.340 E5.39128
G1 X103.962 Y108.340 E5.41279
G1 X91.660 Y96.038 E5.92566
G1 X91.660 Y95.308 E5.94717
G1 X104.692 Y108.340 E6.49047
G1 X105.422 Y108.340 E6.51198
G1 X91.660 Y94.578 E7.08569
G1 X91.660 Y93.849 E7.10720
G1 X106.151 Y108.340 E7.71134
G1 X106.881 Y108.340 E7.73285
G1 X91.660 Y93.119 E8.36740
G1 X91.660 Y92.389 E8.38892
G1 X107.611 Y108.340 E9.05389
G1 X108.340 Y108.340 E9.07541
G1 X91.660 Y91.660 E9.77081
G1 X92.389 Y91.660 E9.79232
G1 X108.340 Y107.611 E10.45730
G1 X108.340 Y106.881 E10.47881
G1 X93.119 Y91.660 E11.11336
G1 X93.849 Y91.660 E11.13487
G1 X108.340 Y106.151 E11.73901
G1 X108.340 Y105.422 E11.76052
G1 X94.578 Y91.660 E12.33423
G1 X95.308 Y91.660 E12.35575
G1 X108.340 Y104.692 E12.89904
G1 X108.340 Y103.962 E12.92055
G1 X96.038 Y91.660 E13.43342
G1 X96.768 Y91.660 E13.45493
G1 X108.340 Y103.232 E13.93738
G1 X108.340 Y102.503 E13.95889
G1 X97.497 Y91.660 E14.41092
G1 X98.227 Y91.660 E14.43243
G1 X108.340 Y101.773 E14.85404
G1 X108.340 Y101.043 E14.87555
G1 X98.957 Y91.660 E15.26673
G1 X99.687 Y91.660 E15.28825
G1 X108.340 Y100.313 E15.64901
G1 X108.340 Y99.584 E15.67052
G1 X100.416 Y91.660 E16.00086
G1 X101.146 Y91.660 E16.02237
G1 X108.340 Y98.854 E16.32229
G1 X108.340 Y98.124 E16.34380
G1 X101.876 Y91.660 E16.61330
G1 X102.606 Y91.660 E16.63481
G1 X108.340 Y97.394 E16.87389
G1 X108.340 Y96.665 E16.89540
G1 X103.335 Y91.660 E17.10406
G1 X104.065 Y91.660 E17.12557
G1 X108.340 Y95.935 E17.30381
G1 X108.340 Y95.205 E17.32532
G1 X104.795 Y91.660 E17.47313
G1 X105.525 Y91.660 E17.49464
G1 X108.340 Y94.475 E17.61203
G1 X108.340 Y93.746 E17.63354
G1 X106.254 Y91.660 E17.72051
G1 X106.984 Y91.660 E17.74202
G1 X108.340 Y93.016 E17.79857
G1 X108.340 Y92.286 E17.82008
G1 X107.714 Y91.660 E17.84621
G1 F1800.000 E16.84621
G92 E0
G1 Z1.600 F7800.000
G1 X108.707 Y91.293
G1 F1800.000 E1.00000
G1 X108.707 Y108.707 F1800.000 E1.51207
G1 X91.293 Y108.707 E2.02414
G1 X91.293 Y91.293 E2.53622
G1 X108.628 Y91.293 E3.04597
G1 X109.222 Y90.778 F7800.000
G1 X109.222 Y109.222 F1800.000 E3.58834
G1 X90.778 Y109.222 E4.13071
G1 X90.778 Y90.778 E4.67308
G1 X109.144 Y90.778 E5.21314
G1 X109.737 Y90.263 F7800.000
G1 X109.737 Y109.737 F1800.000 E5.78581
G1 X90.263 Y109.737 E6.35847
G1 X90.263 Y90.263 E6.93114
G1 X109.659 Y90.263 E7.50149
G1 F1800.000 E6.50149
G92 E0
G1 X108.340 Y106.622 F7800.000
G1 F1800.000 E1.00000
G1 X106.622 Y108.340 F3600.000 E1.07146
G1 X104.801 Y108.340 E1.12502
G1 X108.340 Y104.801 E1.27223
G1 X108.340 Y102.979 E1.32579
G1 X102.979 Y108.340 E1.54874
G1 X101.158 Y108.340 E1.60230
G1 X108.340 Y101.158 E1.90100
G1 X108.340 Y99.336 E1.95456
G1 X99.336 Y108.340 E2.32900
G1 X97.515 Y108.340 E2.38256
G1 X108.340 Y97.515 E2.83275
G1 X108.340 Y95.693 E2.88631
G1 X95.693 Y108.340 E3.41225
G1 X93.872 Y108.340 E3.46581
G1 X108.340 Y93.872 E4.06749
G1 X108.340 Y92.050 E4.12105
G1 X92.050 Y108.340 E4.79848
G1 X91.660 Y106.910 E4.84208
G1 X106.910 Y91.660 E5.47628
G1 X105.088 Y91.660 E5.52984
G1 X91.660 Y105.088 E6.08829
G1 X91.660 Y103.267 E6.14185
G1 X103.267 Y91.660 E6.62455
G1 X101.446 Y91.660 E6.67811
G1 X91.660 Y101.446 E7.08507
G1 X91.660 Y99.624 E7.13863
G1 X99.624 Y91.660 E7.46984
G1 X97.803 Y91.660 E7.52340
G1 X91.660 Y97.803 E7.77886
G1 X91.660 Y95.981 E7.83242
G1 X95.981 Y91.660 E8.01215
G1 X94.160 Y91.660 E8.06571
G1 X91.660 Y94.160 E8.16968
G1 X91.660 Y92.338 E8.22324
G1 X92.338 Y91.660 E8.25147
G1 F1800.000 E7.25147
G92 E0
G1 Z2.000 F7800.000
G1 X91.293 Y91.293
G1 F1800.000 E1.00000
G1 X108.707 Y91.293 F1800.000 E1.51207
G1 X108.707 Y108.707 E2.02414
G1 X91.293 Y108.707 E2.53622
G1 X91.293 Y91.372 E3.04597
G1 X90.778 Y90.778 F7800.000
G1 X109.222 Y90.778 F1800.000 E3.58834
G1 X109.222 Y109.222 E4.13071
G1 X90.778 Y109.222 E4.67308
G1 X90.778 Y90.856 E5.21314
G1 X90.263 Y90.263 F7800.000
G1 X109.737 Y90.263 F1800.000 E5.78581
G1 X109.737 Y109.737 E6.35847
G1 X90.263 Y109.737 E6.93114
G1 X90.263 Y90.341 E7.50149
G1 F1800.000 E6.50149
G92 E0
G1 X108.340 Y92.338 F7800.000
G1 F1800.000 E1.00000
G1 X107.662 Y91.660 F3600.000 E1.02823
G1 X105.840 Y91.660 E1.08179
G1 X108.340 Y94.160 E1.18577
G1 X108.340 Y95.981 E1.23933
G1 X104.019 Y91.660 E1.41905
G1 X102.197 Y91.660 E1.47261
G1 X108.340 Y97.803 E1.72807
G1 X108.340 Y99.624 E1.78163
G1 X100.376 Y91.660 E2.11284
G1 X98.554 Y91.660 E2.16640
G1 X108.340 Y101.446 E2.57336
G1 X108.340 Y103.267 E2.62692
G1 X96.733 Y91.660 E3.10962
G1 X94.912 Y91.660 E3.16319
G1 X108.340 Y105.088 E3.72163
G1 X108.340 Y106.910 E3.77519
G1 X93.090 Y91.660 E4.40939
G1 X91.660 Y92.050 E4.45300
G1 X107.950 Y108.340 E5.13042
G1 X106.128 Y108.340 E5.18398
G1 X91.660 Y93.872 E5.78566
G1 X91.660 Y95.693 E5.83922
G1 X104.307 Y108.340 E6.36516
G1 X102.485 Y108.340 E6.41872
G1 X91.660 Y97.515 E6.86891
G1 X91.660 Y99.336 E6.92247
G1 X100.664 Y108.340 E7.29691
G1 X98.842 Y108.340 E7.35047
G1 X91.660 Y101.158 E7.64917
G1 X91.660 Y102.979 E7.70273
G1 X97.021 Y108.340 E7.92568
G1 X95.199 Y108.340 E7.97924
G1 X91.660 Y104.801 E8.12645
G1 X91.660 Y106.622 E8.18001
G1 X93.378 Y108.340 E8.25147
G1 F1800.000 E7.25147
G92 E0
G1 Z2.400 F7800.000
G1 X91.293 Y108.707
G1 F1800.000 E1.00000
G1 X91.293 Y91.293 F1800.000 E1.51207
G1 X108.707 Y91.293 E2.02414
G1 X108.707 Y108.707 E2.53622
G1 X91.372 Y108.707 E3.04597
