(.../Program Files/EAGLE-6.1.0/ulp/pcb-gcode.ulp)
(Copyright 2005 - 2009 by John Johnson)
(See readme.txt for licensing terms.)
(This file generated from the board:)
(.../Projects/LED Cube Project/test.brd)
(Current profile is .../EAGLE-6.1.0/ulp/profiles/turbocnc.pp  )
(This file generated 31/03/2012 23:41:02)
G21
(Absolute Coordinates)
G90
G00 X29.0000 Y3.0000 
M03
G04 P3.000000
G00 Z2.0000 
G00 X25.3079 Y4.4740 
G01 Z-0.2000 F200.00 
G01 X25.2821 Y4.3776 F200.00 
G01 X25.2321 Y4.2910 
G01 X25.1615 Y4.2204 
G01 X25.0750 Y4.1705 
G01 X24.9785 Y4.1446 
G01 X24.8786 Y4.1446 
G01 X24.7821 Y4.1705 
G01 X24.6956 Y4.2204 
G01 X24.6249 Y4.2910 
G01 X24.5750 Y4.3776 
G01 X24.5491 Y4.4740 
G01 X24.5491 Y10.0933 
G01 X22.8957 Y10.0933 
G01 X22.7992 Y10.1191 
G01 X22.7127 Y10.1691 
G01 X22.6420 Y10.2397 
G01 X22.5921 Y10.3262 
G01 X22.5662 Y10.4227 
G01 X22.5662 Y10.5226 
G01 X22.5921 Y10.6191 
G01 X22.6420 Y10.7056 
G01 X22.7127 Y10.7763 
G01 X22.7992 Y10.8262 
G01 X22.8957 Y10.8521 
G01 X26.9614 Y10.8521 
G01 X27.0579 Y10.8262 
G01 X27.1444 Y10.7763 
G01 X27.2150 Y10.7056 
G01 X27.2650 Y10.6191 
G01 X27.2908 Y10.5226 
G01 X27.2908 Y10.4227 
G01 X27.2650 Y10.3262 
G01 X27.2150 Y10.2397 
G01 X27.1444 Y10.1691 
G01 X27.0579 Y10.1191 
G01 X26.9614 Y10.0933 
G01 X25.3079 Y10.0933 
G01 X25.3079 Y4.4740 
G00 Z2.0000 
G00 X21.2745 Y9.7142 
G01 Z-0.2000 F200.00 
G01 X21.3244 Y9.6277 F200.00 
G01 X21.3503 Y9.5312 
G01 X21.3503 Y9.4313 
G01 X21.3244 Y9.3348 
G01 X21.2745 Y9.2483 
G01 X21.2038 Y9.1776 
G01 X21.1173 Y9.1277 
G01 X21.0208 Y9.1018 
G01 X20.9209 Y9.1018 
G01 X20.8244 Y9.1277 
G01 X20.7379 Y9.1776 
G01 X19.8223 Y10.0933 
G01 X18.1537 Y10.0933 
G01 X17.3845 Y9.3241 
G01 X17.3845 Y8.6469 
G01 X18.1537 Y7.8777 
G01 X20.0294 Y7.8777 
G01 X20.1259 Y7.8519 
G01 X20.2124 Y7.8019 
G01 X21.2038 Y6.8105 
G01 X21.2745 Y6.7399 
G01 X21.3244 Y6.6533 
G01 X21.3503 Y6.5568 
G01 X21.3503 Y5.4655 
G01 X21.3244 Y5.3690 
G01 X21.2745 Y5.2825 
G01 X20.2830 Y4.2910 
G01 X20.2124 Y4.2204 
G01 X20.1259 Y4.1705 
G01 X20.0294 Y4.1446 
G01 X17.9466 Y4.1446 
G01 X17.8501 Y4.1705 
G01 X17.7636 Y4.2204 
G01 X16.7015 Y5.2825 
G01 X16.6516 Y5.3690 
G01 X16.6257 Y5.4655 
G01 X16.6257 Y5.5654 
G01 X16.6516 Y5.6619 
G01 X16.7015 Y5.7484 
G01 X16.7721 Y5.8190 
G01 X16.8587 Y5.8690 
G01 X16.9551 Y5.8948 
G01 X17.0550 Y5.8948 
G01 X17.1515 Y5.8690 
G01 X17.2381 Y5.8190 
G01 X18.1537 Y4.9034 
G01 X19.8223 Y4.9034 
G01 X20.5915 Y5.6726 
G01 X20.5915 Y6.3497 
G01 X19.8223 Y7.1189 
G01 X17.9466 Y7.1189 
G01 X17.8501 Y7.1448 
G01 X17.7636 Y7.1947 
G01 X17.6929 Y7.2654 
G01 X16.7015 Y8.2568 
G01 X16.6516 Y8.3433 
G01 X16.6257 Y8.4398 
G01 X16.6257 Y9.5312 
G01 X16.6516 Y9.6277 
G01 X16.7015 Y9.7142 
G01 X16.7721 Y9.7848 
G01 X17.7636 Y10.7763 
G01 X17.8501 Y10.8262 
G01 X17.9466 Y10.8521 
G01 X20.0294 Y10.8521 
G01 X20.1259 Y10.8262 
G01 X20.2124 Y10.7763 
G01 X20.2830 Y10.7056 
G01 X21.2745 Y9.7142 
G00 Z2.0000 
G00 X7.4863 Y4.4740 
G01 Z-0.2000 F200.00 
G01 X7.4604 Y4.3776 F200.00 
G01 X7.4105 Y4.2910 
G01 X7.3399 Y4.2204 
G01 X7.2533 Y4.1705 
G01 X7.1568 Y4.1446 
G01 X7.0569 Y4.1446 
G01 X6.9605 Y4.1705 
G01 X6.8739 Y4.2204 
G01 X6.8033 Y4.2910 
G01 X6.7534 Y4.3776 
G01 X6.7275 Y4.4740 
G01 X6.7275 Y10.0933 
G01 X5.0740 Y10.0933 
G01 X4.9776 Y10.1191 
G01 X4.8910 Y10.1691 
G01 X4.8204 Y10.2397 
G01 X4.7705 Y10.3262 
G01 X4.7446 Y10.4227 
G01 X4.7446 Y10.5226 
G01 X4.7705 Y10.6191 
G01 X4.8204 Y10.7056 
G01 X4.8910 Y10.7763 
G01 X4.9776 Y10.8262 
G01 X5.0740 Y10.8521 
G01 X9.1397 Y10.8521 
G01 X9.2362 Y10.8262 
G01 X9.3227 Y10.7763 
G01 X9.3934 Y10.7056 
G01 X9.4433 Y10.6191 
G01 X9.4692 Y10.5226 
G01 X9.4692 Y10.4227 
G01 X9.4433 Y10.3262 
G01 X9.3934 Y10.2397 
G01 X9.3227 Y10.1691 
G01 X9.2362 Y10.1191 
G01 X9.1397 Y10.0933 
G01 X7.4863 Y10.0933 
G01 X7.4863 Y4.4740 
G00 Z2.0000 
G00 X15.0803 Y10.8521 
G01 Z-0.2000 F200.00 
G01 X15.1768 Y10.8262 F200.00 
G01 X15.2633 Y10.7763 
G01 X15.3339 Y10.7056 
G01 X15.3839 Y10.6191 
G01 X15.4097 Y10.5226 
G01 X15.4097 Y10.4227 
G01 X15.3839 Y10.3262 
G01 X15.3339 Y10.2397 
G01 X15.2633 Y10.1691 
G01 X15.1768 Y10.1191 
G01 X15.0803 Y10.0933 
G01 X11.4439 Y10.0933 
G01 X11.4439 Y7.8777 
G01 X13.0974 Y7.8777 
G01 X13.1939 Y7.8519 
G01 X13.2804 Y7.8019 
G01 X13.3510 Y7.7313 
G01 X13.4010 Y7.6448 
G01 X13.4268 Y7.5483 
G01 X13.4268 Y7.4484 
G01 X13.4010 Y7.3519 
G01 X13.3510 Y7.2654 
G01 X13.2804 Y7.1947 
G01 X13.1939 Y7.1448 
G01 X13.0974 Y7.1189 
G01 X11.4439 Y7.1189 
G01 X11.4439 Y4.9034 
G01 X15.0803 Y4.9034 
G01 X15.1768 Y4.8775 
G01 X15.2633 Y4.8276 
G01 X15.3339 Y4.7570 
G01 X15.3839 Y4.6704 
G01 X15.4097 Y4.5740 
G01 X15.4097 Y4.4740 
G01 X15.3839 Y4.3776 
G01 X15.3339 Y4.2910 
G01 X15.2633 Y4.2204 
G01 X15.1768 Y4.1705 
G01 X15.0803 Y4.1446 
G01 X11.0146 Y4.1446 
G01 X10.9181 Y4.1705 
G01 X10.8316 Y4.2204 
G01 X10.7610 Y4.2910 
G01 X10.7110 Y4.3776 
G01 X10.6852 Y4.4740 
G01 X10.6852 Y10.5226 
G01 X10.7110 Y10.6191 
G01 X10.7610 Y10.7056 
G01 X10.8316 Y10.7763 
G01 X10.9181 Y10.8262 
G01 X11.0146 Y10.8521 
G01 X11.1145 Y10.8521 
G01 X15.0803 Y10.8521 
G00 Z2.0000 
G00 X25.3204 Y4.4724 
G01 Z-0.2000 F200.00 
G01 X25.2937 Y4.3727 F200.00 
G01 X25.2421 Y4.2834 
G01 X25.1692 Y4.2104 
G01 X25.0798 Y4.1588 
G01 X24.9801 Y4.1321 
G01 X24.8769 Y4.1321 
G01 X24.7773 Y4.1588 
G01 X24.6879 Y4.2104 
G01 X24.6149 Y4.2834 
G01 X24.5633 Y4.3727 
G01 X24.5366 Y4.4724 
G01 X24.5366 Y10.0808 
G01 X22.8940 Y10.0808 
G01 X22.7944 Y10.1075 
G01 X22.7050 Y10.1591 
G01 X22.6320 Y10.2320 
G01 X22.5804 Y10.3214 
G01 X22.5537 Y10.4211 
G01 X22.5537 Y10.5243 
G01 X22.5804 Y10.6239 
G01 X22.6320 Y10.7133 
G01 X22.7050 Y10.7863 
G01 X22.7944 Y10.8379 
G01 X22.8940 Y10.8646 
G01 X26.9630 Y10.8646 
G01 X27.0627 Y10.8379 
G01 X27.1521 Y10.7863 
G01 X27.2250 Y10.7133 
G01 X27.2766 Y10.6239 
G01 X27.3033 Y10.5243 
G01 X27.3033 Y10.4211 
G01 X27.2766 Y10.3214 
G01 X27.2250 Y10.2320 
G01 X27.1521 Y10.1591 
G01 X27.0627 Y10.1075 
G01 X26.9630 Y10.0808 
G01 X25.3204 Y10.0808 
G01 X25.3204 Y4.4724 
G00 Z2.0000 
G00 X21.2845 Y9.7219 
G01 Z-0.2000 F200.00 
G01 X21.3361 Y9.6325 F200.00 
G01 X21.3628 Y9.5328 
G01 X21.3628 Y9.4296 
G01 X21.3361 Y9.3300 
G01 X21.2845 Y9.2406 
G01 X21.2115 Y9.1676 
G01 X21.1221 Y9.1160 
G01 X21.0225 Y9.0893 
G01 X20.9193 Y9.0893 
G01 X20.8196 Y9.1160 
G01 X20.7302 Y9.1676 
G01 X19.8171 Y10.0808 
G01 X18.1589 Y10.0808 
G01 X17.3970 Y9.3189 
G01 X17.3970 Y8.6521 
G01 X18.1589 Y7.8902 
G01 X20.0310 Y7.8902 
G01 X20.1307 Y7.8635 
G01 X20.2201 Y7.8119 
G01 X21.2115 Y6.8205 
G01 X21.2845 Y6.7475 
G01 X21.3361 Y6.6582 
G01 X21.3628 Y6.5585 
G01 X21.3628 Y5.4639 
G01 X21.3361 Y5.3642 
G01 X21.2845 Y5.2748 
G01 X20.2930 Y4.2834 
G01 X20.2201 Y4.2104 
G01 X20.1307 Y4.1588 
G01 X20.0310 Y4.1321 
G01 X17.9449 Y4.1321 
G01 X17.8453 Y4.1588 
G01 X17.7559 Y4.2104 
G01 X16.6915 Y5.2748 
G01 X16.6399 Y5.3642 
G01 X16.6132 Y5.4639 
G01 X16.6132 Y5.5670 
G01 X16.6399 Y5.6667 
G01 X16.6915 Y5.7561 
G01 X16.7645 Y5.8290 
G01 X16.8538 Y5.8806 
G01 X16.9535 Y5.9073 
G01 X17.0567 Y5.9073 
G01 X17.1564 Y5.8806 
G01 X17.2457 Y5.8290 
G01 X18.1589 Y4.9159 
G01 X19.8171 Y4.9159 
G01 X20.5790 Y5.6778 
G01 X20.5790 Y6.3446 
G01 X19.8171 Y7.1064 
G01 X17.9449 Y7.1064 
G01 X17.8453 Y7.1331 
G01 X17.7559 Y7.1847 
G01 X17.6829 Y7.2577 
G01 X16.6915 Y8.2492 
G01 X16.6399 Y8.3385 
G01 X16.6132 Y8.4382 
G01 X16.6132 Y9.5328 
G01 X16.6399 Y9.6325 
G01 X16.6915 Y9.7219 
G01 X16.7645 Y9.7948 
G01 X17.7559 Y10.7863 
G01 X17.8453 Y10.8379 
G01 X17.9449 Y10.8646 
G01 X20.0310 Y10.8646 
G01 X20.1307 Y10.8379 
G01 X20.2201 Y10.7863 
G01 X20.2930 Y10.7133 
G01 X21.2845 Y9.7219 
G00 Z2.0000 
G00 X7.4988 Y4.4724 
G01 Z-0.2000 F200.00 
G01 X7.4721 Y4.3727 F200.00 
G01 X7.4205 Y4.2834 
G01 X7.3475 Y4.2104 
G01 X7.2582 Y4.1588 
G01 X7.1585 Y4.1321 
G01 X7.0553 Y4.1321 
G01 X6.9556 Y4.1588 
G01 X6.8663 Y4.2104 
G01 X6.7933 Y4.2834 
G01 X6.7417 Y4.3727 
G01 X6.7150 Y4.4724 
G01 X6.7150 Y10.0808 
G01 X5.0724 Y10.0808 
G01 X4.9727 Y10.1075 
G01 X4.8834 Y10.1591 
G01 X4.8104 Y10.2320 
G01 X4.7588 Y10.3214 
G01 X4.7321 Y10.4211 
G01 X4.7321 Y10.5243 
G01 X4.7588 Y10.6239 
G01 X4.8104 Y10.7133 
G01 X4.8834 Y10.7863 
G01 X4.9727 Y10.8379 
G01 X5.0724 Y10.8646 
G01 X9.1414 Y10.8646 
G01 X9.2411 Y10.8379 
G01 X9.3304 Y10.7863 
G01 X9.4034 Y10.7133 
G01 X9.4550 Y10.6239 
G01 X9.4817 Y10.5243 
G01 X9.4817 Y10.4211 
G01 X9.4550 Y10.3214 
G01 X9.4034 Y10.2320 
G01 X9.3304 Y10.1591 
G01 X9.2411 Y10.1075 
G01 X9.1414 Y10.0808 
G01 X7.4988 Y10.0808 
G01 X7.4988 Y4.4724 
G00 Z2.0000 
G00 X15.0819 Y10.8646 
G01 Z-0.2000 F200.00 
G01 X15.1816 Y10.8379 F200.00 
G01 X15.2710 Y10.7863 
G01 X15.3439 Y10.7133 
G01 X15.3955 Y10.6239 
G01 X15.4222 Y10.5243 
G01 X15.4222 Y10.4211 
G01 X15.3955 Y10.3214 
G01 X15.3439 Y10.2320 
G01 X15.2710 Y10.1591 
G01 X15.1816 Y10.1075 
G01 X15.0819 Y10.0808 
G01 X11.4564 Y10.0808 
G01 X11.4564 Y7.8902 
G01 X13.0990 Y7.8902 
G01 X13.1987 Y7.8635 
G01 X13.2881 Y7.8119 
G01 X13.3610 Y7.7390 
G01 X13.4126 Y7.6496 
G01 X13.4393 Y7.5499 
G01 X13.4393 Y7.4467 
G01 X13.4126 Y7.3471 
G01 X13.3610 Y7.2577 
G01 X13.2881 Y7.1847 
G01 X13.1987 Y7.1331 
G01 X13.0990 Y7.1064 
G01 X11.4564 Y7.1064 
G01 X11.4564 Y4.9159 
G01 X15.0819 Y4.9159 
G01 X15.1816 Y4.8892 
G01 X15.2710 Y4.8376 
G01 X15.3439 Y4.7646 
G01 X15.3955 Y4.6753 
G01 X15.4222 Y4.5756 
G01 X15.4222 Y4.4724 
G01 X15.3955 Y4.3727 
G01 X15.3439 Y4.2834 
G01 X15.2710 Y4.2104 
G01 X15.1816 Y4.1588 
G01 X15.0819 Y4.1321 
G01 X11.0130 Y4.1321 
G01 X10.9133 Y4.1588 
G01 X10.8239 Y4.2104 
G01 X10.7509 Y4.2834 
G01 X10.6994 Y4.3727 
G01 X10.6727 Y4.4724 
G01 X10.6727 Y10.5243 
G01 X10.6994 Y10.6239 
G01 X10.7509 Y10.7133 
G01 X10.8239 Y10.7863 
G01 X10.9133 Y10.8379 
G01 X11.0130 Y10.8646 
G01 X11.1161 Y10.8646 
G01 X15.0819 Y10.8646 
G00 Z2.0000 
G00 X25.3329 Y4.4708 
G01 Z-0.2000 F200.00 
G01 X25.3054 Y4.3679 F200.00 
G01 X25.2521 Y4.2757 
G01 X25.1768 Y4.2004 
G01 X25.0846 Y4.1472 
G01 X24.9818 Y4.1196 
G01 X24.8753 Y4.1196 
G01 X24.7724 Y4.1472 
G01 X24.6802 Y4.2004 
G01 X24.6049 Y4.2757 
G01 X24.5517 Y4.3679 
G01 X24.5241 Y4.4708 
G01 X24.5241 Y10.0683 
G01 X22.8924 Y10.0683 
G01 X22.7895 Y10.0958 
G01 X22.6973 Y10.1491 
G01 X22.6220 Y10.2244 
G01 X22.5688 Y10.3166 
G01 X22.5412 Y10.4194 
G01 X22.5412 Y10.5259 
G01 X22.5688 Y10.6288 
G01 X22.6220 Y10.7210 
G01 X22.6973 Y10.7963 
G01 X22.7895 Y10.8495 
G01 X22.8924 Y10.8771 
G01 X26.9647 Y10.8771 
G01 X27.0675 Y10.8495 
G01 X27.1597 Y10.7963 
G01 X27.2350 Y10.7210 
G01 X27.2883 Y10.6288 
G01 X27.3158 Y10.5259 
G01 X27.3158 Y10.4194 
G01 X27.2883 Y10.3166 
G01 X27.2350 Y10.2244 
G01 X27.1597 Y10.1491 
G01 X27.0675 Y10.0958 
G01 X26.9647 Y10.0683 
G01 X25.3329 Y10.0683 
G01 X25.3329 Y4.4708 
G00 Z2.0000 
G00 X21.2945 Y9.7295 
G01 Z-0.2000 F200.00 
G01 X21.3477 Y9.6373 F200.00 
G01 X21.3753 Y9.5345 
G01 X21.3753 Y9.4280 
G01 X21.3477 Y9.3251 
G01 X21.2945 Y9.2329 
G01 X21.2192 Y9.1576 
G01 X21.1270 Y9.1044 
G01 X21.0241 Y9.0768 
G01 X20.9176 Y9.0768 
G01 X20.8148 Y9.1044 
G01 X20.7226 Y9.1576 
G01 X19.8119 Y10.0683 
G01 X18.1640 Y10.0683 
G01 X17.4095 Y9.3137 
G01 X17.4095 Y8.6573 
G01 X18.1640 Y7.9027 
G01 X20.0327 Y7.9027 
G01 X20.1355 Y7.8752 
G01 X20.2277 Y7.8219 
G01 X21.2192 Y6.8305 
G01 X21.2945 Y6.7552 
G01 X21.3477 Y6.6630 
G01 X21.3753 Y6.5601 
G01 X21.3753 Y5.4622 
G01 X21.3477 Y5.3594 
G01 X21.2945 Y5.2671 
G01 X20.3030 Y4.2757 
G01 X20.2277 Y4.2004 
G01 X20.1355 Y4.1472 
G01 X20.0327 Y4.1196 
G01 X17.9433 Y4.1196 
G01 X17.8404 Y4.1472 
G01 X17.7482 Y4.2004 
G01 X16.6815 Y5.2671 
G01 X16.6283 Y5.3594 
G01 X16.6007 Y5.4622 
G01 X16.6007 Y5.5687 
G01 X16.6283 Y5.6715 
G01 X16.6815 Y5.7638 
G01 X16.7568 Y5.8390 
G01 X16.8490 Y5.8923 
G01 X16.9519 Y5.9198 
G01 X17.0583 Y5.9198 
G01 X17.1612 Y5.8923 
G01 X17.2534 Y5.8390 
G01 X18.1640 Y4.9284 
G01 X19.8119 Y4.9284 
G01 X20.5665 Y5.6830 
G01 X20.5665 Y6.3394 
G01 X19.8119 Y7.0939 
G01 X17.9433 Y7.0939 
G01 X17.8404 Y7.1215 
G01 X17.7482 Y7.1747 
G01 X17.6729 Y7.2500 
G01 X16.6815 Y8.2415 
G01 X16.6283 Y8.3337 
G01 X16.6007 Y8.4365 
G01 X16.6007 Y9.5345 
G01 X16.6283 Y9.6373 
G01 X16.6815 Y9.7295 
G01 X16.7568 Y9.8048 
G01 X17.7482 Y10.7963 
G01 X17.8404 Y10.8495 
G01 X17.9433 Y10.8771 
G01 X20.0327 Y10.8771 
G01 X20.1355 Y10.8495 
G01 X20.2277 Y10.7963 
G01 X20.3030 Y10.7210 
G01 X21.2945 Y9.7295 
G00 Z2.0000 
G00 X7.5113 Y4.4708 
G01 Z-0.2000 F200.00 
G01 X7.4837 Y4.3679 F200.00 
G01 X7.4305 Y4.2757 
G01 X7.3552 Y4.2004 
G01 X7.2630 Y4.1472 
G01 X7.1601 Y4.1196 
G01 X7.0537 Y4.1196 
G01 X6.9508 Y4.1472 
G01 X6.8586 Y4.2004 
G01 X6.7833 Y4.2757 
G01 X6.7301 Y4.3679 
G01 X6.7025 Y4.4708 
G01 X6.7025 Y10.0683 
G01 X5.0708 Y10.0683 
G01 X4.9679 Y10.0958 
G01 X4.8757 Y10.1491 
G01 X4.8004 Y10.2244 
G01 X4.7472 Y10.3166 
G01 X4.7196 Y10.4194 
G01 X4.7196 Y10.5259 
G01 X4.7472 Y10.6288 
G01 X4.8004 Y10.7210 
G01 X4.8757 Y10.7963 
G01 X4.9679 Y10.8495 
G01 X5.0708 Y10.8771 
G01 X9.1430 Y10.8771 
G01 X9.2459 Y10.8495 
G01 X9.3381 Y10.7963 
G01 X9.4134 Y10.7210 
G01 X9.4666 Y10.6288 
G01 X9.4942 Y10.5259 
G01 X9.4942 Y10.4194 
G01 X9.4666 Y10.3166 
G01 X9.4134 Y10.2244 
G01 X9.3381 Y10.1491 
G01 X9.2459 Y10.0958 
G01 X9.1430 Y10.0683 
G01 X7.5113 Y10.0683 
G01 X7.5113 Y4.4708 
G00 Z2.0000 
G00 X15.0836 Y10.8771 
G01 Z-0.2000 F200.00 
G01 X15.1864 Y10.8495 F200.00 
G01 X15.2786 Y10.7963 
G01 X15.3539 Y10.7210 
G01 X15.4072 Y10.6288 
G01 X15.4347 Y10.5259 
G01 X15.4347 Y10.4194 
G01 X15.4072 Y10.3166 
G01 X15.3539 Y10.2244 
G01 X15.2786 Y10.1491 
G01 X15.1864 Y10.0958 
G01 X15.0836 Y10.0683 
G01 X11.4689 Y10.0683 
G01 X11.4689 Y7.9027 
G01 X13.1007 Y7.9027 
G01 X13.2035 Y7.8752 
G01 X13.2957 Y7.8219 
G01 X13.3710 Y7.7466 
G01 X13.4243 Y7.6544 
G01 X13.4518 Y7.5516 
G01 X13.4518 Y7.4451 
G01 X13.4243 Y7.3422 
G01 X13.3710 Y7.2500 
G01 X13.2957 Y7.1747 
G01 X13.2035 Y7.1215 
G01 X13.1007 Y7.0939 
G01 X11.4689 Y7.0939 
G01 X11.4689 Y4.9284 
G01 X15.0836 Y4.9284 
G01 X15.1864 Y4.9008 
G01 X15.2786 Y4.8476 
G01 X15.3539 Y4.7723 
G01 X15.4072 Y4.6801 
G01 X15.4347 Y4.5772 
G01 X15.4347 Y4.4708 
G01 X15.4072 Y4.3679 
G01 X15.3539 Y4.2757 
G01 X15.2786 Y4.2004 
G01 X15.1864 Y4.1472 
G01 X15.0836 Y4.1196 
G01 X11.0113 Y4.1196 
G01 X10.9085 Y4.1472 
G01 X10.8162 Y4.2004 
G01 X10.7409 Y4.2757 
G01 X10.6877 Y4.3679 
G01 X10.6601 Y4.4708 
G01 X10.6601 Y10.5259 
G01 X10.6877 Y10.6288 
G01 X10.7409 Y10.7210 
G01 X10.8162 Y10.7963 
G01 X10.9085 Y10.8495 
G01 X11.0113 Y10.8771 
G01 X11.1178 Y10.8771 
G01 X15.0836 Y10.8771 
G00 Z2.0000 
G00 X25.3454 Y4.4691 
G01 Z-0.2000 F200.00 
G01 X25.3170 Y4.3631 F200.00 
G01 X25.2621 Y4.2680 
G01 X25.1845 Y4.1904 
G01 X25.0895 Y4.1355 
G01 X24.9834 Y4.1071 
G01 X24.8736 Y4.1071 
G01 X24.7676 Y4.1355 
G01 X24.6726 Y4.1904 
G01 X24.5949 Y4.2680 
G01 X24.5400 Y4.3631 
G01 X24.5116 Y4.4691 
G01 X24.5116 Y10.0558 
G01 X22.8908 Y10.0558 
G01 X22.7847 Y10.0842 
G01 X22.6897 Y10.1391 
G01 X22.6120 Y10.2167 
G01 X22.5572 Y10.3118 
G01 X22.5287 Y10.4178 
G01 X22.5287 Y10.5276 
G01 X22.5572 Y10.6336 
G01 X22.6120 Y10.7287 
G01 X22.6897 Y10.8063 
G01 X22.7847 Y10.8612 
G01 X22.8908 Y10.8896 
G01 X26.9663 Y10.8896 
G01 X27.0723 Y10.8612 
G01 X27.1674 Y10.8063 
G01 X27.2450 Y10.7287 
G01 X27.2999 Y10.6336 
G01 X27.3283 Y10.5276 
G01 X27.3283 Y10.4178 
G01 X27.2999 Y10.3118 
G01 X27.2450 Y10.2167 
G01 X27.1674 Y10.1391 
G01 X27.0723 Y10.0842 
G01 X26.9663 Y10.0558 
G01 X25.3454 Y10.0558 
G01 X25.3454 Y4.4691 
G00 Z2.0000 
G00 X21.3045 Y9.7372 
G01 Z-0.2000 F200.00 
G01 X21.3594 Y9.6421 F200.00 
G01 X21.3878 Y9.5361 
G01 X21.3878 Y9.4263 
G01 X21.3594 Y9.3203 
G01 X21.3045 Y9.2252 
G01 X21.2269 Y9.1476 
G01 X21.1318 Y9.0927 
G01 X21.0258 Y9.0643 
G01 X20.9160 Y9.0643 
G01 X20.8100 Y9.0927 
G01 X20.7149 Y9.1476 
G01 X19.8067 Y10.0558 
G01 X18.1692 Y10.0558 
G01 X17.4220 Y9.3085 
G01 X17.4220 Y8.6625 
G01 X18.1692 Y7.9152 
G01 X20.0343 Y7.9152 
G01 X20.1404 Y7.8868 
G01 X20.2354 Y7.8319 
G01 X21.2269 Y6.8405 
G01 X21.3045 Y6.7629 
G01 X21.3594 Y6.6678 
G01 X21.3878 Y6.5618 
G01 X21.3878 Y5.4606 
G01 X21.3594 Y5.3545 
G01 X21.3045 Y5.2595 
G01 X20.3130 Y4.2680 
G01 X20.2354 Y4.1904 
G01 X20.1404 Y4.1355 
G01 X20.0343 Y4.1071 
G01 X17.9417 Y4.1071 
G01 X17.8356 Y4.1355 
G01 X17.7406 Y4.1904 
G01 X16.6715 Y5.2595 
G01 X16.6166 Y5.3545 
G01 X16.5882 Y5.4606 
G01 X16.5882 Y5.5703 
G01 X16.6166 Y5.6764 
G01 X16.6715 Y5.7714 
G01 X16.7491 Y5.8490 
G01 X16.8442 Y5.9039 
G01 X16.9502 Y5.9323 
G01 X17.0600 Y5.9323 
G01 X17.1660 Y5.9039 
G01 X17.2611 Y5.8490 
G01 X18.1692 Y4.9409 
G01 X19.8067 Y4.9409 
G01 X20.5540 Y5.6881 
G01 X20.5540 Y6.3342 
G01 X19.8067 Y7.0814 
G01 X17.9417 Y7.0814 
G01 X17.8356 Y7.1098 
G01 X17.7406 Y7.1647 
G01 X17.6629 Y7.2424 
G01 X16.6715 Y8.2338 
G01 X16.6166 Y8.3289 
G01 X16.5882 Y8.4349 
G01 X16.5882 Y9.5361 
G01 X16.6166 Y9.6421 
G01 X16.6715 Y9.7372 
G01 X16.7491 Y9.8148 
G01 X17.7406 Y10.8063 
G01 X17.8356 Y10.8612 
G01 X17.9417 Y10.8896 
G01 X20.0343 Y10.8896 
G01 X20.1404 Y10.8612 
G01 X20.2354 Y10.8063 
G01 X20.3130 Y10.7287 
G01 X21.3045 Y9.7372 
G00 Z2.0000 
G00 X7.5238 Y4.4691 
G01 Z-0.2000 F200.00 
G01 X7.4954 Y4.3631 F200.00 
G01 X7.4405 Y4.2680 
G01 X7.3629 Y4.1904 
G01 X7.2678 Y4.1355 
G01 X7.1618 Y4.1071 
G01 X7.0520 Y4.1071 
G01 X6.9460 Y4.1355 
G01 X6.8509 Y4.1904 
G01 X6.7733 Y4.2680 
G01 X6.7184 Y4.3631 
G01 X6.6900 Y4.4691 
G01 X6.6900 Y10.0558 
G01 X5.0691 Y10.0558 
G01 X4.9631 Y10.0842 
G01 X4.8680 Y10.1391 
G01 X4.7904 Y10.2167 
G01 X4.7355 Y10.3118 
G01 X4.7071 Y10.4178 
G01 X4.7071 Y10.5276 
G01 X4.7355 Y10.6336 
G01 X4.7904 Y10.7287 
G01 X4.8680 Y10.8063 
G01 X4.9631 Y10.8612 
G01 X5.0691 Y10.8896 
G01 X9.1447 Y10.8896 
G01 X9.2507 Y10.8612 
G01 X9.3458 Y10.8063 
G01 X9.4234 Y10.7287 
G01 X9.4783 Y10.6336 
G01 X9.5067 Y10.5276 
G01 X9.5067 Y10.4178 
G01 X9.4783 Y10.3118 
G01 X9.4234 Y10.2167 
G01 X9.3458 Y10.1391 
G01 X9.2507 Y10.0842 
G01 X9.1447 Y10.0558 
G01 X7.5238 Y10.0558 
G01 X7.5238 Y4.4691 
G00 Z2.0000 
G00 X15.0852 Y10.8896 
G01 Z-0.2000 F200.00 
G01 X15.1913 Y10.8612 F200.00 
G01 X15.2863 Y10.8063 
G01 X15.3639 Y10.7287 
G01 X15.4188 Y10.6336 
G01 X15.4472 Y10.5276 
G01 X15.4472 Y10.4178 
G01 X15.4188 Y10.3118 
G01 X15.3639 Y10.2167 
G01 X15.2863 Y10.1391 
G01 X15.1913 Y10.0842 
G01 X15.0852 Y10.0558 
G01 X11.4814 Y10.0558 
G01 X11.4814 Y7.9152 
G01 X13.1023 Y7.9152 
G01 X13.2084 Y7.8868 
G01 X13.3034 Y7.8319 
G01 X13.3810 Y7.7543 
G01 X13.4359 Y7.6593 
G01 X13.4643 Y7.5532 
G01 X13.4643 Y7.4435 
G01 X13.4359 Y7.3374 
G01 X13.3810 Y7.2424 
G01 X13.3034 Y7.1647 
G01 X13.2084 Y7.1098 
G01 X13.1023 Y7.0814 
G01 X11.4814 Y7.0814 
G01 X11.4814 Y4.9409 
G01 X15.0852 Y4.9409 
G01 X15.1913 Y4.9125 
G01 X15.2863 Y4.8576 
G01 X15.3639 Y4.7800 
G01 X15.4188 Y4.6849 
G01 X15.4472 Y4.5789 
G01 X15.4472 Y4.4691 
G01 X15.4188 Y4.3631 
G01 X15.3639 Y4.2680 
G01 X15.2863 Y4.1904 
G01 X15.1913 Y4.1355 
G01 X15.0852 Y4.1071 
G01 X11.0097 Y4.1071 
G01 X10.9036 Y4.1355 
G01 X10.8086 Y4.1904 
G01 X10.7309 Y4.2680 
G01 X10.6761 Y4.3631 
G01 X10.6476 Y4.4691 
G01 X10.6476 Y10.5276 
G01 X10.6761 Y10.6336 
G01 X10.7309 Y10.7287 
G01 X10.8086 Y10.8063 
G01 X10.9036 Y10.8612 
G01 X11.0097 Y10.8896 
G01 X11.1194 Y10.8896 
G01 X15.0852 Y10.8896 
G00 Z2.0000 
G00 X25.3579 Y4.4675 
G01 Z-0.2000 F200.00 
G01 X25.3287 Y4.3583 F200.00 
G01 X25.2721 Y4.2603 
G01 X25.1922 Y4.1804 
G01 X25.0943 Y4.1239 
G01 X24.9851 Y4.0946 
G01 X24.8720 Y4.0946 
G01 X24.7628 Y4.1239 
G01 X24.6649 Y4.1804 
G01 X24.5849 Y4.2603 
G01 X24.5284 Y4.3583 
G01 X24.4991 Y4.4675 
G01 X24.4991 Y10.0433 
G01 X22.8891 Y10.0433 
G01 X22.7799 Y10.0725 
G01 X22.6820 Y10.1291 
G01 X22.6020 Y10.2090 
G01 X22.5455 Y10.3069 
G01 X22.5162 Y10.4161 
G01 X22.5162 Y10.5292 
G01 X22.5455 Y10.6384 
G01 X22.6020 Y10.7363 
G01 X22.6820 Y10.8163 
G01 X22.7799 Y10.8728 
G01 X22.8891 Y10.9021 
G01 X26.9680 Y10.9021 
G01 X27.0772 Y10.8728 
G01 X27.1751 Y10.8163 
G01 X27.2550 Y10.7363 
G01 X27.3116 Y10.6384 
G01 X27.3408 Y10.5292 
G01 X27.3408 Y10.4161 
G01 X27.3116 Y10.3069 
G01 X27.2550 Y10.2090 
G01 X27.1751 Y10.1291 
G01 X27.0772 Y10.0725 
G01 X26.9680 Y10.0433 
G01 X25.3579 Y10.0433 
G01 X25.3579 Y4.4675 
G00 Z2.0000 
G00 X21.3145 Y9.7449 
G01 Z-0.2000 F200.00 
G01 X21.3710 Y9.6470 F200.00 
G01 X21.4003 Y9.5378 
G01 X21.4003 Y9.4247 
G01 X21.3710 Y9.3155 
G01 X21.3145 Y9.2176 
G01 X21.2345 Y9.1376 
G01 X21.1366 Y9.0811 
G01 X21.0274 Y9.0518 
G01 X20.9143 Y9.0518 
G01 X20.8051 Y9.0811 
G01 X20.7072 Y9.1376 
G01 X19.8016 Y10.0433 
G01 X18.1744 Y10.0433 
G01 X17.4345 Y9.3034 
G01 X17.4345 Y8.6677 
G01 X18.1744 Y7.9277 
G01 X20.0360 Y7.9277 
G01 X20.1452 Y7.8985 
G01 X20.2431 Y7.8419 
G01 X21.2345 Y6.8505 
G01 X21.3145 Y6.7706 
G01 X21.3710 Y6.6726 
G01 X21.4003 Y6.5634 
G01 X21.4003 Y5.4589 
G01 X21.3710 Y5.3497 
G01 X21.3145 Y5.2518 
G01 X20.3230 Y4.2603 
G01 X20.2431 Y4.1804 
G01 X20.1452 Y4.1239 
G01 X20.0360 Y4.0946 
G01 X17.9400 Y4.0946 
G01 X17.8308 Y4.1239 
G01 X17.7329 Y4.1804 
G01 X16.6615 Y5.2518 
G01 X16.6050 Y5.3497 
G01 X16.5757 Y5.4589 
G01 X16.5757 Y5.5720 
G01 X16.6050 Y5.6812 
G01 X16.6615 Y5.7791 
G01 X16.7414 Y5.8591 
G01 X16.8394 Y5.9156 
G01 X16.9486 Y5.9448 
G01 X17.0616 Y5.9448 
G01 X17.1708 Y5.9156 
G01 X17.2688 Y5.8591 
G01 X18.1744 Y4.9534 
G01 X19.8016 Y4.9534 
G01 X20.5415 Y5.6933 
G01 X20.5415 Y6.3290 
G01 X19.8016 Y7.0689 
G01 X17.9400 Y7.0689 
G01 X17.8308 Y7.0982 
G01 X17.7329 Y7.1547 
G01 X17.6529 Y7.2347 
G01 X16.6615 Y8.2261 
G01 X16.6050 Y8.3240 
G01 X16.5757 Y8.4333 
G01 X16.5757 Y9.5378 
G01 X16.6050 Y9.6470 
G01 X16.6615 Y9.7449 
G01 X16.7414 Y9.8248 
G01 X17.7329 Y10.8163 
G01 X17.8308 Y10.8728 
G01 X17.9400 Y10.9021 
G01 X20.0360 Y10.9021 
G01 X20.1452 Y10.8728 
G01 X20.2431 Y10.8163 
G01 X20.3230 Y10.7363 
G01 X21.3145 Y9.7449 
G00 Z2.0000 
G00 X7.5363 Y4.4675 
G01 Z-0.2000 F200.00 
G01 X7.5070 Y4.3583 F200.00 
G01 X7.4505 Y4.2603 
G01 X7.3706 Y4.1804 
G01 X7.2726 Y4.1239 
G01 X7.1634 Y4.0946 
G01 X7.0504 Y4.0946 
G01 X6.9412 Y4.1239 
G01 X6.8432 Y4.1804 
G01 X6.7633 Y4.2603 
G01 X6.7068 Y4.3583 
G01 X6.6775 Y4.4675 
G01 X6.6775 Y10.0433 
G01 X5.0675 Y10.0433 
G01 X4.9583 Y10.0725 
G01 X4.8603 Y10.1291 
G01 X4.7804 Y10.2090 
G01 X4.7239 Y10.3069 
G01 X4.6946 Y10.4161 
G01 X4.6946 Y10.5292 
G01 X4.7239 Y10.6384 
G01 X4.7804 Y10.7363 
G01 X4.8603 Y10.8163 
G01 X4.9583 Y10.8728 
G01 X5.0675 Y10.9021 
G01 X9.1463 Y10.9021 
G01 X9.2555 Y10.8728 
G01 X9.3534 Y10.8163 
G01 X9.4334 Y10.7363 
G01 X9.4899 Y10.6384 
G01 X9.5192 Y10.5292 
G01 X9.5192 Y10.4161 
G01 X9.4899 Y10.3069 
G01 X9.4334 Y10.2090 
G01 X9.3534 Y10.1291 
G01 X9.2555 Y10.0725 
G01 X9.1463 Y10.0433 
G01 X7.5363 Y10.0433 
G01 X7.5363 Y4.4675 
G00 Z2.0000 
G00 X15.0869 Y10.9021 
G01 Z-0.2000 F200.00 
G01 X15.1961 Y10.8728 F200.00 
G01 X15.2940 Y10.8163 
G01 X15.3739 Y10.7363 
G01 X15.4305 Y10.6384 
G01 X15.4597 Y10.5292 
G01 X15.4597 Y10.4161 
G01 X15.4305 Y10.3069 
G01 X15.3739 Y10.2090 
G01 X15.2940 Y10.1291 
G01 X15.1961 Y10.0725 
G01 X15.0869 Y10.0433 
G01 X11.4939 Y10.0433 
G01 X11.4939 Y7.9277 
G01 X13.1040 Y7.9277 
G01 X13.2132 Y7.8985 
G01 X13.3111 Y7.8419 
G01 X13.3910 Y7.7620 
G01 X13.4476 Y7.6641 
G01 X13.4768 Y7.5549 
G01 X13.4768 Y7.4418 
G01 X13.4476 Y7.3326 
G01 X13.3910 Y7.2347 
G01 X13.3111 Y7.1547 
G01 X13.2132 Y7.0982 
G01 X13.1040 Y7.0689 
G01 X11.4939 Y7.0689 
G01 X11.4939 Y4.9534 
G01 X15.0869 Y4.9534 
G01 X15.1961 Y4.9241 
G01 X15.2940 Y4.8676 
G01 X15.3739 Y4.7877 
G01 X15.4305 Y4.6897 
G01 X15.4597 Y4.5805 
G01 X15.4597 Y4.4675 
G01 X15.4305 Y4.3583 
G01 X15.3739 Y4.2603 
G01 X15.2940 Y4.1804 
G01 X15.1961 Y4.1239 
G01 X15.0869 Y4.0946 
G01 X11.0080 Y4.0946 
G01 X10.8988 Y4.1239 
G01 X10.8009 Y4.1804 
G01 X10.7209 Y4.2603 
G01 X10.6644 Y4.3583 
G01 X10.6351 Y4.4675 
G01 X10.6351 Y10.5292 
G01 X10.6644 Y10.6384 
G01 X10.7209 Y10.7363 
G01 X10.8009 Y10.8163 
G01 X10.8988 Y10.8728 
G01 X11.0080 Y10.9021 
G01 X11.1211 Y10.9021 
G01 X15.0869 Y10.9021 
G00 Z2.0000 
G00 X25.3704 Y4.4658 
G01 Z-0.2000 F200.00 
G01 X25.3403 Y4.3534 F200.00 
G01 X25.2821 Y4.2527 
G01 X25.1999 Y4.1704 
G01 X25.0991 Y4.1122 
G01 X24.9867 Y4.0821 
G01 X24.8704 Y4.0821 
G01 X24.7580 Y4.1122 
G01 X24.6572 Y4.1704 
G01 X24.5749 Y4.2527 
G01 X24.5168 Y4.3534 
G01 X24.4866 Y4.4658 
G01 X24.4866 Y10.0308 
G01 X22.8875 Y10.0308 
G01 X22.7751 Y10.0609 
G01 X22.6743 Y10.1191 
G01 X22.5920 Y10.2013 
G01 X22.5339 Y10.3021 
G01 X22.5037 Y10.4145 
G01 X22.5037 Y10.5309 
G01 X22.5339 Y10.6432 
G01 X22.5920 Y10.7440 
G01 X22.6743 Y10.8263 
G01 X22.7751 Y10.8845 
G01 X22.8875 Y10.9146 
G01 X26.9696 Y10.9146 
G01 X27.0820 Y10.8845 
G01 X27.1828 Y10.8263 
G01 X27.2650 Y10.7440 
G01 X27.3232 Y10.6432 
G01 X27.3533 Y10.5309 
G01 X27.3533 Y10.4145 
G01 X27.3232 Y10.3021 
G01 X27.2650 Y10.2013 
G01 X27.1828 Y10.1191 
G01 X27.0820 Y10.0609 
G01 X26.9696 Y10.0308 
G01 X25.3704 Y10.0308 
G01 X25.3704 Y4.4658 
G00 Z2.0000 
G00 X21.3245 Y9.7526 
G01 Z-0.2000 F200.00 
G01 X21.3827 Y9.6518 F200.00 
G01 X21.4128 Y9.5394 
G01 X21.4128 Y9.4231 
G01 X21.3827 Y9.3107 
G01 X21.3245 Y9.2099 
G01 X21.2422 Y9.1276 
G01 X21.1414 Y9.0695 
G01 X21.0291 Y9.0393 
G01 X20.9127 Y9.0393 
G01 X20.8003 Y9.0695 
G01 X20.6996 Y9.1276 
G01 X19.7964 Y10.0308 
G01 X18.1796 Y10.0308 
G01 X17.4470 Y9.2982 
G01 X17.4470 Y8.6728 
G01 X18.1796 Y7.9402 
G01 X20.0376 Y7.9402 
G01 X20.1500 Y7.9101 
G01 X20.2508 Y7.8519 
G01 X21.2422 Y6.8605 
G01 X21.3245 Y6.7782 
G01 X21.3827 Y6.6775 
G01 X21.4128 Y6.5651 
G01 X21.4128 Y5.4573 
G01 X21.3827 Y5.3449 
G01 X21.3245 Y5.2441 
G01 X20.3330 Y4.2527 
G01 X20.2508 Y4.1704 
G01 X20.1500 Y4.1122 
G01 X20.0376 Y4.0821 
G01 X17.9384 Y4.0821 
G01 X17.8260 Y4.1122 
G01 X17.7252 Y4.1704 
G01 X16.6515 Y5.2441 
G01 X16.5933 Y5.3449 
G01 X16.5632 Y5.4573 
G01 X16.5632 Y5.5736 
G01 X16.5933 Y5.6860 
G01 X16.6515 Y5.7868 
G01 X16.7338 Y5.8691 
G01 X16.8345 Y5.9272 
G01 X16.9469 Y5.9573 
G01 X17.0633 Y5.9573 
G01 X17.1757 Y5.9272 
G01 X17.2764 Y5.8691 
G01 X18.1796 Y4.9659 
G01 X19.7964 Y4.9659 
G01 X20.5290 Y5.6985 
G01 X20.5290 Y6.3239 
G01 X19.7964 Y7.0564 
G01 X17.9384 Y7.0564 
G01 X17.8260 Y7.0866 
G01 X17.7252 Y7.1447 
G01 X17.6429 Y7.2270 
G01 X16.6515 Y8.2185 
G01 X16.5933 Y8.3192 
G01 X16.5632 Y8.4316 
G01 X16.5632 Y9.5394 
G01 X16.5933 Y9.6518 
G01 X16.6515 Y9.7526 
G01 X16.7338 Y9.8348 
G01 X17.7252 Y10.8263 
G01 X17.8260 Y10.8845 
G01 X17.9384 Y10.9146 
G01 X20.0376 Y10.9146 
G01 X20.1500 Y10.8845 
G01 X20.2508 Y10.8263 
G01 X20.3330 Y10.7440 
G01 X21.3245 Y9.7526 
G00 Z2.0000 
G00 X7.5488 Y4.4658 
G01 Z-0.2000 F200.00 
G01 X7.5187 Y4.3534 F200.00 
G01 X7.4605 Y4.2527 
G01 X7.3782 Y4.1704 
G01 X7.2775 Y4.1122 
G01 X7.1651 Y4.0821 
G01 X7.0487 Y4.0821 
G01 X6.9363 Y4.1122 
G01 X6.8356 Y4.1704 
G01 X6.7533 Y4.2527 
G01 X6.6951 Y4.3534 
G01 X6.6650 Y4.4658 
G01 X6.6650 Y10.0308 
G01 X5.0658 Y10.0308 
G01 X4.9534 Y10.0609 
G01 X4.8527 Y10.1191 
G01 X4.7704 Y10.2013 
G01 X4.7122 Y10.3021 
G01 X4.6821 Y10.4145 
G01 X4.6821 Y10.5309 
G01 X4.7122 Y10.6432 
G01 X4.7704 Y10.7440 
G01 X4.8527 Y10.8263 
G01 X4.9534 Y10.8845 
G01 X5.0658 Y10.9146 
G01 X9.1480 Y10.9146 
G01 X9.2604 Y10.8845 
G01 X9.3611 Y10.8263 
G01 X9.4434 Y10.7440 
G01 X9.5016 Y10.6432 
G01 X9.5317 Y10.5309 
G01 X9.5317 Y10.4145 
G01 X9.5016 Y10.3021 
G01 X9.4434 Y10.2013 
G01 X9.3611 Y10.1191 
G01 X9.2604 Y10.0609 
G01 X9.1480 Y10.0308 
G01 X7.5488 Y10.0308 
G01 X7.5488 Y4.4658 
G00 Z2.0000 
G00 X15.0885 Y10.9146 
G01 Z-0.2000 F200.00 
G01 X15.2009 Y10.8845 F200.00 
G01 X15.3017 Y10.8263 
G01 X15.3839 Y10.7440 
G01 X15.4421 Y10.6432 
G01 X15.4722 Y10.5309 
G01 X15.4722 Y10.4145 
G01 X15.4421 Y10.3021 
G01 X15.3839 Y10.2013 
G01 X15.3017 Y10.1191 
G01 X15.2009 Y10.0609 
G01 X15.0885 Y10.0308 
G01 X11.5064 Y10.0308 
G01 X11.5064 Y7.9402 
G01 X13.1056 Y7.9402 
G01 X13.2180 Y7.9101 
G01 X13.3188 Y7.8519 
G01 X13.4010 Y7.7697 
G01 X13.4592 Y7.6689 
G01 X13.4893 Y7.5565 
G01 X13.4893 Y7.4402 
G01 X13.4592 Y7.3278 
G01 X13.4010 Y7.2270 
G01 X13.3188 Y7.1447 
G01 X13.2180 Y7.0866 
G01 X13.1056 Y7.0564 
G01 X11.5064 Y7.0564 
G01 X11.5064 Y4.9659 
G01 X15.0885 Y4.9659 
G01 X15.2009 Y4.9358 
G01 X15.3017 Y4.8776 
G01 X15.3839 Y4.7953 
G01 X15.4421 Y4.6946 
G01 X15.4722 Y4.5822 
G01 X15.4722 Y4.4658 
G01 X15.4421 Y4.3534 
G01 X15.3839 Y4.2527 
G01 X15.3017 Y4.1704 
G01 X15.2009 Y4.1122 
G01 X15.0885 Y4.0821 
G01 X11.0064 Y4.0821 
G01 X10.8940 Y4.1122 
G01 X10.7932 Y4.1704 
G01 X10.7109 Y4.2527 
G01 X10.6528 Y4.3534 
G01 X10.6227 Y4.4658 
G01 X10.6227 Y10.5309 
G01 X10.6528 Y10.6432 
G01 X10.7109 Y10.7440 
G01 X10.7932 Y10.8263 
G01 X10.8940 Y10.8845 
G01 X11.0064 Y10.9146 
G01 X11.1227 Y10.9146 
G01 X15.0885 Y10.9146 
G00 Z2.0000 
G00 X25.3829 Y4.4642 
G01 Z-0.2000 F200.00 
G01 X25.3520 Y4.3486 F200.00 
G01 X25.2921 Y4.2450 
G01 X25.2075 Y4.1604 
G01 X25.1039 Y4.1006 
G01 X24.9884 Y4.0696 
G01 X24.8687 Y4.0696 
G01 X24.7531 Y4.1006 
G01 X24.6495 Y4.1604 
G01 X24.5649 Y4.2450 
G01 X24.5051 Y4.3486 
G01 X24.4741 Y4.4642 
G01 X24.4741 Y10.0183 
G01 X22.8858 Y10.0183 
G01 X22.7702 Y10.0492 
G01 X22.6666 Y10.1091 
G01 X22.5820 Y10.1937 
G01 X22.5222 Y10.2973 
G01 X22.4912 Y10.4129 
G01 X22.4912 Y10.5325 
G01 X22.5222 Y10.6481 
G01 X22.5820 Y10.7517 
G01 X22.6666 Y10.8363 
G01 X22.7702 Y10.8961 
G01 X22.8858 Y10.9271 
G01 X26.9713 Y10.9271 
G01 X27.0868 Y10.8961 
G01 X27.1904 Y10.8363 
G01 X27.2750 Y10.7517 
G01 X27.3349 Y10.6481 
G01 X27.3658 Y10.5325 
G01 X27.3658 Y10.4129 
G01 X27.3349 Y10.2973 
G01 X27.2750 Y10.1937 
G01 X27.1904 Y10.1091 
G01 X27.0868 Y10.0492 
G01 X26.9713 Y10.0183 
G01 X25.3829 Y10.0183 
G01 X25.3829 Y4.4642 
G00 Z2.0000 
G00 X21.3345 Y9.7602 
G01 Z-0.2000 F200.00 
G01 X21.3943 Y9.6566 F200.00 
G01 X21.4253 Y9.5411 
G01 X21.4253 Y9.4214 
G01 X21.3943 Y9.3058 
G01 X21.3345 Y9.2022 
G01 X21.2499 Y9.1176 
G01 X21.1463 Y9.0578 
G01 X21.0307 Y9.0268 
G01 X20.9111 Y9.0268 
G01 X20.7955 Y9.0578 
G01 X20.6919 Y9.1176 
G01 X19.7912 Y10.0183 
G01 X18.1848 Y10.0183 
G01 X17.4595 Y9.2930 
G01 X17.4595 Y8.6780 
G01 X18.1848 Y7.9527 
G01 X20.0393 Y7.9527 
G01 X20.1548 Y7.9218 
G01 X20.2584 Y7.8620 
G01 X21.2499 Y6.8705 
G01 X21.3345 Y6.7859 
G01 X21.3943 Y6.6823 
G01 X21.4253 Y6.5667 
G01 X21.4253 Y5.4556 
G01 X21.3943 Y5.3401 
G01 X21.3345 Y5.2364 
G01 X20.3430 Y4.2450 
G01 X20.2584 Y4.1604 
G01 X20.1548 Y4.1006 
G01 X20.0393 Y4.0696 
G01 X17.9367 Y4.0696 
G01 X17.8211 Y4.1006 
G01 X17.7175 Y4.1604 
G01 X16.6415 Y5.2364 
G01 X16.5817 Y5.3401 
G01 X16.5507 Y5.4556 
G01 X16.5507 Y5.5753 
G01 X16.5817 Y5.6908 
G01 X16.6415 Y5.7945 
G01 X16.7261 Y5.8791 
G01 X16.8297 Y5.9389 
G01 X16.9453 Y5.9698 
G01 X17.0649 Y5.9698 
G01 X17.1805 Y5.9389 
G01 X17.2841 Y5.8791 
G01 X18.1848 Y4.9784 
G01 X19.7912 Y4.9784 
G01 X20.5165 Y5.7037 
G01 X20.5165 Y6.3187 
G01 X19.7912 Y7.0439 
G01 X17.9367 Y7.0439 
G01 X17.8211 Y7.0749 
G01 X17.7175 Y7.1347 
G01 X17.6329 Y7.2193 
G01 X16.6415 Y8.2108 
G01 X16.5817 Y8.3144 
G01 X16.5507 Y8.4300 
G01 X16.5507 Y9.5411 
G01 X16.5817 Y9.6566 
G01 X16.6415 Y9.7602 
G01 X16.7261 Y9.8448 
G01 X17.7175 Y10.8363 
G01 X17.8211 Y10.8961 
G01 X17.9367 Y10.9271 
G01 X20.0393 Y10.9271 
G01 X20.1548 Y10.8961 
G01 X20.2584 Y10.8363 
G01 X20.3430 Y10.7517 
G01 X21.3345 Y9.7602 
G00 Z2.0000 
G00 X7.5613 Y4.4642 
G01 Z-0.2000 F200.00 
G01 X7.5303 Y4.3486 F200.00 
G01 X7.4705 Y4.2450 
G01 X7.3859 Y4.1604 
G01 X7.2823 Y4.1006 
G01 X7.1667 Y4.0696 
G01 X7.0471 Y4.0696 
G01 X6.9315 Y4.1006 
G01 X6.8279 Y4.1604 
G01 X6.7433 Y4.2450 
G01 X6.6835 Y4.3486 
G01 X6.6525 Y4.4642 
G01 X6.6525 Y10.0183 
G01 X5.0642 Y10.0183 
G01 X4.9486 Y10.0492 
G01 X4.8450 Y10.1091 
G01 X4.7604 Y10.1937 
G01 X4.7006 Y10.2973 
G01 X4.6696 Y10.4129 
G01 X4.6696 Y10.5325 
G01 X4.7006 Y10.6481 
G01 X4.7604 Y10.7517 
G01 X4.8450 Y10.8363 
G01 X4.9486 Y10.8961 
G01 X5.0642 Y10.9271 
G01 X9.1496 Y10.9271 
G01 X9.2652 Y10.8961 
G01 X9.3688 Y10.8363 
G01 X9.4534 Y10.7517 
G01 X9.5132 Y10.6481 
G01 X9.5442 Y10.5325 
G01 X9.5442 Y10.4129 
G01 X9.5132 Y10.2973 
G01 X9.4534 Y10.1937 
G01 X9.3688 Y10.1091 
G01 X9.2652 Y10.0492 
G01 X9.1496 Y10.0183 
G01 X7.5613 Y10.0183 
G01 X7.5613 Y4.4642 
G00 Z2.0000 
G00 X15.0902 Y10.9271 
G01 Z-0.2000 F200.00 
G01 X15.2057 Y10.8961 F200.00 
G01 X15.3093 Y10.8363 
G01 X15.3939 Y10.7517 
G01 X15.4538 Y10.6481 
G01 X15.4847 Y10.5325 
G01 X15.4847 Y10.4129 
G01 X15.4538 Y10.2973 
G01 X15.3939 Y10.1937 
G01 X15.3093 Y10.1091 
G01 X15.2057 Y10.0492 
G01 X15.0902 Y10.0183 
G01 X11.5189 Y10.0183 
G01 X11.5189 Y7.9527 
G01 X13.1073 Y7.9527 
G01 X13.2228 Y7.9218 
G01 X13.3264 Y7.8620 
G01 X13.4111 Y7.7773 
G01 X13.4709 Y7.6737 
G01 X13.5018 Y7.5582 
G01 X13.5018 Y7.4385 
G01 X13.4709 Y7.3229 
G01 X13.4111 Y7.2193 
G01 X13.3264 Y7.1347 
G01 X13.2228 Y7.0749 
G01 X13.1073 Y7.0439 
G01 X11.5189 Y7.0439 
G01 X11.5189 Y4.9784 
G01 X15.0902 Y4.9784 
G01 X15.2057 Y4.9474 
G01 X15.3093 Y4.8876 
G01 X15.3939 Y4.8030 
G01 X15.4538 Y4.6994 
G01 X15.4847 Y4.5838 
G01 X15.4847 Y4.4642 
G01 X15.4538 Y4.3486 
G01 X15.3939 Y4.2450 
G01 X15.3093 Y4.1604 
G01 X15.2057 Y4.1006 
G01 X15.0902 Y4.0696 
G01 X11.0047 Y4.0696 
G01 X10.8892 Y4.1006 
G01 X10.7855 Y4.1604 
G01 X10.7009 Y4.2450 
G01 X10.6411 Y4.3486 
G01 X10.6102 Y4.4642 
G01 X10.6102 Y10.5325 
G01 X10.6411 Y10.6481 
G01 X10.7009 Y10.7517 
G01 X10.7855 Y10.8363 
G01 X10.8892 Y10.8961 
G01 X11.0047 Y10.9271 
G01 X11.1244 Y10.9271 
G01 X15.0902 Y10.9271 
G00 Z2.0000 
G00 X25.3954 Y4.4625 
G01 Z-0.2000 F200.00 
G01 X25.3636 Y4.3438 F200.00 
G01 X25.3021 Y4.2373 
G01 X25.2152 Y4.1504 
G01 X25.1088 Y4.0889 
G01 X24.9900 Y4.0571 
G01 X24.8671 Y4.0571 
G01 X24.7483 Y4.0889 
G01 X24.6419 Y4.1504 
G01 X24.5549 Y4.2373 
G01 X24.4935 Y4.3438 
G01 X24.4616 Y4.4625 
G01 X24.4616 Y10.0058 
G01 X22.8842 Y10.0058 
G01 X22.7654 Y10.0376 
G01 X22.6590 Y10.0991 
G01 X22.5720 Y10.1860 
G01 X22.5106 Y10.2925 
G01 X22.4787 Y10.4112 
G01 X22.4787 Y10.5342 
G01 X22.5106 Y10.6529 
G01 X22.5720 Y10.7594 
G01 X22.6590 Y10.8463 
G01 X22.7654 Y10.9078 
G01 X22.8842 Y10.9396 
G01 X26.9729 Y10.9396 
G01 X27.0916 Y10.9078 
G01 X27.1981 Y10.8463 
G01 X27.2850 Y10.7594 
G01 X27.3465 Y10.6529 
G01 X27.3783 Y10.5342 
G01 X27.3783 Y10.4112 
G01 X27.3465 Y10.2925 
G01 X27.2850 Y10.1860 
G01 X27.1981 Y10.0991 
G01 X27.0916 Y10.0376 
G01 X26.9729 Y10.0058 
G01 X25.3954 Y10.0058 
G01 X25.3954 Y4.4625 
G00 Z2.0000 
G00 X21.3445 Y9.7679 
G01 Z-0.2000 F200.00 
G01 X21.4060 Y9.6615 F200.00 
G01 X21.4378 Y9.5427 
G01 X21.4378 Y9.4198 
G01 X21.4060 Y9.3010 
G01 X21.3445 Y9.1946 
G01 X21.2576 Y9.1076 
G01 X21.1511 Y9.0462 
G01 X21.0324 Y9.0143 
G01 X20.9094 Y9.0143 
G01 X20.7907 Y9.0462 
G01 X20.6842 Y9.1076 
G01 X19.7860 Y10.0058 
G01 X18.1899 Y10.0058 
G01 X17.4720 Y9.2878 
G01 X17.4720 Y8.6832 
G01 X18.1899 Y7.9652 
G01 X20.0409 Y7.9652 
G01 X20.1597 Y7.9334 
G01 X20.2661 Y7.8720 
G01 X21.2576 Y6.8805 
G01 X21.3445 Y6.7936 
G01 X21.4060 Y6.6871 
G01 X21.4378 Y6.5684 
G01 X21.4378 Y5.4540 
G01 X21.4060 Y5.3352 
G01 X21.3445 Y5.2288 
G01 X20.3530 Y4.2373 
G01 X20.2661 Y4.1504 
G01 X20.1597 Y4.0889 
G01 X20.0409 Y4.0571 
G01 X17.9351 Y4.0571 
G01 X17.8163 Y4.0889 
G01 X17.7099 Y4.1504 
G01 X16.6315 Y5.2288 
G01 X16.5700 Y5.3352 
G01 X16.5382 Y5.4540 
G01 X16.5382 Y5.5769 
G01 X16.5700 Y5.6957 
G01 X16.6315 Y5.8021 
G01 X16.7184 Y5.8891 
G01 X16.8249 Y5.9505 
G01 X16.9436 Y5.9823 
G01 X17.0666 Y5.9823 
G01 X17.1853 Y5.9505 
G01 X17.2918 Y5.8891 
G01 X18.1899 Y4.9909 
G01 X19.7860 Y4.9909 
G01 X20.5040 Y5.7088 
G01 X20.5040 Y6.3135 
G01 X19.7860 Y7.0314 
G01 X17.9351 Y7.0314 
G01 X17.8163 Y7.0633 
G01 X17.7099 Y7.1247 
G01 X17.6229 Y7.2117 
G01 X16.6315 Y8.2031 
G01 X16.5700 Y8.3096 
G01 X16.5382 Y8.4283 
G01 X16.5382 Y9.5427 
G01 X16.5700 Y9.6615 
G01 X16.6315 Y9.7679 
G01 X16.7184 Y9.8548 
G01 X17.7099 Y10.8463 
G01 X17.8163 Y10.9078 
G01 X17.9351 Y10.9396 
G01 X20.0409 Y10.9396 
G01 X20.1597 Y10.9078 
G01 X20.2661 Y10.8463 
G01 X20.3530 Y10.7594 
G01 X21.3445 Y9.7679 
G00 Z2.0000 
G00 X7.5738 Y4.4625 
G01 Z-0.2000 F200.00 
G01 X7.5420 Y4.3438 F200.00 
G01 X7.4805 Y4.2373 
G01 X7.3936 Y4.1504 
G01 X7.2871 Y4.0889 
G01 X7.1684 Y4.0571 
G01 X7.0454 Y4.0571 
G01 X6.9267 Y4.0889 
G01 X6.8202 Y4.1504 
G01 X6.7333 Y4.2373 
G01 X6.6718 Y4.3438 
G01 X6.6400 Y4.4625 
G01 X6.6400 Y10.0058 
G01 X5.0625 Y10.0058 
G01 X4.9438 Y10.0376 
G01 X4.8373 Y10.0991 
G01 X4.7504 Y10.1860 
G01 X4.6889 Y10.2925 
G01 X4.6571 Y10.4112 
G01 X4.6571 Y10.5342 
G01 X4.6889 Y10.6529 
G01 X4.7504 Y10.7594 
G01 X4.8373 Y10.8463 
G01 X4.9438 Y10.9078 
G01 X5.0625 Y10.9396 
G01 X9.1513 Y10.9396 
G01 X9.2700 Y10.9078 
G01 X9.3765 Y10.8463 
G01 X9.4634 Y10.7594 
G01 X9.5249 Y10.6529 
G01 X9.5567 Y10.5342 
G01 X9.5567 Y10.4112 
G01 X9.5249 Y10.2925 
G01 X9.4634 Y10.1860 
G01 X9.3765 Y10.0991 
G01 X9.2700 Y10.0376 
G01 X9.1513 Y10.0058 
G01 X7.5738 Y10.0058 
G01 X7.5738 Y4.4625 
G00 Z2.0000 
G00 X15.0918 Y10.9396 
G01 Z-0.2000 F200.00 
G01 X15.2106 Y10.9078 F200.00 
G01 X15.3170 Y10.8463 
G01 X15.4039 Y10.7594 
G01 X15.4654 Y10.6529 
G01 X15.4972 Y10.5342 
G01 X15.4972 Y10.4112 
G01 X15.4654 Y10.2925 
G01 X15.4039 Y10.1860 
G01 X15.3170 Y10.0991 
G01 X15.2106 Y10.0376 
G01 X15.0918 Y10.0058 
G01 X11.5314 Y10.0058 
G01 X11.5314 Y7.9652 
G01 X13.1089 Y7.9652 
G01 X13.2277 Y7.9334 
G01 X13.3341 Y7.8720 
G01 X13.4211 Y7.7850 
G01 X13.4825 Y7.6786 
G01 X13.5143 Y7.5598 
G01 X13.5143 Y7.4369 
G01 X13.4825 Y7.3181 
G01 X13.4211 Y7.2117 
G01 X13.3341 Y7.1247 
G01 X13.2277 Y7.0633 
G01 X13.1089 Y7.0314 
G01 X11.5314 Y7.0314 
G01 X11.5314 Y4.9909 
G01 X15.0918 Y4.9909 
G01 X15.2106 Y4.9591 
G01 X15.3170 Y4.8976 
G01 X15.4039 Y4.8107 
G01 X15.4654 Y4.7042 
G01 X15.4972 Y4.5855 
G01 X15.4972 Y4.4625 
G01 X15.4654 Y4.3438 
G01 X15.4039 Y4.2373 
G01 X15.3170 Y4.1504 
G01 X15.2106 Y4.0889 
G01 X15.0918 Y4.0571 
G01 X11.0031 Y4.0571 
G01 X10.8843 Y4.0889 
G01 X10.7779 Y4.1504 
G01 X10.6909 Y4.2373 
G01 X10.6295 Y4.3438 
G01 X10.5976 Y4.4625 
G01 X10.5976 Y10.5342 
G01 X10.6295 Y10.6529 
G01 X10.6909 Y10.7594 
G01 X10.7779 Y10.8463 
G01 X10.8843 Y10.9078 
G01 X11.0031 Y10.9396 
G01 X11.1260 Y10.9396 
G01 X15.0918 Y10.9396 
G00 Z2.0000 
G00 X25.4079 Y4.4609 
G01 Z-0.2000 F200.00 
G01 X25.3753 Y4.3390 F200.00 
G01 X25.3121 Y4.2296 
G01 X25.2229 Y4.1404 
G01 X25.1136 Y4.0773 
G01 X24.9916 Y4.0446 
G01 X24.8654 Y4.0446 
G01 X24.7435 Y4.0773 
G01 X24.6342 Y4.1404 
G01 X24.5449 Y4.2296 
G01 X24.4818 Y4.3390 
G01 X24.4491 Y4.4609 
G01 X24.4491 Y9.9933 
G01 X22.8825 Y9.9933 
G01 X22.7606 Y10.0259 
G01 X22.6513 Y10.0891 
G01 X22.5620 Y10.1783 
G01 X22.4989 Y10.2876 
G01 X22.4662 Y10.4096 
G01 X22.4662 Y10.5358 
G01 X22.4989 Y10.6577 
G01 X22.5620 Y10.7670 
G01 X22.6513 Y10.8563 
G01 X22.7606 Y10.9194 
G01 X22.8825 Y10.9521 
G01 X26.9745 Y10.9521 
G01 X27.0965 Y10.9194 
G01 X27.2058 Y10.8563 
G01 X27.2950 Y10.7670 
G01 X27.3582 Y10.6577 
G01 X27.3908 Y10.5358 
G01 X27.3908 Y10.4096 
G01 X27.3582 Y10.2876 
G01 X27.2950 Y10.1783 
G01 X27.2058 Y10.0891 
G01 X27.0965 Y10.0259 
G01 X26.9745 Y9.9933 
G01 X25.4079 Y9.9933 
G01 X25.4079 Y4.4609 
G00 Z2.0000 
G00 X21.3545 Y9.7756 
G01 Z-0.2000 F200.00 
G01 X21.4176 Y9.6663 F200.00 
G01 X21.4503 Y9.5443 
G01 X21.4503 Y9.4181 
G01 X21.4176 Y9.2962 
G01 X21.3545 Y9.1869 
G01 X21.2652 Y9.0976 
G01 X21.1559 Y9.0345 
G01 X21.0340 Y9.0018 
G01 X20.9078 Y9.0018 
G01 X20.7858 Y9.0345 
G01 X20.6765 Y9.0976 
G01 X19.7809 Y9.9933 
G01 X18.1951 Y9.9933 
G01 X17.4845 Y9.2827 
G01 X17.4845 Y8.6884 
G01 X18.1951 Y7.9777 
G01 X20.0426 Y7.9777 
G01 X20.1645 Y7.9451 
G01 X20.2738 Y7.8820 
G01 X21.2652 Y6.8905 
G01 X21.3545 Y6.8013 
G01 X21.4176 Y6.6919 
G01 X21.4503 Y6.5700 
G01 X21.4503 Y5.4523 
G01 X21.4176 Y5.3304 
G01 X21.3545 Y5.2211 
G01 X20.3630 Y4.2296 
G01 X20.2738 Y4.1404 
G01 X20.1645 Y4.0773 
G01 X20.0426 Y4.0446 
G01 X17.9334 Y4.0446 
G01 X17.8115 Y4.0773 
G01 X17.7022 Y4.1404 
G01 X16.6215 Y5.2211 
G01 X16.5584 Y5.3304 
G01 X16.5257 Y5.4523 
G01 X16.5257 Y5.5786 
G01 X16.5584 Y5.7005 
G01 X16.6215 Y5.8098 
G01 X16.7107 Y5.8991 
G01 X16.8201 Y5.9622 
G01 X16.9420 Y5.9948 
G01 X17.0682 Y5.9948 
G01 X17.1901 Y5.9622 
G01 X17.2995 Y5.8991 
G01 X18.1951 Y5.0034 
G01 X19.7809 Y5.0034 
G01 X20.4915 Y5.7140 
G01 X20.4915 Y6.3083 
G01 X19.7809 Y7.0189 
G01 X17.9334 Y7.0189 
G01 X17.8115 Y7.0516 
G01 X17.7022 Y7.1147 
G01 X17.6129 Y7.2040 
G01 X16.6215 Y8.1954 
G01 X16.5584 Y8.3047 
G01 X16.5257 Y8.4267 
G01 X16.5257 Y9.5443 
G01 X16.5584 Y9.6663 
G01 X16.6215 Y9.7756 
G01 X16.7107 Y9.8648 
G01 X17.7022 Y10.8563 
G01 X17.8115 Y10.9194 
G01 X17.9334 Y10.9521 
G01 X20.0426 Y10.9521 
G01 X20.1645 Y10.9194 
G01 X20.2738 Y10.8563 
G01 X20.3630 Y10.7670 
G01 X21.3545 Y9.7756 
G00 Z2.0000 
G00 X7.5863 Y4.4609 
G01 Z-0.2000 F200.00 
G01 X7.5536 Y4.3390 F200.00 
G01 X7.4905 Y4.2296 
G01 X7.4013 Y4.1404 
G01 X7.2919 Y4.0773 
G01 X7.1700 Y4.0446 
G01 X7.0438 Y4.0446 
G01 X6.9219 Y4.0773 
G01 X6.8125 Y4.1404 
G01 X6.7233 Y4.2296 
G01 X6.6602 Y4.3390 
G01 X6.6275 Y4.4609 
G01 X6.6275 Y9.9933 
G01 X5.0609 Y9.9933 
G01 X4.9390 Y10.0259 
G01 X4.8296 Y10.0891 
G01 X4.7404 Y10.1783 
G01 X4.6773 Y10.2876 
G01 X4.6446 Y10.4096 
G01 X4.6446 Y10.5358 
G01 X4.6773 Y10.6577 
G01 X4.7404 Y10.7670 
G01 X4.8296 Y10.8563 
G01 X4.9390 Y10.9194 
G01 X5.0609 Y10.9521 
G01 X9.1529 Y10.9521 
G01 X9.2748 Y10.9194 
G01 X9.3841 Y10.8563 
G01 X9.4734 Y10.7670 
G01 X9.5365 Y10.6577 
G01 X9.5692 Y10.5358 
G01 X9.5692 Y10.4096 
G01 X9.5365 Y10.2876 
G01 X9.4734 Y10.1783 
G01 X9.3841 Y10.0891 
G01 X9.2748 Y10.0259 
G01 X9.1529 Y9.9933 
G01 X7.5863 Y9.9933 
G01 X7.5863 Y4.4609 
G00 Z2.0000 
G00 X15.0934 Y10.9521 
G01 Z-0.2000 F200.00 
G01 X15.2154 Y10.9194 F200.00 
G01 X15.3247 Y10.8563 
G01 X15.4139 Y10.7670 
G01 X15.4771 Y10.6577 
G01 X15.5097 Y10.5358 
G01 X15.5097 Y10.4096 
G01 X15.4771 Y10.2876 
G01 X15.4139 Y10.1783 
G01 X15.3247 Y10.0891 
G01 X15.2154 Y10.0259 
G01 X15.0934 Y9.9933 
G01 X11.5439 Y9.9933 
G01 X11.5439 Y7.9777 
G01 X13.1106 Y7.9777 
G01 X13.2325 Y7.9451 
G01 X13.3418 Y7.8820 
G01 X13.4311 Y7.7927 
G01 X13.4942 Y7.6834 
G01 X13.5268 Y7.5615 
G01 X13.5268 Y7.4352 
G01 X13.4942 Y7.3133 
G01 X13.4311 Y7.2040 
G01 X13.3418 Y7.1147 
G01 X13.2325 Y7.0516 
G01 X13.1106 Y7.0189 
G01 X11.5439 Y7.0189 
G01 X11.5439 Y5.0034 
G01 X15.0934 Y5.0034 
G01 X15.2154 Y4.9707 
G01 X15.3247 Y4.9076 
G01 X15.4139 Y4.8184 
G01 X15.4771 Y4.7090 
G01 X15.5097 Y4.5871 
G01 X15.5097 Y4.4609 
G01 X15.4771 Y4.3390 
G01 X15.4139 Y4.2296 
G01 X15.3247 Y4.1404 
G01 X15.2154 Y4.0773 
G01 X15.0934 Y4.0446 
G01 X11.0014 Y4.0446 
G01 X10.8795 Y4.0773 
G01 X10.7702 Y4.1404 
G01 X10.6809 Y4.2296 
G01 X10.6178 Y4.3390 
G01 X10.5851 Y4.4609 
G01 X10.5851 Y10.5358 
G01 X10.6178 Y10.6577 
G01 X10.6809 Y10.7670 
G01 X10.7702 Y10.8563 
G01 X10.8795 Y10.9194 
G01 X11.0014 Y10.9521 
G01 X11.1277 Y10.9521 
G01 X15.0934 Y10.9521 
G00 Z2.0000 
G00 X25.4204 Y4.4592 
G01 Z-0.2000 F200.00 
G01 X25.3869 Y4.3341 F200.00 
G01 X25.3222 Y4.2220 
G01 X25.2306 Y4.1304 
G01 X25.1184 Y4.0656 
G01 X24.9933 Y4.0321 
G01 X24.8638 Y4.0321 
G01 X24.7387 Y4.0656 
G01 X24.6265 Y4.1304 
G01 X24.5349 Y4.2220 
G01 X24.4702 Y4.3341 
G01 X24.4366 Y4.4592 
G01 X24.4366 Y9.9808 
G01 X22.8809 Y9.9808 
G01 X22.7558 Y10.0143 
G01 X22.6436 Y10.0791 
G01 X22.5520 Y10.1706 
G01 X22.4873 Y10.2828 
G01 X22.4537 Y10.4079 
G01 X22.4537 Y10.5374 
G01 X22.4873 Y10.6625 
G01 X22.5520 Y10.7747 
G01 X22.6436 Y10.8663 
G01 X22.7558 Y10.9311 
G01 X22.8809 Y10.9646 
G01 X26.9762 Y10.9646 
G01 X27.1013 Y10.9311 
G01 X27.2135 Y10.8663 
G01 X27.3050 Y10.7747 
G01 X27.3698 Y10.6625 
G01 X27.4033 Y10.5374 
G01 X27.4033 Y10.4079 
G01 X27.3698 Y10.2828 
G01 X27.3050 Y10.1706 
G01 X27.2135 Y10.0791 
G01 X27.1013 Y10.0143 
G01 X26.9762 Y9.9808 
G01 X25.4204 Y9.9808 
G01 X25.4204 Y4.4592 
G00 Z2.0000 
G00 X21.3645 Y9.7833 
G01 Z-0.2000 F200.00 
G01 X21.4293 Y9.6711 F200.00 
G01 X21.4628 Y9.5460 
G01 X21.4628 Y9.4165 
G01 X21.4293 Y9.2914 
G01 X21.3645 Y9.1792 
G01 X21.2729 Y9.0876 
G01 X21.1607 Y9.0229 
G01 X21.0356 Y8.9893 
G01 X20.9061 Y8.9893 
G01 X20.7810 Y9.0229 
G01 X20.6688 Y9.0876 
G01 X19.7757 Y9.9808 
G01 X18.2003 Y9.9808 
G01 X17.4970 Y9.2775 
G01 X17.4970 Y8.6935 
G01 X18.2003 Y7.9902 
G01 X20.0442 Y7.9902 
G01 X20.1693 Y7.9567 
G01 X20.2815 Y7.8920 
G01 X21.2729 Y6.9005 
G01 X21.3645 Y6.8089 
G01 X21.4293 Y6.6968 
G01 X21.4628 Y6.5717 
G01 X21.4628 Y5.4507 
G01 X21.4293 Y5.3256 
G01 X21.3645 Y5.2134 
G01 X20.3731 Y4.2220 
G01 X20.2815 Y4.1304 
G01 X20.1693 Y4.0656 
G01 X20.0442 Y4.0321 
G01 X17.9318 Y4.0321 
G01 X17.8067 Y4.0656 
G01 X17.6945 Y4.1304 
G01 X16.6115 Y5.2134 
G01 X16.5467 Y5.3256 
G01 X16.5132 Y5.4507 
G01 X16.5132 Y5.5802 
G01 X16.5467 Y5.7053 
G01 X16.6115 Y5.8175 
G01 X16.7031 Y5.9091 
G01 X16.8152 Y5.9738 
G01 X16.9403 Y6.0073 
G01 X17.0699 Y6.0073 
G01 X17.1950 Y5.9738 
G01 X17.3071 Y5.9091 
G01 X18.2003 Y5.0159 
G01 X19.7757 Y5.0159 
G01 X20.4790 Y5.7192 
G01 X20.4790 Y6.3031 
G01 X19.7757 Y7.0064 
G01 X17.9318 Y7.0064 
G01 X17.8067 Y7.0400 
G01 X17.6945 Y7.1047 
G01 X17.6029 Y7.1963 
G01 X16.6115 Y8.1878 
G01 X16.5467 Y8.2999 
G01 X16.5132 Y8.4250 
G01 X16.5132 Y9.5460 
G01 X16.5467 Y9.6711 
G01 X16.6115 Y9.7833 
G01 X16.7031 Y9.8749 
G01 X17.6945 Y10.8663 
G01 X17.8067 Y10.9311 
G01 X17.9318 Y10.9646 
G01 X20.0442 Y10.9646 
G01 X20.1693 Y10.9311 
G01 X20.2815 Y10.8663 
G01 X20.3731 Y10.7747 
G01 X21.3645 Y9.7833 
G00 Z2.0000 
G00 X7.5988 Y4.4592 
G01 Z-0.2000 F200.00 
G01 X7.5653 Y4.3341 F200.00 
G01 X7.5005 Y4.2220 
G01 X7.4089 Y4.1304 
G01 X7.2968 Y4.0656 
G01 X7.1717 Y4.0321 
G01 X7.0421 Y4.0321 
G01 X6.9170 Y4.0656 
G01 X6.8049 Y4.1304 
G01 X6.7133 Y4.2220 
G01 X6.6485 Y4.3341 
G01 X6.6150 Y4.4592 
G01 X6.6150 Y9.9808 
G01 X5.0592 Y9.9808 
G01 X4.9341 Y10.0143 
G01 X4.8220 Y10.0791 
G01 X4.7304 Y10.1706 
G01 X4.6656 Y10.2828 
G01 X4.6321 Y10.4079 
G01 X4.6321 Y10.5374 
G01 X4.6656 Y10.6625 
G01 X4.7304 Y10.7747 
G01 X4.8220 Y10.8663 
G01 X4.9341 Y10.9311 
G01 X5.0592 Y10.9646 
G01 X9.1546 Y10.9646 
G01 X9.2797 Y10.9311 
G01 X9.3918 Y10.8663 
G01 X9.4834 Y10.7747 
G01 X9.5482 Y10.6625 
G01 X9.5817 Y10.5374 
G01 X9.5817 Y10.4079 
G01 X9.5482 Y10.2828 
G01 X9.4834 Y10.1706 
G01 X9.3918 Y10.0791 
G01 X9.2797 Y10.0143 
G01 X9.1546 Y9.9808 
G01 X7.5988 Y9.9808 
G01 X7.5988 Y4.4592 
G00 Z2.0000 
G00 X15.0951 Y10.9646 
G01 Z-0.2000 F200.00 
G01 X15.2202 Y10.9311 F200.00 
G01 X15.3324 Y10.8663 
G01 X15.4240 Y10.7747 
G01 X15.4887 Y10.6625 
G01 X15.5222 Y10.5374 
G01 X15.5222 Y10.4079 
G01 X15.4887 Y10.2828 
G01 X15.4240 Y10.1706 
G01 X15.3324 Y10.0791 
G01 X15.2202 Y10.0143 
G01 X15.0951 Y9.9808 
G01 X11.5564 Y9.9808 
G01 X11.5564 Y7.9902 
G01 X13.1122 Y7.9902 
G01 X13.2373 Y7.9567 
G01 X13.3495 Y7.8920 
G01 X13.4411 Y7.8004 
G01 X13.5058 Y7.6882 
G01 X13.5393 Y7.5631 
G01 X13.5393 Y7.4336 
G01 X13.5058 Y7.3085 
G01 X13.4411 Y7.1963 
G01 X13.3495 Y7.1047 
G01 X13.2373 Y7.0400 
G01 X13.1122 Y7.0064 
G01 X11.5564 Y7.0064 
G01 X11.5564 Y5.0159 
G01 X15.0951 Y5.0159 
G01 X15.2202 Y4.9824 
G01 X15.3324 Y4.9176 
G01 X15.4240 Y4.8260 
G01 X15.4887 Y4.7139 
G01 X15.5222 Y4.5888 
G01 X15.5222 Y4.4592 
G01 X15.4887 Y4.3341 
G01 X15.4240 Y4.2220 
G01 X15.3324 Y4.1304 
G01 X15.2202 Y4.0656 
G01 X15.0951 Y4.0321 
G01 X10.9998 Y4.0321 
G01 X10.8747 Y4.0656 
G01 X10.7625 Y4.1304 
G01 X10.6709 Y4.2220 
G01 X10.6062 Y4.3341 
G01 X10.5726 Y4.4592 
G01 X10.5726 Y10.5374 
G01 X10.6062 Y10.6625 
G01 X10.6709 Y10.7747 
G01 X10.7625 Y10.8663 
G01 X10.8747 Y10.9311 
G01 X10.9998 Y10.9646 
G01 X11.1293 Y10.9646 
G01 X15.0951 Y10.9646 
G00 Z2.0000 
G00 X25.4329 Y4.4576 
G01 Z-0.2000 F200.00 
G01 X25.3986 Y4.3293 F200.00 
G01 X25.3322 Y4.2143 
G01 X25.2382 Y4.1204 
G01 X25.1232 Y4.0540 
G01 X24.9949 Y4.0196 
G01 X24.8621 Y4.0196 
G01 X24.7338 Y4.0540 
G01 X24.6188 Y4.1204 
G01 X24.5249 Y4.2143 
G01 X24.4585 Y4.3293 
G01 X24.4241 Y4.4576 
G01 X24.4241 Y9.9683 
G01 X22.8792 Y9.9683 
G01 X22.7509 Y10.0027 
G01 X22.6359 Y10.0691 
G01 X22.5420 Y10.1630 
G01 X22.4756 Y10.2780 
G01 X22.4412 Y10.4063 
G01 X22.4412 Y10.5391 
G01 X22.4756 Y10.6674 
G01 X22.5420 Y10.7824 
G01 X22.6359 Y10.8763 
G01 X22.7509 Y10.9427 
G01 X22.8792 Y10.9771 
G01 X26.9778 Y10.9771 
G01 X27.1061 Y10.9427 
G01 X27.2211 Y10.8763 
G01 X27.3150 Y10.7824 
G01 X27.3815 Y10.6674 
G01 X27.4158 Y10.5391 
G01 X27.4158 Y10.4063 
G01 X27.3815 Y10.2780 
G01 X27.3150 Y10.1630 
G01 X27.2211 Y10.0691 
G01 X27.1061 Y10.0027 
G01 X26.9778 Y9.9683 
G01 X25.4329 Y9.9683 
G01 X25.4329 Y4.4576 
G00 Z2.0000 
G00 X21.3745 Y9.7909 
G01 Z-0.2000 F200.00 
G01 X21.4409 Y9.6759 F200.00 
G01 X21.4753 Y9.5476 
G01 X21.4753 Y9.4148 
G01 X21.4409 Y9.2865 
G01 X21.3745 Y9.1715 
G01 X21.2806 Y9.0776 
G01 X21.1656 Y9.0112 
G01 X21.0373 Y8.9768 
G01 X20.9045 Y8.9768 
G01 X20.7762 Y9.0112 
G01 X20.6612 Y9.0776 
G01 X19.7705 Y9.9683 
G01 X18.2055 Y9.9683 
G01 X17.5095 Y9.2723 
G01 X17.5095 Y8.6987 
G01 X18.2055 Y8.0027 
G01 X20.0458 Y8.0027 
G01 X20.1741 Y7.9684 
G01 X20.2891 Y7.9020 
G01 X21.2806 Y6.9105 
G01 X21.3745 Y6.8166 
G01 X21.4409 Y6.7016 
G01 X21.4753 Y6.5733 
G01 X21.4753 Y5.4490 
G01 X21.4409 Y5.3208 
G01 X21.3745 Y5.2057 
G01 X20.3831 Y4.2143 
G01 X20.2891 Y4.1204 
G01 X20.1741 Y4.0540 
G01 X20.0458 Y4.0196 
G01 X17.9301 Y4.0196 
G01 X17.8018 Y4.0540 
G01 X17.6868 Y4.1204 
G01 X16.6015 Y5.2057 
G01 X16.5351 Y5.3208 
G01 X16.5007 Y5.4490 
G01 X16.5007 Y5.5819 
G01 X16.5351 Y5.7101 
G01 X16.6015 Y5.8252 
G01 X16.6954 Y5.9191 
G01 X16.8104 Y5.9855 
G01 X16.9387 Y6.0198 
G01 X17.0715 Y6.0198 
G01 X17.1998 Y5.9855 
G01 X17.3148 Y5.9191 
G01 X18.2055 Y5.0284 
G01 X19.7705 Y5.0284 
G01 X20.4665 Y5.7244 
G01 X20.4665 Y6.2980 
G01 X19.7705 Y6.9939 
G01 X17.9301 Y6.9939 
G01 X17.8018 Y7.0283 
G01 X17.6868 Y7.0947 
G01 X17.5929 Y7.1886 
G01 X16.6015 Y8.1801 
G01 X16.5351 Y8.2951 
G01 X16.5007 Y8.4234 
G01 X16.5007 Y9.5476 
G01 X16.5351 Y9.6759 
G01 X16.6015 Y9.7909 
G01 X16.6954 Y9.8849 
G01 X17.6868 Y10.8763 
G01 X17.8018 Y10.9427 
G01 X17.9301 Y10.9771 
G01 X20.0458 Y10.9771 
G01 X20.1741 Y10.9427 
G01 X20.2891 Y10.8763 
G01 X20.3831 Y10.7824 
G01 X21.3745 Y9.7909 
G00 Z2.0000 
G00 X7.6113 Y4.4576 
G01 Z-0.2000 F200.00 
G01 X7.5769 Y4.3293 F200.00 
G01 X7.5105 Y4.2143 
G01 X7.4166 Y4.1204 
G01 X7.3016 Y4.0540 
G01 X7.1733 Y4.0196 
G01 X7.0405 Y4.0196 
G01 X6.9122 Y4.0540 
G01 X6.7972 Y4.1204 
G01 X6.7033 Y4.2143 
G01 X6.6369 Y4.3293 
G01 X6.6025 Y4.4576 
G01 X6.6025 Y9.9683 
G01 X5.0576 Y9.9683 
G01 X4.9293 Y10.0027 
G01 X4.8143 Y10.0691 
G01 X4.7204 Y10.1630 
G01 X4.6540 Y10.2780 
G01 X4.6196 Y10.4063 
G01 X4.6196 Y10.5391 
G01 X4.6540 Y10.6674 
G01 X4.7204 Y10.7824 
G01 X4.8143 Y10.8763 
G01 X4.9293 Y10.9427 
G01 X5.0576 Y10.9771 
G01 X9.1562 Y10.9771 
G01 X9.2845 Y10.9427 
G01 X9.3995 Y10.8763 
G01 X9.4934 Y10.7824 
G01 X9.5598 Y10.6674 
G01 X9.5942 Y10.5391 
G01 X9.5942 Y10.4063 
G01 X9.5598 Y10.2780 
G01 X9.4934 Y10.1630 
G01 X9.3995 Y10.0691 
G01 X9.2845 Y10.0027 
G01 X9.1562 Y9.9683 
G01 X7.6113 Y9.9683 
G01 X7.6113 Y4.4576 
G00 Z2.0000 
G00 X15.0967 Y10.9771 
G01 Z-0.2000 F200.00 
G01 X15.2250 Y10.9427 F200.00 
G01 X15.3400 Y10.8763 
G01 X15.4340 Y10.7824 
G01 X15.5004 Y10.6674 
G01 X15.5347 Y10.5391 
G01 X15.5347 Y10.4063 
G01 X15.5004 Y10.2780 
G01 X15.4340 Y10.1630 
G01 X15.3400 Y10.0691 
G01 X15.2250 Y10.0027 
G01 X15.0967 Y9.9683 
G01 X11.5689 Y9.9683 
G01 X11.5689 Y8.0027 
G01 X13.1138 Y8.0027 
G01 X13.2421 Y7.9684 
G01 X13.3571 Y7.9020 
G01 X13.4511 Y7.8080 
G01 X13.5175 Y7.6930 
G01 X13.5518 Y7.5647 
G01 X13.5518 Y7.4319 
G01 X13.5175 Y7.3036 
G01 X13.4511 Y7.1886 
G01 X13.3571 Y7.0947 
G01 X13.2421 Y7.0283 
G01 X13.1138 Y6.9939 
G01 X11.5689 Y6.9939 
G01 X11.5689 Y5.0284 
G01 X15.0967 Y5.0284 
G01 X15.2250 Y4.9940 
G01 X15.3400 Y4.9276 
G01 X15.4340 Y4.8337 
G01 X15.5004 Y4.7187 
G01 X15.5347 Y4.5904 
G01 X15.5347 Y4.4576 
G01 X15.5004 Y4.3293 
G01 X15.4340 Y4.2143 
G01 X15.3400 Y4.1204 
G01 X15.2250 Y4.0540 
G01 X15.0967 Y4.0196 
G01 X10.9981 Y4.0196 
G01 X10.8699 Y4.0540 
G01 X10.7548 Y4.1204 
G01 X10.6609 Y4.2143 
G01 X10.5945 Y4.3293 
G01 X10.5602 Y4.4576 
G01 X10.5602 Y10.5391 
G01 X10.5945 Y10.6674 
G01 X10.6609 Y10.7824 
G01 X10.7548 Y10.8763 
G01 X10.8699 Y10.9427 
G01 X10.9981 Y10.9771 
G01 X11.1310 Y10.9771 
G01 X15.0967 Y10.9771 
G00 Z2.0000 
G00 X25.4454 Y4.4559 
G01 Z-0.2000 F200.00 
G01 X25.4102 Y4.3245 F200.00 
G01 X25.3422 Y4.2066 
G01 X25.2459 Y4.1104 
G01 X25.1281 Y4.0423 
G01 X24.9966 Y4.0071 
G01 X24.8605 Y4.0071 
G01 X24.7290 Y4.0423 
G01 X24.6112 Y4.1104 
G01 X24.5149 Y4.2066 
G01 X24.4469 Y4.3245 
G01 X24.4116 Y4.4559 
G01 X24.4116 Y9.9558 
G01 X22.8776 Y9.9558 
G01 X22.7461 Y9.9910 
G01 X22.6283 Y10.0591 
G01 X22.5320 Y10.1553 
G01 X22.4640 Y10.2732 
G01 X22.4287 Y10.4046 
G01 X22.4287 Y10.5407 
G01 X22.4640 Y10.6722 
G01 X22.5320 Y10.7901 
G01 X22.6283 Y10.8863 
G01 X22.7461 Y10.9544 
G01 X22.8776 Y10.9896 
G01 X26.9795 Y10.9896 
G01 X27.1109 Y10.9544 
G01 X27.2288 Y10.8863 
G01 X27.3251 Y10.7901 
G01 X27.3931 Y10.6722 
G01 X27.4283 Y10.5407 
G01 X27.4283 Y10.4046 
G01 X27.3931 Y10.2732 
G01 X27.3251 Y10.1553 
G01 X27.2288 Y10.0591 
G01 X27.1109 Y9.9910 
G01 X26.9795 Y9.9558 
G01 X25.4454 Y9.9558 
G01 X25.4454 Y4.4559 
G00 Z2.0000 
G00 X21.3845 Y9.7986 
G01 Z-0.2000 F200.00 
G01 X21.4526 Y9.6808 F200.00 
G01 X21.4878 Y9.5493 
G01 X21.4878 Y9.4132 
G01 X21.4526 Y9.2817 
G01 X21.3845 Y9.1639 
G01 X21.2883 Y9.0676 
G01 X21.1704 Y8.9996 
G01 X21.0389 Y8.9643 
G01 X20.9028 Y8.9643 
G01 X20.7714 Y8.9996 
G01 X20.6535 Y9.0676 
G01 X19.7653 Y9.9558 
G01 X18.2106 Y9.9558 
G01 X17.5220 Y9.2671 
G01 X17.5220 Y8.7039 
G01 X18.2106 Y8.0152 
G01 X20.0475 Y8.0152 
G01 X20.1790 Y7.9800 
G01 X20.2968 Y7.9120 
G01 X21.2883 Y6.9205 
G01 X21.3845 Y6.8243 
G01 X21.4526 Y6.7064 
G01 X21.4878 Y6.5749 
G01 X21.4878 Y5.4474 
G01 X21.4526 Y5.3159 
G01 X21.3845 Y5.1981 
G01 X20.3931 Y4.2066 
G01 X20.2968 Y4.1104 
G01 X20.1790 Y4.0423 
G01 X20.0475 Y4.0071 
G01 X17.9285 Y4.0071 
G01 X17.7970 Y4.0423 
G01 X17.6792 Y4.1104 
G01 X16.5915 Y5.1981 
G01 X16.5234 Y5.3159 
G01 X16.4882 Y5.4474 
G01 X16.4882 Y5.5835 
G01 X16.5234 Y5.7150 
G01 X16.5915 Y5.8328 
G01 X16.6877 Y5.9291 
G01 X16.8056 Y5.9971 
G01 X16.9370 Y6.0323 
G01 X17.0731 Y6.0323 
G01 X17.2046 Y5.9971 
G01 X17.3225 Y5.9291 
G01 X18.2106 Y5.0409 
G01 X19.7653 Y5.0409 
G01 X20.4540 Y5.7296 
G01 X20.4540 Y6.2928 
G01 X19.7653 Y6.9814 
G01 X17.9285 Y6.9814 
G01 X17.7970 Y7.0167 
G01 X17.6792 Y7.0847 
G01 X17.5829 Y7.1810 
G01 X16.5915 Y8.1724 
G01 X16.5234 Y8.2903 
G01 X16.4882 Y8.4217 
G01 X16.4882 Y9.5493 
G01 X16.5234 Y9.6808 
G01 X16.5915 Y9.7986 
G01 X16.6877 Y9.8949 
G01 X17.6792 Y10.8863 
G01 X17.7970 Y10.9544 
G01 X17.9285 Y10.9896 
G01 X20.0475 Y10.9896 
G01 X20.1790 Y10.9544 
G01 X20.2968 Y10.8863 
G01 X20.3931 Y10.7901 
G01 X21.3845 Y9.7986 
G00 Z2.0000 
G00 X7.6238 Y4.4559 
G01 Z-0.2000 F200.00 
G01 X7.5886 Y4.3245 F200.00 
G01 X7.5205 Y4.2066 
G01 X7.4243 Y4.1104 
G01 X7.3064 Y4.0423 
G01 X7.1749 Y4.0071 
G01 X7.0388 Y4.0071 
G01 X6.9074 Y4.0423 
G01 X6.7895 Y4.1104 
G01 X6.6933 Y4.2066 
G01 X6.6252 Y4.3245 
G01 X6.5900 Y4.4559 
G01 X6.5900 Y9.9558 
G01 X5.0559 Y9.9558 
G01 X4.9245 Y9.9910 
G01 X4.8066 Y10.0591 
G01 X4.7104 Y10.1553 
G01 X4.6423 Y10.2732 
G01 X4.6071 Y10.4046 
G01 X4.6071 Y10.5407 
G01 X4.6423 Y10.6722 
G01 X4.7104 Y10.7901 
G01 X4.8066 Y10.8863 
G01 X4.9245 Y10.9544 
G01 X5.0559 Y10.9896 
G01 X9.1578 Y10.9896 
G01 X9.2893 Y10.9544 
G01 X9.4072 Y10.8863 
G01 X9.5034 Y10.7901 
G01 X9.5715 Y10.6722 
G01 X9.6067 Y10.5407 
G01 X9.6067 Y10.4046 
G01 X9.5715 Y10.2732 
G01 X9.5034 Y10.1553 
G01 X9.4072 Y10.0591 
G01 X9.2893 Y9.9910 
G01 X9.1578 Y9.9558 
G01 X7.6238 Y9.9558 
G01 X7.6238 Y4.4559 
G00 Z2.0000 
G00 X15.0984 Y10.9896 
G01 Z-0.2000 F200.00 
G01 X15.2299 Y10.9544 F200.00 
G01 X15.3477 Y10.8863 
G01 X15.4440 Y10.7901 
G01 X15.5120 Y10.6722 
G01 X15.5472 Y10.5407 
G01 X15.5472 Y10.4046 
G01 X15.5120 Y10.2732 
G01 X15.4440 Y10.1553 
G01 X15.3477 Y10.0591 
G01 X15.2299 Y9.9910 
G01 X15.0984 Y9.9558 
G01 X11.5814 Y9.9558 
G01 X11.5814 Y8.0152 
G01 X13.1155 Y8.0152 
G01 X13.2470 Y7.9800 
G01 X13.3648 Y7.9120 
G01 X13.4611 Y7.8157 
G01 X13.5291 Y7.6979 
G01 X13.5643 Y7.5664 
G01 X13.5643 Y7.4303 
G01 X13.5291 Y7.2988 
G01 X13.4611 Y7.1810 
G01 X13.3648 Y7.0847 
G01 X13.2470 Y7.0167 
G01 X13.1155 Y6.9814 
G01 X11.5814 Y6.9814 
G01 X11.5814 Y5.0409 
G01 X15.0984 Y5.0409 
G01 X15.2299 Y5.0057 
G01 X15.3477 Y4.9376 
G01 X15.4440 Y4.8414 
G01 X15.5120 Y4.7235 
G01 X15.5472 Y4.5921 
G01 X15.5472 Y4.4559 
G01 X15.5120 Y4.3245 
G01 X15.4440 Y4.2066 
G01 X15.3477 Y4.1104 
G01 X15.2299 Y4.0423 
G01 X15.0984 Y4.0071 
G01 X10.9965 Y4.0071 
G01 X10.8650 Y4.0423 
G01 X10.7472 Y4.1104 
G01 X10.6509 Y4.2066 
G01 X10.5829 Y4.3245 
G01 X10.5477 Y4.4559 
G01 X10.5477 Y10.5407 
G01 X10.5829 Y10.6722 
G01 X10.6509 Y10.7901 
G01 X10.7472 Y10.8863 
G01 X10.8650 Y10.9544 
G01 X10.9965 Y10.9896 
G01 X11.1326 Y10.9896 
G01 X15.0984 Y10.9896 
G00 Z2.0000 
G00 X25.4579 Y4.4543 
G01 Z-0.2000 F200.00 
G01 X25.4219 Y4.3197 F200.00 
G01 X25.3522 Y4.1989 
G01 X25.2536 Y4.1004 
G01 X25.1329 Y4.0307 
G01 X24.9982 Y3.9946 
G01 X24.8588 Y3.9946 
G01 X24.7242 Y4.0307 
G01 X24.6035 Y4.1004 
G01 X24.5049 Y4.1989 
G01 X24.4352 Y4.3197 
G01 X24.3991 Y4.4543 
G01 X24.3991 Y9.9433 
G01 X22.8759 Y9.9433 
G01 X22.7413 Y9.9794 
G01 X22.6206 Y10.0491 
G01 X22.5220 Y10.1476 
G01 X22.4523 Y10.2683 
G01 X22.4162 Y10.4030 
G01 X22.4162 Y10.5424 
G01 X22.4523 Y10.6770 
G01 X22.5220 Y10.7977 
G01 X22.6206 Y10.8963 
G01 X22.7413 Y10.9660 
G01 X22.8759 Y11.0021 
G01 X26.9811 Y11.0021 
G01 X27.1158 Y10.9660 
G01 X27.2365 Y10.8963 
G01 X27.3351 Y10.7977 
G01 X27.4047 Y10.6770 
G01 X27.4408 Y10.5424 
G01 X27.4408 Y10.4030 
G01 X27.4047 Y10.2683 
G01 X27.3351 Y10.1476 
G01 X27.2365 Y10.0491 
G01 X27.1158 Y9.9794 
G01 X26.9811 Y9.9433 
G01 X25.4579 Y9.9433 
G01 X25.4579 Y4.4543 
G00 Z2.0000 
G00 X21.3945 Y9.8063 
G01 Z-0.2000 F200.00 
G01 X21.4642 Y9.6856 F200.00 
G01 X21.5003 Y9.5509 
G01 X21.5003 Y9.4115 
G01 X21.4642 Y9.2769 
G01 X21.3945 Y9.1562 
G01 X21.2959 Y9.0576 
G01 X21.1752 Y8.9879 
G01 X21.0406 Y8.9518 
G01 X20.9012 Y8.9518 
G01 X20.7665 Y8.9879 
G01 X20.6458 Y9.0576 
G01 X19.7602 Y9.9433 
G01 X18.2158 Y9.9433 
G01 X17.5345 Y9.2620 
G01 X17.5345 Y8.7091 
G01 X18.2158 Y8.0277 
G01 X20.0491 Y8.0277 
G01 X20.1838 Y7.9917 
G01 X20.3045 Y7.9220 
G01 X21.2959 Y6.9305 
G01 X21.3945 Y6.8319 
G01 X21.4642 Y6.7112 
G01 X21.5003 Y6.5766 
G01 X21.5003 Y5.4457 
G01 X21.4642 Y5.3111 
G01 X21.3945 Y5.1904 
G01 X20.4031 Y4.1989 
G01 X20.3045 Y4.1004 
G01 X20.1838 Y4.0307 
G01 X20.0491 Y3.9946 
G01 X17.9268 Y3.9946 
G01 X17.7922 Y4.0307 
G01 X17.6715 Y4.1004 
G01 X16.5815 Y5.1904 
G01 X16.5118 Y5.3111 
G01 X16.4757 Y5.4457 
G01 X16.4757 Y5.5851 
G01 X16.5118 Y5.7198 
G01 X16.5815 Y5.8405 
G01 X16.6800 Y5.9391 
G01 X16.8008 Y6.0088 
G01 X16.9354 Y6.0448 
G01 X17.0748 Y6.0448 
G01 X17.2094 Y6.0088 
G01 X17.3302 Y5.9391 
G01 X18.2158 Y5.0534 
G01 X19.7602 Y5.0534 
G01 X20.4415 Y5.7347 
G01 X20.4415 Y6.2876 
G01 X19.7602 Y6.9689 
G01 X17.9268 Y6.9689 
G01 X17.7922 Y7.0050 
G01 X17.6715 Y7.0747 
G01 X17.5729 Y7.1733 
G01 X16.5815 Y8.1647 
G01 X16.5118 Y8.2854 
G01 X16.4757 Y8.4201 
G01 X16.4757 Y9.5509 
G01 X16.5118 Y9.6856 
G01 X16.5815 Y9.8063 
G01 X16.6800 Y9.9049 
G01 X17.6715 Y10.8963 
G01 X17.7922 Y10.9660 
G01 X17.9268 Y11.0021 
G01 X20.0491 Y11.0021 
G01 X20.1838 Y10.9660 
G01 X20.3045 Y10.8963 
G01 X20.4031 Y10.7977 
G01 X21.3945 Y9.8063 
G00 Z2.0000 
G00 X7.6363 Y4.4543 
G01 Z-0.2000 F200.00 
G01 X7.6002 Y4.3197 F200.00 
G01 X7.5305 Y4.1989 
G01 X7.4320 Y4.1004 
G01 X7.3112 Y4.0307 
G01 X7.1766 Y3.9946 
G01 X7.0372 Y3.9946 
G01 X6.9026 Y4.0307 
G01 X6.7818 Y4.1004 
G01 X6.6833 Y4.1989 
G01 X6.6136 Y4.3197 
G01 X6.5775 Y4.4543 
G01 X6.5775 Y9.9433 
G01 X5.0543 Y9.9433 
G01 X4.9197 Y9.9794 
G01 X4.7989 Y10.0491 
G01 X4.7004 Y10.1476 
G01 X4.6307 Y10.2683 
G01 X4.5946 Y10.4030 
G01 X4.5946 Y10.5424 
G01 X4.6307 Y10.6770 
G01 X4.7004 Y10.7977 
G01 X4.7989 Y10.8963 
G01 X4.9197 Y10.9660 
G01 X5.0543 Y11.0021 
G01 X9.1595 Y11.0021 
G01 X9.2941 Y10.9660 
G01 X9.4148 Y10.8963 
G01 X9.5134 Y10.7977 
G01 X9.5831 Y10.6770 
G01 X9.6192 Y10.5424 
G01 X9.6192 Y10.4030 
G01 X9.5831 Y10.2683 
G01 X9.5134 Y10.1476 
G01 X9.4148 Y10.0491 
G01 X9.2941 Y9.9794 
G01 X9.1595 Y9.9433 
G01 X7.6363 Y9.9433 
G01 X7.6363 Y4.4543 
G00 Z2.0000 
G00 X15.1000 Y11.0021 
G01 Z-0.2000 F200.00 
G01 X15.2347 Y10.9660 F200.00 
G01 X15.3554 Y10.8963 
G01 X15.4540 Y10.7977 
G01 X15.5237 Y10.6770 
G01 X15.5597 Y10.5424 
G01 X15.5597 Y10.4030 
G01 X15.5237 Y10.2683 
G01 X15.4540 Y10.1476 
G01 X15.3554 Y10.0491 
G01 X15.2347 Y9.9794 
G01 X15.1000 Y9.9433 
G01 X11.5939 Y9.9433 
G01 X11.5939 Y8.0277 
G01 X13.1171 Y8.0277 
G01 X13.2518 Y7.9917 
G01 X13.3725 Y7.9220 
G01 X13.4711 Y7.8234 
G01 X13.5408 Y7.7027 
G01 X13.5768 Y7.5680 
G01 X13.5768 Y7.4286 
G01 X13.5408 Y7.2940 
G01 X13.4711 Y7.1733 
G01 X13.3725 Y7.0747 
G01 X13.2518 Y7.0050 
G01 X13.1171 Y6.9689 
G01 X11.5939 Y6.9689 
G01 X11.5939 Y5.0534 
G01 X15.1000 Y5.0534 
G01 X15.2347 Y5.0173 
G01 X15.3554 Y4.9476 
G01 X15.4540 Y4.8491 
G01 X15.5237 Y4.7283 
G01 X15.5597 Y4.5937 
G01 X15.5597 Y4.4543 
G01 X15.5237 Y4.3197 
G01 X15.4540 Y4.1989 
G01 X15.3554 Y4.1004 
G01 X15.2347 Y4.0307 
G01 X15.1000 Y3.9946 
G01 X10.9948 Y3.9946 
G01 X10.8602 Y4.0307 
G01 X10.7395 Y4.1004 
G01 X10.6409 Y4.1989 
G01 X10.5712 Y4.3197 
G01 X10.5351 Y4.4543 
G01 X10.5351 Y10.5424 
G01 X10.5712 Y10.6770 
G01 X10.6409 Y10.7977 
G01 X10.7395 Y10.8963 
G01 X10.8602 Y10.9660 
G01 X10.9948 Y11.0021 
G01 X11.1342 Y11.0021 
G01 X15.1000 Y11.0021 
G00 Z2.0000 
G00 X25.4704 Y4.4527 
G01 Z-0.2000 F200.00 
G01 X25.4335 Y4.3148 F200.00 
G01 X25.3622 Y4.1913 
G01 X25.2613 Y4.0904 
G01 X25.1377 Y4.0190 
G01 X24.9999 Y3.9821 
G01 X24.8572 Y3.9821 
G01 X24.7194 Y4.0190 
G01 X24.5958 Y4.0904 
G01 X24.4949 Y4.1913 
G01 X24.4236 Y4.3148 
G01 X24.3866 Y4.4527 
G01 X24.3866 Y9.9308 
G01 X22.8743 Y9.9308 
G01 X22.7365 Y9.9677 
G01 X22.6129 Y10.0391 
G01 X22.5120 Y10.1399 
G01 X22.4407 Y10.2635 
G01 X22.4037 Y10.4013 
G01 X22.4037 Y10.5440 
G01 X22.4407 Y10.6818 
G01 X22.5120 Y10.8054 
G01 X22.6129 Y10.9063 
G01 X22.7365 Y10.9777 
G01 X22.8743 Y11.0146 
G01 X26.9828 Y11.0146 
G01 X27.1206 Y10.9777 
G01 X27.2442 Y10.9063 
G01 X27.3451 Y10.8054 
G01 X27.4164 Y10.6818 
G01 X27.4533 Y10.5440 
G01 X27.4533 Y10.4013 
G01 X27.4164 Y10.2635 
G01 X27.3451 Y10.1399 
G01 X27.2442 Y10.0391 
G01 X27.1206 Y9.9677 
G01 X26.9828 Y9.9308 
G01 X25.4704 Y9.9308 
G01 X25.4704 Y4.4527 
G00 Z2.0000 
G00 X21.4045 Y9.8140 
G01 Z-0.2000 F200.00 
G01 X21.4759 Y9.6904 F200.00 
G01 X21.5128 Y9.5526 
G01 X21.5128 Y9.4099 
G01 X21.4759 Y9.2721 
G01 X21.4045 Y9.1485 
G01 X21.3036 Y9.0476 
G01 X21.1800 Y8.9763 
G01 X21.0422 Y8.9393 
G01 X20.8995 Y8.9393 
G01 X20.7617 Y8.9763 
G01 X20.6381 Y9.0476 
G01 X19.7550 Y9.9308 
G01 X18.2210 Y9.9308 
G01 X17.5470 Y9.2568 
G01 X17.5470 Y8.7142 
G01 X18.2210 Y8.0402 
G01 X20.0508 Y8.0402 
G01 X20.1886 Y8.0033 
G01 X20.3122 Y7.9320 
G01 X21.3036 Y6.9405 
G01 X21.4045 Y6.8396 
G01 X21.4759 Y6.7161 
G01 X21.5128 Y6.5782 
G01 X21.5128 Y5.4441 
G01 X21.4759 Y5.3063 
G01 X21.4045 Y5.1827 
G01 X20.4131 Y4.1913 
G01 X20.3122 Y4.0904 
G01 X20.1886 Y4.0190 
G01 X20.0508 Y3.9821 
G01 X17.9252 Y3.9821 
G01 X17.7874 Y4.0190 
G01 X17.6638 Y4.0904 
G01 X16.5715 Y5.1827 
G01 X16.5001 Y5.3063 
G01 X16.4632 Y5.4441 
G01 X16.4632 Y5.5868 
G01 X16.5001 Y5.7246 
G01 X16.5715 Y5.8482 
G01 X16.6724 Y5.9491 
G01 X16.7959 Y6.0204 
G01 X16.9338 Y6.0573 
G01 X17.0764 Y6.0573 
G01 X17.2143 Y6.0204 
G01 X17.3378 Y5.9491 
G01 X18.2210 Y5.0659 
G01 X19.7550 Y5.0659 
G01 X20.4290 Y5.7399 
G01 X20.4290 Y6.2824 
G01 X19.7550 Y6.9564 
G01 X17.9252 Y6.9564 
G01 X17.7874 Y6.9934 
G01 X17.6638 Y7.0647 
G01 X17.5629 Y7.1656 
G01 X16.5715 Y8.1571 
G01 X16.5001 Y8.2806 
G01 X16.4632 Y8.4184 
G01 X16.4632 Y9.5526 
G01 X16.5001 Y9.6904 
G01 X16.5715 Y9.8140 
G01 X16.6724 Y9.9149 
G01 X17.6638 Y10.9063 
G01 X17.7874 Y10.9777 
G01 X17.9252 Y11.0146 
G01 X20.0508 Y11.0146 
G01 X20.1886 Y10.9777 
G01 X20.3122 Y10.9063 
G01 X20.4131 Y10.8054 
G01 X21.4045 Y9.8140 
G00 Z2.0000 
G00 X7.6488 Y4.4527 
G01 Z-0.2000 F200.00 
G01 X7.6119 Y4.3148 F200.00 
G01 X7.5405 Y4.1913 
G01 X7.4396 Y4.0904 
G01 X7.3161 Y4.0190 
G01 X7.1782 Y3.9821 
G01 X7.0356 Y3.9821 
G01 X6.8977 Y4.0190 
G01 X6.7742 Y4.0904 
G01 X6.6733 Y4.1913 
G01 X6.6019 Y4.3148 
G01 X6.5650 Y4.4527 
G01 X6.5650 Y9.9308 
G01 X5.0527 Y9.9308 
G01 X4.9148 Y9.9677 
G01 X4.7913 Y10.0391 
G01 X4.6904 Y10.1399 
G01 X4.6190 Y10.2635 
G01 X4.5821 Y10.4013 
G01 X4.5821 Y10.5440 
G01 X4.6190 Y10.6818 
G01 X4.6904 Y10.8054 
G01 X4.7913 Y10.9063 
G01 X4.9148 Y10.9777 
G01 X5.0527 Y11.0146 
G01 X9.1611 Y11.0146 
G01 X9.2990 Y10.9777 
G01 X9.4225 Y10.9063 
G01 X9.5234 Y10.8054 
G01 X9.5948 Y10.6818 
G01 X9.6317 Y10.5440 
G01 X9.6317 Y10.4013 
G01 X9.5948 Y10.2635 
G01 X9.5234 Y10.1399 
G01 X9.4225 Y10.0391 
G01 X9.2990 Y9.9677 
G01 X9.1611 Y9.9308 
G01 X7.6488 Y9.9308 
G01 X7.6488 Y4.4527 
G00 Z2.0000 
G00 X15.1017 Y11.0146 
G01 Z-0.2000 F200.00 
G01 X15.2395 Y10.9777 F200.00 
G01 X15.3631 Y10.9063 
G01 X15.4640 Y10.8054 
G01 X15.5353 Y10.6818 
G01 X15.5722 Y10.5440 
G01 X15.5722 Y10.4013 
G01 X15.5353 Y10.2635 
G01 X15.4640 Y10.1399 
G01 X15.3631 Y10.0391 
G01 X15.2395 Y9.9677 
G01 X15.1017 Y9.9308 
G01 X11.6064 Y9.9308 
G01 X11.6064 Y8.0402 
G01 X13.1188 Y8.0402 
G01 X13.2566 Y8.0033 
G01 X13.3802 Y7.9320 
G01 X13.4811 Y7.8311 
G01 X13.5524 Y7.7075 
G01 X13.5893 Y7.5697 
G01 X13.5893 Y7.4270 
G01 X13.5524 Y7.2892 
G01 X13.4811 Y7.1656 
G01 X13.3802 Y7.0647 
G01 X13.2566 Y6.9934 
G01 X13.1188 Y6.9564 
G01 X11.6064 Y6.9564 
G01 X11.6064 Y5.0659 
G01 X15.1017 Y5.0659 
G01 X15.2395 Y5.0290 
G01 X15.3631 Y4.9576 
G01 X15.4640 Y4.8567 
G01 X15.5353 Y4.7332 
G01 X15.5722 Y4.5953 
G01 X15.5722 Y4.4527 
G01 X15.5353 Y4.3148 
G01 X15.4640 Y4.1913 
G01 X15.3631 Y4.0904 
G01 X15.2395 Y4.0190 
G01 X15.1017 Y3.9821 
G01 X10.9932 Y3.9821 
G01 X10.8554 Y4.0190 
G01 X10.7318 Y4.0904 
G01 X10.6309 Y4.1913 
G01 X10.5596 Y4.3148 
G01 X10.5226 Y4.4527 
G01 X10.5226 Y10.5440 
G01 X10.5596 Y10.6818 
G01 X10.6309 Y10.8054 
G01 X10.7318 Y10.9063 
G01 X10.8554 Y10.9777 
G01 X10.9932 Y11.0146 
G01 X11.1359 Y11.0146 
G01 X15.1017 Y11.0146 
G00 Z2.0000 
G00 X25.4829 Y4.4510 
G01 Z-0.2000 F200.00 
G01 X25.4452 Y4.3100 F200.00 
G01 X25.3722 Y4.1836 
G01 X25.2689 Y4.0804 
G01 X25.1425 Y4.0074 
G01 X25.0015 Y3.9696 
G01 X24.8555 Y3.9696 
G01 X24.7145 Y4.0074 
G01 X24.5881 Y4.0804 
G01 X24.4849 Y4.1836 
G01 X24.4119 Y4.3100 
G01 X24.3741 Y4.4510 
G01 X24.3741 Y9.9183 
G01 X22.8727 Y9.9183 
G01 X22.7317 Y9.9561 
G01 X22.6052 Y10.0291 
G01 X22.5020 Y10.1323 
G01 X22.4290 Y10.2587 
G01 X22.3912 Y10.3997 
G01 X22.3912 Y10.5457 
G01 X22.4290 Y10.6867 
G01 X22.5020 Y10.8131 
G01 X22.6052 Y10.9163 
G01 X22.7317 Y10.9893 
G01 X22.8727 Y11.0271 
G01 X26.9844 Y11.0271 
G01 X27.1254 Y10.9893 
G01 X27.2518 Y10.9163 
G01 X27.3551 Y10.8131 
G01 X27.4280 Y10.6867 
G01 X27.4658 Y10.5457 
G01 X27.4658 Y10.3997 
G01 X27.4280 Y10.2587 
G01 X27.3551 Y10.1323 
G01 X27.2518 Y10.0291 
G01 X27.1254 Y9.9561 
G01 X26.9844 Y9.9183 
G01 X25.4829 Y9.9183 
G01 X25.4829 Y4.4510 
G00 Z2.0000 
G00 X21.4145 Y9.8216 
G01 Z-0.2000 F200.00 
G01 X21.4875 Y9.6952 F200.00 
G01 X21.5253 Y9.5542 
G01 X21.5253 Y9.4082 
G01 X21.4875 Y9.2672 
G01 X21.4145 Y9.1408 
G01 X21.3113 Y9.0376 
G01 X21.1849 Y8.9646 
G01 X21.0439 Y8.9268 
G01 X20.8979 Y8.9268 
G01 X20.7569 Y8.9646 
G01 X20.6305 Y9.0376 
G01 X19.7498 Y9.9183 
G01 X18.2262 Y9.9183 
G01 X17.5595 Y9.2516 
G01 X17.5595 Y8.7194 
G01 X18.2262 Y8.0527 
G01 X20.0524 Y8.0527 
G01 X20.1934 Y8.0150 
G01 X20.3198 Y7.9420 
G01 X21.3113 Y6.9505 
G01 X21.4145 Y6.8473 
G01 X21.4875 Y6.7209 
G01 X21.5253 Y6.5799 
G01 X21.5253 Y5.4425 
G01 X21.4875 Y5.3015 
G01 X21.4145 Y5.1750 
G01 X20.4231 Y4.1836 
G01 X20.3198 Y4.0804 
G01 X20.1934 Y4.0074 
G01 X20.0524 Y3.9696 
G01 X17.9236 Y3.9696 
G01 X17.7825 Y4.0074 
G01 X17.6561 Y4.0804 
G01 X16.5615 Y5.1750 
G01 X16.4885 Y5.3015 
G01 X16.4507 Y5.4425 
G01 X16.4507 Y5.5884 
G01 X16.4885 Y5.7294 
G01 X16.5615 Y5.8559 
G01 X16.6647 Y5.9591 
G01 X16.7911 Y6.0321 
G01 X16.9321 Y6.0698 
G01 X17.0781 Y6.0698 
G01 X17.2191 Y6.0321 
G01 X17.3455 Y5.9591 
G01 X18.2262 Y5.0784 
G01 X19.7498 Y5.0784 
G01 X20.4165 Y5.7451 
G01 X20.4165 Y6.2773 
G01 X19.7498 Y6.9439 
G01 X17.9236 Y6.9439 
G01 X17.7825 Y6.9817 
G01 X17.6561 Y7.0547 
G01 X17.5529 Y7.1579 
G01 X16.5615 Y8.1494 
G01 X16.4885 Y8.2758 
G01 X16.4507 Y8.4168 
G01 X16.4507 Y9.5542 
G01 X16.4885 Y9.6952 
G01 X16.5615 Y9.8216 
G01 X16.6647 Y9.9249 
G01 X17.6561 Y10.9163 
G01 X17.7825 Y10.9893 
G01 X17.9236 Y11.0271 
G01 X20.0524 Y11.0271 
G01 X20.1934 Y10.9893 
G01 X20.3198 Y10.9163 
G01 X20.4231 Y10.8131 
G01 X21.4145 Y9.8216 
G00 Z2.0000 
G00 X7.6613 Y4.4510 
G01 Z-0.2000 F200.00 
G01 X7.6235 Y4.3100 F200.00 
G01 X7.5505 Y4.1836 
G01 X7.4473 Y4.0804 
G01 X7.3209 Y4.0074 
G01 X7.1799 Y3.9696 
G01 X7.0339 Y3.9696 
G01 X6.8929 Y4.0074 
G01 X6.7665 Y4.0804 
G01 X6.6633 Y4.1836 
G01 X6.5903 Y4.3100 
G01 X6.5525 Y4.4510 
G01 X6.5525 Y9.9183 
G01 X5.0510 Y9.9183 
G01 X4.9100 Y9.9561 
G01 X4.7836 Y10.0291 
G01 X4.6804 Y10.1323 
G01 X4.6074 Y10.2587 
G01 X4.5696 Y10.3997 
G01 X4.5696 Y10.5457 
G01 X4.6074 Y10.6867 
G01 X4.6804 Y10.8131 
G01 X4.7836 Y10.9163 
G01 X4.9100 Y10.9893 
G01 X5.0510 Y11.0271 
G01 X9.1628 Y11.0271 
G01 X9.3038 Y10.9893 
G01 X9.4302 Y10.9163 
G01 X9.5334 Y10.8131 
G01 X9.6064 Y10.6867 
G01 X9.6442 Y10.5457 
G01 X9.6442 Y10.3997 
G01 X9.6064 Y10.2587 
G01 X9.5334 Y10.1323 
G01 X9.4302 Y10.0291 
G01 X9.3038 Y9.9561 
G01 X9.1628 Y9.9183 
G01 X7.6613 Y9.9183 
G01 X7.6613 Y4.4510 
G00 Z2.0000 
G00 X15.1033 Y11.0271 
G01 Z-0.2000 F200.00 
G01 X15.2443 Y10.9893 F200.00 
G01 X15.3707 Y10.9163 
G01 X15.4740 Y10.8131 
G01 X15.5470 Y10.6867 
G01 X15.5847 Y10.5457 
G01 X15.5847 Y10.3997 
G01 X15.5470 Y10.2587 
G01 X15.4740 Y10.1323 
G01 X15.3707 Y10.0291 
G01 X15.2443 Y9.9561 
G01 X15.1033 Y9.9183 
G01 X11.6189 Y9.9183 
G01 X11.6189 Y8.0527 
G01 X13.1204 Y8.0527 
G01 X13.2614 Y8.0150 
G01 X13.3878 Y7.9420 
G01 X13.4911 Y7.8387 
G01 X13.5641 Y7.7123 
G01 X13.6018 Y7.5713 
G01 X13.6018 Y7.4253 
G01 X13.5641 Y7.2843 
G01 X13.4911 Y7.1579 
G01 X13.3878 Y7.0547 
G01 X13.2614 Y6.9817 
G01 X13.1204 Y6.9439 
G01 X11.6189 Y6.9439 
G01 X11.6189 Y5.0784 
G01 X15.1033 Y5.0784 
G01 X15.2443 Y5.0406 
G01 X15.3707 Y4.9676 
G01 X15.4740 Y4.8644 
G01 X15.5470 Y4.7380 
G01 X15.5847 Y4.5970 
G01 X15.5847 Y4.4510 
G01 X15.5470 Y4.3100 
G01 X15.4740 Y4.1836 
G01 X15.3707 Y4.0804 
G01 X15.2443 Y4.0074 
G01 X15.1033 Y3.9696 
G01 X10.9916 Y3.9696 
G01 X10.8506 Y4.0074 
G01 X10.7241 Y4.0804 
G01 X10.6209 Y4.1836 
G01 X10.5479 Y4.3100 
G01 X10.5101 Y4.4510 
G01 X10.5101 Y10.5457 
G01 X10.5479 Y10.6867 
G01 X10.6209 Y10.8131 
G01 X10.7241 Y10.9163 
G01 X10.8506 Y10.9893 
G01 X10.9916 Y11.0271 
G01 X11.1375 Y11.0271 
G01 X15.1033 Y11.0271 
G00 Z2.0000 
G00 X25.4954 Y4.4494 
G01 Z-0.2000 F200.00 
G01 X25.4568 Y4.3052 F200.00 
G01 X25.3822 Y4.1759 
G01 X25.2766 Y4.0704 
G01 X25.1473 Y3.9957 
G01 X25.0032 Y3.9571 
G01 X24.8539 Y3.9571 
G01 X24.7097 Y3.9957 
G01 X24.5804 Y4.0704 
G01 X24.4749 Y4.1759 
G01 X24.4003 Y4.3052 
G01 X24.3616 Y4.4494 
G01 X24.3616 Y9.9058 
G01 X22.8710 Y9.9058 
G01 X22.7268 Y9.9444 
G01 X22.5976 Y10.0190 
G01 X22.4920 Y10.1246 
G01 X22.4174 Y10.2539 
G01 X22.3787 Y10.3980 
G01 X22.3787 Y10.5473 
G01 X22.4174 Y10.6915 
G01 X22.4920 Y10.8208 
G01 X22.5976 Y10.9263 
G01 X22.7268 Y11.0009 
G01 X22.8710 Y11.0396 
G01 X26.9861 Y11.0396 
G01 X27.1302 Y11.0009 
G01 X27.2595 Y10.9263 
G01 X27.3651 Y10.8208 
G01 X27.4397 Y10.6915 
G01 X27.4783 Y10.5473 
G01 X27.4783 Y10.3980 
G01 X27.4397 Y10.2539 
G01 X27.3651 Y10.1246 
G01 X27.2595 Y10.0190 
G01 X27.1302 Y9.9444 
G01 X26.9861 Y9.9058 
G01 X25.4954 Y9.9058 
G01 X25.4954 Y4.4494 
G00 Z2.0000 
G00 X21.4245 Y9.8293 
G01 Z-0.2000 F200.00 
G01 X21.4991 Y9.7000 F200.00 
G01 X21.5378 Y9.5559 
G01 X21.5378 Y9.4066 
G01 X21.4991 Y9.2624 
G01 X21.4245 Y9.1331 
G01 X21.3190 Y9.0276 
G01 X21.1897 Y8.9530 
G01 X21.0455 Y8.9143 
G01 X20.8962 Y8.9143 
G01 X20.7521 Y8.9530 
G01 X20.6228 Y9.0276 
G01 X19.7446 Y9.9058 
G01 X18.2314 Y9.9058 
G01 X17.5720 Y9.2464 
G01 X17.5720 Y8.7246 
G01 X18.2314 Y8.0652 
G01 X20.0541 Y8.0652 
G01 X20.1982 Y8.0266 
G01 X20.3275 Y7.9520 
G01 X21.3190 Y6.9605 
G01 X21.4245 Y6.8550 
G01 X21.4991 Y6.7257 
G01 X21.5378 Y6.5815 
G01 X21.5378 Y5.4408 
G01 X21.4991 Y5.2966 
G01 X21.4245 Y5.1674 
G01 X20.4331 Y4.1759 
G01 X20.3275 Y4.0704 
G01 X20.1982 Y3.9957 
G01 X20.0541 Y3.9571 
G01 X17.9219 Y3.9571 
G01 X17.7777 Y3.9957 
G01 X17.6485 Y4.0704 
G01 X16.5515 Y5.1674 
G01 X16.4768 Y5.2966 
G01 X16.4382 Y5.4408 
G01 X16.4382 Y5.5901 
G01 X16.4768 Y5.7343 
G01 X16.5515 Y5.8635 
G01 X16.6570 Y5.9691 
G01 X16.7863 Y6.0437 
G01 X16.9305 Y6.0823 
G01 X17.0797 Y6.0823 
G01 X17.2239 Y6.0437 
G01 X17.3532 Y5.9691 
G01 X18.2314 Y5.0909 
G01 X19.7446 Y5.0909 
G01 X20.4040 Y5.7503 
G01 X20.4040 Y6.2721 
G01 X19.7446 Y6.9314 
G01 X17.9219 Y6.9314 
G01 X17.7777 Y6.9701 
G01 X17.6485 Y7.0447 
G01 X17.5429 Y7.1503 
G01 X16.5515 Y8.1417 
G01 X16.4768 Y8.2710 
G01 X16.4382 Y8.4152 
G01 X16.4382 Y9.5559 
G01 X16.4768 Y9.7000 
G01 X16.5515 Y9.8293 
G01 X16.6570 Y9.9349 
G01 X17.6485 Y10.9263 
G01 X17.7777 Y11.0009 
G01 X17.9219 Y11.0396 
G01 X20.0541 Y11.0396 
G01 X20.1982 Y11.0009 
G01 X20.3275 Y10.9263 
G01 X20.4331 Y10.8208 
G01 X21.4245 Y9.8293 
G00 Z2.0000 
G00 X7.6738 Y4.4494 
G01 Z-0.2000 F200.00 
G01 X7.6352 Y4.3052 F200.00 
G01 X7.5605 Y4.1759 
G01 X7.4550 Y4.0704 
G01 X7.3257 Y3.9957 
G01 X7.1815 Y3.9571 
G01 X7.0323 Y3.9571 
G01 X6.8881 Y3.9957 
G01 X6.7588 Y4.0704 
G01 X6.6533 Y4.1759 
G01 X6.5786 Y4.3052 
G01 X6.5400 Y4.4494 
G01 X6.5400 Y9.9058 
G01 X5.0494 Y9.9058 
G01 X4.9052 Y9.9444 
G01 X4.7759 Y10.0190 
G01 X4.6704 Y10.1246 
G01 X4.5957 Y10.2539 
G01 X4.5571 Y10.3980 
G01 X4.5571 Y10.5473 
G01 X4.5957 Y10.6915 
G01 X4.6704 Y10.8208 
G01 X4.7759 Y10.9263 
G01 X4.9052 Y11.0009 
G01 X5.0494 Y11.0396 
G01 X9.1644 Y11.0396 
G01 X9.3086 Y11.0009 
G01 X9.4379 Y10.9263 
G01 X9.5434 Y10.8208 
G01 X9.6181 Y10.6915 
G01 X9.6567 Y10.5473 
G01 X9.6567 Y10.3980 
G01 X9.6181 Y10.2539 
G01 X9.5434 Y10.1246 
G01 X9.4379 Y10.0190 
G01 X9.3086 Y9.9444 
G01 X9.1644 Y9.9058 
G01 X7.6738 Y9.9058 
G01 X7.6738 Y4.4494 
G00 Z2.0000 
G00 X15.1050 Y11.0396 
G01 Z-0.2000 F200.00 
G01 X15.2492 Y11.0009 F200.00 
G01 X15.3784 Y10.9263 
G01 X15.4840 Y10.8208 
G01 X15.5586 Y10.6915 
G01 X15.5972 Y10.5473 
G01 X15.5972 Y10.3980 
G01 X15.5586 Y10.2539 
G01 X15.4840 Y10.1246 
G01 X15.3784 Y10.0190 
G01 X15.2492 Y9.9444 
G01 X15.1050 Y9.9058 
G01 X11.6314 Y9.9058 
G01 X11.6314 Y8.0652 
G01 X13.1221 Y8.0652 
G01 X13.2663 Y8.0266 
G01 X13.3955 Y7.9520 
G01 X13.5011 Y7.8464 
G01 X13.5757 Y7.7172 
G01 X13.6143 Y7.5730 
G01 X13.6143 Y7.4237 
G01 X13.5757 Y7.2795 
G01 X13.5011 Y7.1503 
G01 X13.3955 Y7.0447 
G01 X13.2663 Y6.9701 
G01 X13.1221 Y6.9314 
G01 X11.6314 Y6.9314 
G01 X11.6314 Y5.0909 
G01 X15.1050 Y5.0909 
G01 X15.2492 Y5.0523 
G01 X15.3784 Y4.9776 
G01 X15.4840 Y4.8721 
G01 X15.5586 Y4.7428 
G01 X15.5972 Y4.5986 
G01 X15.5972 Y4.4494 
G01 X15.5586 Y4.3052 
G01 X15.4840 Y4.1759 
G01 X15.3784 Y4.0704 
G01 X15.2492 Y3.9957 
G01 X15.1050 Y3.9571 
G01 X10.9899 Y3.9571 
G01 X10.8457 Y3.9957 
G01 X10.7165 Y4.0704 
G01 X10.6109 Y4.1759 
G01 X10.5363 Y4.3052 
G01 X10.4977 Y4.4494 
G01 X10.4977 Y10.5473 
G01 X10.5363 Y10.6915 
G01 X10.6109 Y10.8208 
G01 X10.7165 Y10.9263 
G01 X10.8457 Y11.0009 
G01 X10.9899 Y11.0396 
G01 X11.1392 Y11.0396 
G01 X15.1050 Y11.0396 
G00 Z2.0000 
G00 X25.5079 Y4.4477 
G01 Z-0.2000 F200.00 
G01 X25.4684 Y4.3004 F200.00 
G01 X25.3922 Y4.1682 
G01 X25.2843 Y4.0604 
G01 X25.1522 Y3.9841 
G01 X25.0048 Y3.9446 
G01 X24.8523 Y3.9446 
G01 X24.7049 Y3.9841 
G01 X24.5728 Y4.0604 
G01 X24.4649 Y4.1682 
G01 X24.3886 Y4.3004 
G01 X24.3491 Y4.4477 
G01 X24.3491 Y9.8933 
G01 X22.8694 Y9.8933 
G01 X22.7220 Y9.9328 
G01 X22.5899 Y10.0090 
G01 X22.4820 Y10.1169 
G01 X22.4057 Y10.2490 
G01 X22.3662 Y10.3964 
G01 X22.3662 Y10.5490 
G01 X22.4057 Y10.6963 
G01 X22.4820 Y10.8284 
G01 X22.5899 Y10.9363 
G01 X22.7220 Y11.0126 
G01 X22.8694 Y11.0521 
G01 X26.9877 Y11.0521 
G01 X27.1351 Y11.0126 
G01 X27.2672 Y10.9363 
G01 X27.3751 Y10.8284 
G01 X27.4513 Y10.6963 
G01 X27.4908 Y10.5490 
G01 X27.4908 Y10.3964 
G01 X27.4513 Y10.2490 
G01 X27.3751 Y10.1169 
G01 X27.2672 Y10.0090 
G01 X27.1351 Y9.9328 
G01 X26.9877 Y9.8933 
G01 X25.5079 Y9.8933 
G01 X25.5079 Y4.4477 
G00 Z2.0000 
G00 X21.4345 Y9.8370 
G01 Z-0.2000 F200.00 
G01 X21.5108 Y9.7049 F200.00 
G01 X21.5503 Y9.5575 
G01 X21.5503 Y9.4050 
G01 X21.5108 Y9.2576 
G01 X21.4345 Y9.1255 
G01 X21.3266 Y9.0176 
G01 X21.1945 Y8.9413 
G01 X21.0472 Y8.9018 
G01 X20.8946 Y8.9018 
G01 X20.7472 Y8.9413 
G01 X20.6151 Y9.0176 
G01 X19.7394 Y9.8933 
G01 X18.2365 Y9.8933 
G01 X17.5845 Y9.2412 
G01 X17.5845 Y8.7298 
G01 X18.2365 Y8.0777 
G01 X20.0557 Y8.0777 
G01 X20.2031 Y8.0383 
G01 X20.3352 Y7.9620 
G01 X21.3266 Y6.9705 
G01 X21.4345 Y6.8627 
G01 X21.5108 Y6.7305 
G01 X21.5503 Y6.5832 
G01 X21.5503 Y5.4392 
G01 X21.5108 Y5.2918 
G01 X21.4345 Y5.1597 
G01 X20.4431 Y4.1682 
G01 X20.3352 Y4.0604 
G01 X20.2031 Y3.9841 
G01 X20.0557 Y3.9446 
G01 X17.9203 Y3.9446 
G01 X17.7729 Y3.9841 
G01 X17.6408 Y4.0604 
G01 X16.5415 Y5.1597 
G01 X16.4652 Y5.2918 
G01 X16.4257 Y5.4392 
G01 X16.4257 Y5.5917 
G01 X16.4652 Y5.7391 
G01 X16.5415 Y5.8712 
G01 X16.6493 Y5.9791 
G01 X16.7815 Y6.0554 
G01 X16.9288 Y6.0948 
G01 X17.0814 Y6.0948 
G01 X17.2287 Y6.0554 
G01 X17.3609 Y5.9791 
G01 X18.2365 Y5.1034 
G01 X19.7394 Y5.1034 
G01 X20.3915 Y5.7554 
G01 X20.3915 Y6.2669 
G01 X19.7394 Y6.9189 
G01 X17.9203 Y6.9189 
G01 X17.7729 Y6.9584 
G01 X17.6408 Y7.0347 
G01 X17.5329 Y7.1426 
G01 X16.5415 Y8.1340 
G01 X16.4652 Y8.2661 
G01 X16.4257 Y8.4135 
G01 X16.4257 Y9.5575 
G01 X16.4652 Y9.7049 
G01 X16.5415 Y9.8370 
G01 X16.6493 Y9.9449 
G01 X17.6408 Y10.9363 
G01 X17.7729 Y11.0126 
G01 X17.9203 Y11.0521 
G01 X20.0557 Y11.0521 
G01 X20.2031 Y11.0126 
G01 X20.3352 Y10.9363 
G01 X20.4431 Y10.8284 
G01 X21.4345 Y9.8370 
G00 Z2.0000 
G00 X7.6863 Y4.4477 
G01 Z-0.2000 F200.00 
G01 X7.6468 Y4.3004 F200.00 
G01 X7.5705 Y4.1682 
G01 X7.4627 Y4.0604 
G01 X7.3305 Y3.9841 
G01 X7.1832 Y3.9446 
G01 X7.0306 Y3.9446 
G01 X6.8833 Y3.9841 
G01 X6.7511 Y4.0604 
G01 X6.6433 Y4.1682 
G01 X6.5670 Y4.3004 
G01 X6.5275 Y4.4477 
G01 X6.5275 Y9.8933 
G01 X5.0477 Y9.8933 
G01 X4.9004 Y9.9328 
G01 X4.7682 Y10.0090 
G01 X4.6604 Y10.1169 
G01 X4.5841 Y10.2490 
G01 X4.5446 Y10.3964 
G01 X4.5446 Y10.5490 
G01 X4.5841 Y10.6963 
G01 X4.6604 Y10.8284 
G01 X4.7682 Y10.9363 
G01 X4.9004 Y11.0126 
G01 X5.0477 Y11.0521 
G01 X9.1661 Y11.0521 
G01 X9.3134 Y11.0126 
G01 X9.4456 Y10.9363 
G01 X9.5534 Y10.8284 
G01 X9.6297 Y10.6963 
G01 X9.6692 Y10.5490 
G01 X9.6692 Y10.3964 
G01 X9.6297 Y10.2490 
G01 X9.5534 Y10.1169 
G01 X9.4456 Y10.0090 
G01 X9.3134 Y9.9328 
G01 X9.1661 Y9.8933 
G01 X7.6863 Y9.8933 
G01 X7.6863 Y4.4477 
G00 Z2.0000 
G00 X15.1066 Y11.0521 
G01 Z-0.2000 F200.00 
G01 X15.2540 Y11.0126 F200.00 
G01 X15.3861 Y10.9363 
G01 X15.4940 Y10.8284 
G01 X15.5702 Y10.6963 
G01 X15.6097 Y10.5490 
G01 X15.6097 Y10.3964 
G01 X15.5702 Y10.2490 
G01 X15.4940 Y10.1169 
G01 X15.3861 Y10.0090 
G01 X15.2540 Y9.9328 
G01 X15.1066 Y9.8933 
G01 X11.6439 Y9.8933 
G01 X11.6439 Y8.0777 
G01 X13.1237 Y8.0777 
G01 X13.2711 Y8.0383 
G01 X13.4032 Y7.9620 
G01 X13.5111 Y7.8541 
G01 X13.5874 Y7.7220 
G01 X13.6268 Y7.5746 
G01 X13.6268 Y7.4221 
G01 X13.5874 Y7.2747 
G01 X13.5111 Y7.1426 
G01 X13.4032 Y7.0347 
G01 X13.2711 Y6.9584 
G01 X13.1237 Y6.9189 
G01 X11.6439 Y6.9189 
G01 X11.6439 Y5.1034 
G01 X15.1066 Y5.1034 
G01 X15.2540 Y5.0639 
G01 X15.3861 Y4.9876 
G01 X15.4940 Y4.8798 
G01 X15.5702 Y4.7476 
G01 X15.6097 Y4.6003 
G01 X15.6097 Y4.4477 
G01 X15.5702 Y4.3004 
G01 X15.4940 Y4.1682 
G01 X15.3861 Y4.0604 
G01 X15.2540 Y3.9841 
G01 X15.1066 Y3.9446 
G01 X10.9883 Y3.9446 
G01 X10.8409 Y3.9841 
G01 X10.7088 Y4.0604 
G01 X10.6009 Y4.1682 
G01 X10.5246 Y4.3004 
G01 X10.4852 Y4.4477 
G01 X10.4852 Y10.5490 
G01 X10.5246 Y10.6963 
G01 X10.6009 Y10.8284 
G01 X10.7088 Y10.9363 
G01 X10.8409 Y11.0126 
G01 X10.9883 Y11.0521 
G01 X11.1408 Y11.0521 
G01 X15.1066 Y11.0521 
G00 Z2.0000 
G00 X25.5204 Y4.4657 
G01 Z-0.2000 F200.00 
G01 X25.4977 Y4.3513 F200.00 
G01 X25.4531 Y4.2436 
G01 X25.3883 Y4.1467 
G01 X25.3058 Y4.0642 
G01 X25.2089 Y3.9995 
G01 X25.1012 Y3.9548 
G01 X24.9868 Y3.9321 
G01 X24.8702 Y3.9321 
G01 X24.7559 Y3.9548 
G01 X24.6482 Y3.9995 
G01 X24.5512 Y4.0642 
G01 X24.4688 Y4.1467 
G01 X24.4040 Y4.2436 
G01 X24.3594 Y4.3513 
G01 X24.3366 Y4.4657 
G01 X24.3366 Y9.8808 
G01 X22.8873 Y9.8808 
G01 X22.7730 Y9.9035 
G01 X22.6653 Y9.9481 
G01 X22.5683 Y10.0129 
G01 X22.4859 Y10.0954 
G01 X22.4211 Y10.1923 
G01 X22.3765 Y10.3000 
G01 X22.3537 Y10.4144 
G01 X22.3537 Y10.5310 
G01 X22.3765 Y10.6453 
G01 X22.4211 Y10.7530 
G01 X22.4859 Y10.8500 
G01 X22.5683 Y10.9324 
G01 X22.6653 Y10.9972 
G01 X22.7730 Y11.0418 
G01 X22.8873 Y11.0646 
G01 X26.9697 Y11.0646 
G01 X27.0841 Y11.0418 
G01 X27.1918 Y10.9972 
G01 X27.2887 Y10.9324 
G01 X27.3712 Y10.8500 
G01 X27.4360 Y10.7530 
G01 X27.4806 Y10.6453 
G01 X27.5033 Y10.5310 
G01 X27.5033 Y10.4144 
G01 X27.4806 Y10.3000 
G01 X27.4360 Y10.1923 
G01 X27.3712 Y10.0954 
G01 X27.2887 Y10.0129 
G01 X27.1918 Y9.9481 
G01 X27.0841 Y9.9035 
G01 X26.9697 Y9.8808 
G01 X25.5204 Y9.8808 
G01 X25.5204 Y4.4657 
G00 Z2.0000 
G00 X21.4306 Y9.8585 
G01 Z-0.2000 F200.00 
G01 X21.4954 Y9.7616 F200.00 
G01 X21.5400 Y9.6539 
G01 X21.5628 Y9.5395 
G01 X21.5628 Y9.4229 
G01 X21.5400 Y9.3086 
G01 X21.4954 Y9.2009 
G01 X21.4306 Y9.1039 
G01 X21.3482 Y9.0215 
G01 X21.2513 Y8.9567 
G01 X21.1435 Y8.9121 
G01 X21.0292 Y8.8893 
G01 X20.9126 Y8.8893 
G01 X20.7982 Y8.9121 
G01 X20.6905 Y8.9567 
G01 X20.5936 Y9.0215 
G01 X19.7343 Y9.8808 
G01 X18.2417 Y9.8808 
G01 X17.5970 Y9.2361 
G01 X17.5970 Y8.7350 
G01 X18.2417 Y8.0902 
G01 X20.0377 Y8.0902 
G01 X20.1521 Y8.0675 
G01 X20.2598 Y8.0229 
G01 X20.3567 Y7.9581 
G01 X21.3482 Y6.9667 
G01 X21.4306 Y6.8842 
G01 X21.4954 Y6.7873 
G01 X21.5400 Y6.6795 
G01 X21.5628 Y6.5652 
G01 X21.5628 Y5.4571 
G01 X21.5400 Y5.3428 
G01 X21.4954 Y5.2351 
G01 X21.4306 Y5.1381 
G01 X20.4392 Y4.1467 
G01 X20.3567 Y4.0642 
G01 X20.2598 Y3.9995 
G01 X20.1521 Y3.9548 
G01 X20.0377 Y3.9321 
G01 X17.9382 Y3.9321 
G01 X17.8239 Y3.9548 
G01 X17.7162 Y3.9995 
G01 X17.6192 Y4.0642 
G01 X16.5453 Y5.1381 
G01 X16.4806 Y5.2351 
G01 X16.4359 Y5.3428 
G01 X16.4132 Y5.4571 
G01 X16.4132 Y5.5737 
G01 X16.4359 Y5.6881 
G01 X16.4806 Y5.7958 
G01 X16.5453 Y5.8928 
G01 X16.6278 Y5.9752 
G01 X16.7247 Y6.0400 
G01 X16.8324 Y6.0846 
G01 X16.9468 Y6.1073 
G01 X17.0634 Y6.1073 
G01 X17.1777 Y6.0846 
G01 X17.2855 Y6.0400 
G01 X17.3824 Y5.9752 
G01 X18.2417 Y5.1159 
G01 X19.7343 Y5.1159 
G01 X20.3790 Y5.7606 
G01 X20.3790 Y6.2617 
G01 X19.7343 Y6.9064 
G01 X17.9382 Y6.9064 
G01 X17.8239 Y6.9292 
G01 X17.7162 Y6.9738 
G01 X17.6192 Y7.0386 
G01 X17.5368 Y7.1210 
G01 X16.5453 Y8.1125 
G01 X16.4806 Y8.2094 
G01 X16.4359 Y8.3171 
G01 X16.4132 Y8.4315 
G01 X16.4132 Y9.5395 
G01 X16.4359 Y9.6539 
G01 X16.4806 Y9.7616 
G01 X16.5453 Y9.8585 
G01 X16.6278 Y9.9410 
G01 X17.6192 Y10.9324 
G01 X17.7162 Y10.9972 
G01 X17.8239 Y11.0418 
G01 X17.9382 Y11.0646 
G01 X20.0377 Y11.0646 
G01 X20.1521 Y11.0418 
G01 X20.2598 Y10.9972 
G01 X20.3567 Y10.9324 
G01 X20.4392 Y10.8500 
G01 X21.4306 Y9.8585 
G00 Z2.0000 
G00 X7.6988 Y4.4657 
G01 Z-0.2000 F200.00 
G01 X7.6760 Y4.3513 F200.00 
G01 X7.6314 Y4.2436 
G01 X7.5667 Y4.1467 
G01 X7.4842 Y4.0642 
G01 X7.3873 Y3.9995 
G01 X7.2795 Y3.9548 
G01 X7.1652 Y3.9321 
G01 X7.0486 Y3.9321 
G01 X6.9342 Y3.9548 
G01 X6.8265 Y3.9995 
G01 X6.7296 Y4.0642 
G01 X6.6471 Y4.1467 
G01 X6.5824 Y4.2436 
G01 X6.5377 Y4.3513 
G01 X6.5150 Y4.4657 
G01 X6.5150 Y9.8808 
G01 X5.0657 Y9.8808 
G01 X4.9513 Y9.9035 
G01 X4.8436 Y9.9481 
G01 X4.7467 Y10.0129 
G01 X4.6642 Y10.0954 
G01 X4.5995 Y10.1923 
G01 X4.5548 Y10.3000 
G01 X4.5321 Y10.4144 
G01 X4.5321 Y10.5310 
G01 X4.5548 Y10.6453 
G01 X4.5995 Y10.7530 
G01 X4.6642 Y10.8500 
G01 X4.7467 Y10.9324 
G01 X4.8436 Y10.9972 
G01 X4.9513 Y11.0418 
G01 X5.0657 Y11.0646 
G01 X9.1481 Y11.0646 
G01 X9.2624 Y11.0418 
G01 X9.3702 Y10.9972 
G01 X9.4671 Y10.9324 
G01 X9.5495 Y10.8500 
G01 X9.6143 Y10.7530 
G01 X9.6589 Y10.6453 
G01 X9.6817 Y10.5310 
G01 X9.6817 Y10.4144 
G01 X9.6589 Y10.3000 
G01 X9.6143 Y10.1923 
G01 X9.5495 Y10.0954 
G01 X9.4671 Y10.0129 
G01 X9.3702 Y9.9481 
G01 X9.2624 Y9.9035 
G01 X9.1481 Y9.8808 
G01 X7.6988 Y9.8808 
G01 X7.6988 Y4.4657 
G00 Z2.0000 
G00 X15.0886 Y11.0646 
G01 Z-0.2000 F200.00 
G01 X15.2030 Y11.0418 F200.00 
G01 X15.3107 Y10.9972 
G01 X15.4076 Y10.9324 
G01 X15.4901 Y10.8500 
G01 X15.5549 Y10.7530 
G01 X15.5995 Y10.6453 
G01 X15.6222 Y10.5310 
G01 X15.6222 Y10.4144 
G01 X15.5995 Y10.3000 
G01 X15.5549 Y10.1923 
G01 X15.4901 Y10.0954 
G01 X15.4076 Y10.0129 
G01 X15.3107 Y9.9481 
G01 X15.2030 Y9.9035 
G01 X15.0886 Y9.8808 
G01 X11.6564 Y9.8808 
G01 X11.6564 Y8.0902 
G01 X13.1057 Y8.0902 
G01 X13.2201 Y8.0675 
G01 X13.3278 Y8.0229 
G01 X13.4248 Y7.9581 
G01 X13.5072 Y7.8757 
G01 X13.5720 Y7.7787 
G01 X13.6166 Y7.6710 
G01 X13.6393 Y7.5566 
G01 X13.6393 Y7.4400 
G01 X13.6166 Y7.3257 
G01 X13.5720 Y7.2180 
G01 X13.5072 Y7.1210 
G01 X13.4248 Y7.0386 
G01 X13.3278 Y6.9738 
G01 X13.2201 Y6.9292 
G01 X13.1057 Y6.9064 
G01 X11.6564 Y6.9064 
G01 X11.6564 Y5.1159 
G01 X15.0886 Y5.1159 
G01 X15.2030 Y5.0932 
G01 X15.3107 Y5.0485 
G01 X15.4076 Y4.9838 
G01 X15.4901 Y4.9013 
G01 X15.5549 Y4.8044 
G01 X15.5995 Y4.6966 
G01 X15.6222 Y4.5823 
G01 X15.6222 Y4.4657 
G01 X15.5995 Y4.3513 
G01 X15.5549 Y4.2436 
G01 X15.4901 Y4.1467 
G01 X15.4076 Y4.0642 
G01 X15.3107 Y3.9995 
G01 X15.2030 Y3.9548 
G01 X15.0886 Y3.9321 
G01 X11.0062 Y3.9321 
G01 X10.8919 Y3.9548 
G01 X10.7842 Y3.9995 
G01 X10.6872 Y4.0642 
G01 X10.6048 Y4.1467 
G01 X10.5400 Y4.2436 
G01 X10.4954 Y4.3513 
G01 X10.4726 Y4.4657 
G01 X10.4726 Y10.5310 
G01 X10.4954 Y10.6453 
G01 X10.5400 Y10.7530 
G01 X10.6048 Y10.8500 
G01 X10.6872 Y10.9324 
G01 X10.7842 Y10.9972 
G01 X10.8919 Y11.0418 
G01 X11.0062 Y11.0646 
G01 X11.1228 Y11.0646 
G01 X15.0886 Y11.0646 
G00 Z2.0000 
G00 X25.5329 Y4.4645 
G01 Z-0.2000 F200.00 
G01 X25.5097 Y4.3477 F200.00 
G01 X25.4641 Y4.2377 
G01 X25.3980 Y4.1387 
G01 X25.3138 Y4.0545 
G01 X25.2148 Y3.9884 
G01 X25.1048 Y3.9428 
G01 X24.9881 Y3.9196 
G01 X24.8690 Y3.9196 
G01 X24.7522 Y3.9428 
G01 X24.6422 Y3.9884 
G01 X24.5433 Y4.0545 
G01 X24.4591 Y4.1387 
G01 X24.3929 Y4.2377 
G01 X24.3474 Y4.3477 
G01 X24.3241 Y4.4645 
G01 X24.3241 Y9.8683 
G01 X22.8861 Y9.8683 
G01 X22.7693 Y9.8915 
G01 X22.6593 Y9.9371 
G01 X22.5604 Y10.0032 
G01 X22.4762 Y10.0874 
G01 X22.4100 Y10.1864 
G01 X22.3645 Y10.2964 
G01 X22.3412 Y10.4132 
G01 X22.3412 Y10.5322 
G01 X22.3645 Y10.6490 
G01 X22.4100 Y10.7590 
G01 X22.4762 Y10.8580 
G01 X22.5604 Y10.9421 
G01 X22.6593 Y11.0083 
G01 X22.7693 Y11.0539 
G01 X22.8861 Y11.0771 
G01 X26.9710 Y11.0771 
G01 X27.0877 Y11.0539 
G01 X27.1977 Y11.0083 
G01 X27.2967 Y10.9421 
G01 X27.3809 Y10.8580 
G01 X27.4470 Y10.7590 
G01 X27.4926 Y10.6490 
G01 X27.5158 Y10.5322 
G01 X27.5158 Y10.4132 
G01 X27.4926 Y10.2964 
G01 X27.4470 Y10.1864 
G01 X27.3809 Y10.0874 
G01 X27.2967 Y10.0032 
G01 X27.1977 Y9.9371 
G01 X27.0877 Y9.8915 
G01 X26.9710 Y9.8683 
G01 X25.5329 Y9.8683 
G01 X25.5329 Y4.4645 
G00 Z2.0000 
G00 X21.4403 Y9.8665 
G01 Z-0.2000 F200.00 
G01 X21.5065 Y9.7675 F200.00 
G01 X21.5521 Y9.6575 
G01 X21.5753 Y9.5408 
G01 X21.5753 Y9.4217 
G01 X21.5521 Y9.3049 
G01 X21.5065 Y9.1949 
G01 X21.4403 Y9.0960 
G01 X21.3562 Y9.0118 
G01 X21.2572 Y8.9456 
G01 X21.1472 Y8.9001 
G01 X21.0304 Y8.8768 
G01 X20.9114 Y8.8768 
G01 X20.7946 Y8.9001 
G01 X20.6846 Y8.9456 
G01 X20.5856 Y9.0118 
G01 X19.7291 Y9.8683 
G01 X18.2469 Y9.8683 
G01 X17.6095 Y9.2309 
G01 X17.6095 Y8.7401 
G01 X18.2469 Y8.1027 
G01 X20.0390 Y8.1027 
G01 X20.1557 Y8.0795 
G01 X20.2657 Y8.0339 
G01 X20.3647 Y7.9678 
G01 X21.3562 Y6.9764 
G01 X21.4403 Y6.8922 
G01 X21.5065 Y6.7932 
G01 X21.5521 Y6.6832 
G01 X21.5753 Y6.5664 
G01 X21.5753 Y5.4559 
G01 X21.5521 Y5.3391 
G01 X21.5065 Y5.2292 
G01 X21.4403 Y5.1302 
G01 X20.4489 Y4.1387 
G01 X20.3647 Y4.0545 
G01 X20.2657 Y3.9884 
G01 X20.1557 Y3.9428 
G01 X20.0390 Y3.9196 
G01 X17.9370 Y3.9196 
G01 X17.8202 Y3.9428 
G01 X17.7103 Y3.9884 
G01 X17.6113 Y4.0545 
G01 X16.5356 Y5.1302 
G01 X16.4695 Y5.2292 
G01 X16.4239 Y5.3391 
G01 X16.4007 Y5.4559 
G01 X16.4007 Y5.5750 
G01 X16.4239 Y5.6917 
G01 X16.4695 Y5.8017 
G01 X16.5356 Y5.9007 
G01 X16.6198 Y5.9849 
G01 X16.7188 Y6.0511 
G01 X16.8288 Y6.0966 
G01 X16.9456 Y6.1198 
G01 X17.0646 Y6.1198 
G01 X17.1814 Y6.0966 
G01 X17.2914 Y6.0511 
G01 X17.3904 Y5.9849 
G01 X18.2469 Y5.1284 
G01 X19.7291 Y5.1284 
G01 X20.3665 Y5.7658 
G01 X20.3665 Y6.2565 
G01 X19.7291 Y6.8939 
G01 X17.9370 Y6.8939 
G01 X17.8202 Y6.9172 
G01 X17.7103 Y6.9627 
G01 X17.6113 Y7.0289 
G01 X17.5271 Y7.1131 
G01 X16.5356 Y8.1045 
G01 X16.4695 Y8.2035 
G01 X16.4239 Y8.3135 
G01 X16.4007 Y8.4303 
G01 X16.4007 Y9.5408 
G01 X16.4239 Y9.6575 
G01 X16.4695 Y9.7675 
G01 X16.5356 Y9.8665 
G01 X16.6198 Y9.9507 
G01 X17.6113 Y10.9421 
G01 X17.7103 Y11.0083 
G01 X17.8202 Y11.0539 
G01 X17.9370 Y11.0771 
G01 X20.0390 Y11.0771 
G01 X20.1557 Y11.0539 
G01 X20.2657 Y11.0083 
G01 X20.3647 Y10.9421 
G01 X20.4489 Y10.8580 
G01 X21.4403 Y9.8665 
G00 Z2.0000 
G00 X7.7113 Y4.4645 
G01 Z-0.2000 F200.00 
G01 X7.6881 Y4.3477 F200.00 
G01 X7.6425 Y4.2377 
G01 X7.5764 Y4.1387 
G01 X7.4922 Y4.0545 
G01 X7.3932 Y3.9884 
G01 X7.2832 Y3.9428 
G01 X7.1664 Y3.9196 
G01 X7.0474 Y3.9196 
G01 X6.9306 Y3.9428 
G01 X6.8206 Y3.9884 
G01 X6.7216 Y4.0545 
G01 X6.6374 Y4.1387 
G01 X6.5713 Y4.2377 
G01 X6.5257 Y4.3477 
G01 X6.5025 Y4.4645 
G01 X6.5025 Y9.8683 
G01 X5.0645 Y9.8683 
G01 X4.9477 Y9.8915 
G01 X4.8377 Y9.9371 
G01 X4.7387 Y10.0032 
G01 X4.6545 Y10.0874 
G01 X4.5884 Y10.1864 
G01 X4.5428 Y10.2964 
G01 X4.5196 Y10.4132 
G01 X4.5196 Y10.5322 
G01 X4.5428 Y10.6490 
G01 X4.5884 Y10.7590 
G01 X4.6545 Y10.8580 
G01 X4.7387 Y10.9421 
G01 X4.8377 Y11.0083 
G01 X4.9477 Y11.0539 
G01 X5.0645 Y11.0771 
G01 X9.1493 Y11.0771 
G01 X9.2661 Y11.0539 
G01 X9.3761 Y11.0083 
G01 X9.4751 Y10.9421 
G01 X9.5593 Y10.8580 
G01 X9.6254 Y10.7590 
G01 X9.6710 Y10.6490 
G01 X9.6942 Y10.5322 
G01 X9.6942 Y10.4132 
G01 X9.6710 Y10.2964 
G01 X9.6254 Y10.1864 
G01 X9.5593 Y10.0874 
G01 X9.4751 Y10.0032 
G01 X9.3761 Y9.9371 
G01 X9.2661 Y9.8915 
G01 X9.1493 Y9.8683 
G01 X7.7113 Y9.8683 
G01 X7.7113 Y4.4645 
G00 Z2.0000 
G00 X15.0899 Y11.0771 
G01 Z-0.2000 F200.00 
G01 X15.2066 Y11.0539 F200.00 
G01 X15.3166 Y11.0083 
G01 X15.4156 Y10.9421 
G01 X15.4998 Y10.8580 
G01 X15.5659 Y10.7590 
G01 X15.6115 Y10.6490 
G01 X15.6347 Y10.5322 
G01 X15.6347 Y10.4132 
G01 X15.6115 Y10.2964 
G01 X15.5659 Y10.1864 
G01 X15.4998 Y10.0874 
G01 X15.4156 Y10.0032 
G01 X15.3166 Y9.9371 
G01 X15.2066 Y9.8915 
G01 X15.0899 Y9.8683 
G01 X11.6689 Y9.8683 
G01 X11.6689 Y8.1027 
G01 X13.1070 Y8.1027 
G01 X13.2237 Y8.0795 
G01 X13.3337 Y8.0339 
G01 X13.4327 Y7.9678 
G01 X13.5169 Y7.8836 
G01 X13.5831 Y7.7846 
G01 X13.6286 Y7.6746 
G01 X13.6518 Y7.5579 
G01 X13.6518 Y7.4388 
G01 X13.6286 Y7.3220 
G01 X13.5831 Y7.2120 
G01 X13.5169 Y7.1131 
G01 X13.4327 Y7.0289 
G01 X13.3337 Y6.9627 
G01 X13.2237 Y6.9172 
G01 X13.1070 Y6.8939 
G01 X11.6689 Y6.8939 
G01 X11.6689 Y5.1284 
G01 X15.0899 Y5.1284 
G01 X15.2066 Y5.1052 
G01 X15.3166 Y5.0596 
G01 X15.4156 Y4.9935 
G01 X15.4998 Y4.9093 
G01 X15.5659 Y4.8103 
G01 X15.6115 Y4.7003 
G01 X15.6347 Y4.5835 
G01 X15.6347 Y4.4645 
G01 X15.6115 Y4.3477 
G01 X15.5659 Y4.2377 
G01 X15.4998 Y4.1387 
G01 X15.4156 Y4.0545 
G01 X15.3166 Y3.9884 
G01 X15.2066 Y3.9428 
G01 X15.0899 Y3.9196 
G01 X11.0050 Y3.9196 
G01 X10.8882 Y3.9428 
G01 X10.7783 Y3.9884 
G01 X10.6793 Y4.0545 
G01 X10.5951 Y4.1387 
G01 X10.5289 Y4.2377 
G01 X10.4834 Y4.3477 
G01 X10.4601 Y4.4645 
G01 X10.4601 Y10.5322 
G01 X10.4834 Y10.6490 
G01 X10.5289 Y10.7590 
G01 X10.5951 Y10.8580 
G01 X10.6793 Y10.9421 
G01 X10.7783 Y11.0083 
G01 X10.8882 Y11.0539 
G01 X11.0050 Y11.0771 
G01 X11.1241 Y11.0771 
G01 X15.0899 Y11.0771 
G00 Z2.0000 
G00 X25.5454 Y4.4632 
G01 Z-0.2000 F200.00 
G01 X25.5217 Y4.3441 F200.00 
G01 X25.4752 Y4.2318 
G01 X25.4077 Y4.1307 
G01 X25.3218 Y4.0448 
G01 X25.2207 Y3.9773 
G01 X25.1085 Y3.9308 
G01 X24.9893 Y3.9071 
G01 X24.8678 Y3.9071 
G01 X24.7486 Y3.9308 
G01 X24.6363 Y3.9773 
G01 X24.5353 Y4.0448 
G01 X24.4494 Y4.1307 
G01 X24.3818 Y4.2318 
G01 X24.3353 Y4.3441 
G01 X24.3116 Y4.4632 
G01 X24.3116 Y9.8558 
G01 X22.8849 Y9.8558 
G01 X22.7657 Y9.8795 
G01 X22.6534 Y9.9260 
G01 X22.5524 Y9.9935 
G01 X22.4665 Y10.0794 
G01 X22.3990 Y10.1805 
G01 X22.3524 Y10.2927 
G01 X22.3287 Y10.4119 
G01 X22.3287 Y10.5334 
G01 X22.3524 Y10.6526 
G01 X22.3990 Y10.7649 
G01 X22.4665 Y10.8659 
G01 X22.5524 Y10.9519 
G01 X22.6534 Y11.0194 
G01 X22.7657 Y11.0659 
G01 X22.8849 Y11.0896 
G01 X26.9722 Y11.0896 
G01 X27.0914 Y11.0659 
G01 X27.2036 Y11.0194 
G01 X27.3047 Y10.9519 
G01 X27.3906 Y10.8659 
G01 X27.4581 Y10.7649 
G01 X27.5046 Y10.6526 
G01 X27.5283 Y10.5334 
G01 X27.5283 Y10.4119 
G01 X27.5046 Y10.2927 
G01 X27.4581 Y10.1805 
G01 X27.3906 Y10.0794 
G01 X27.3047 Y9.9935 
G01 X27.2036 Y9.9260 
G01 X27.0914 Y9.8795 
G01 X26.9722 Y9.8558 
G01 X25.5454 Y9.8558 
G01 X25.5454 Y4.4632 
G00 Z2.0000 
G00 X21.4501 Y9.8745 
G01 Z-0.2000 F200.00 
G01 X21.5176 Y9.7734 F200.00 
G01 X21.5641 Y9.6612 
G01 X21.5878 Y9.5420 
G01 X21.5878 Y9.4205 
G01 X21.5641 Y9.3013 
G01 X21.5176 Y9.1890 
G01 X21.4501 Y9.0880 
G01 X21.3641 Y9.0021 
G01 X21.2631 Y8.9345 
G01 X21.1508 Y8.8880 
G01 X21.0316 Y8.8643 
G01 X20.9101 Y8.8643 
G01 X20.7909 Y8.8880 
G01 X20.6787 Y8.9345 
G01 X20.5776 Y9.0021 
G01 X19.7239 Y9.8558 
G01 X18.2521 Y9.8558 
G01 X17.6220 Y9.2257 
G01 X17.6220 Y8.7453 
G01 X18.2521 Y8.1152 
G01 X20.0402 Y8.1152 
G01 X20.1594 Y8.0915 
G01 X20.2716 Y8.0450 
G01 X20.3727 Y7.9775 
G01 X21.3641 Y6.9861 
G01 X21.4501 Y6.9001 
G01 X21.5176 Y6.7991 
G01 X21.5641 Y6.6868 
G01 X21.5878 Y6.5677 
G01 X21.5878 Y5.4547 
G01 X21.5641 Y5.3355 
G01 X21.5176 Y5.2232 
G01 X21.4501 Y5.1222 
G01 X20.4586 Y4.1307 
G01 X20.3727 Y4.0448 
G01 X20.2716 Y3.9773 
G01 X20.1594 Y3.9308 
G01 X20.0402 Y3.9071 
G01 X17.9358 Y3.9071 
G01 X17.8166 Y3.9308 
G01 X17.7043 Y3.9773 
G01 X17.6033 Y4.0448 
G01 X16.5259 Y5.1222 
G01 X16.4584 Y5.2232 
G01 X16.4119 Y5.3355 
G01 X16.3882 Y5.4547 
G01 X16.3882 Y5.5762 
G01 X16.4119 Y5.6954 
G01 X16.4584 Y5.8077 
G01 X16.5259 Y5.9087 
G01 X16.6118 Y5.9946 
G01 X16.7129 Y6.0621 
G01 X16.8252 Y6.1086 
G01 X16.9443 Y6.1323 
G01 X17.0659 Y6.1323 
G01 X17.1850 Y6.1086 
G01 X17.2973 Y6.0621 
G01 X17.3983 Y5.9946 
G01 X18.2521 Y5.1409 
G01 X19.7239 Y5.1409 
G01 X20.3540 Y5.7710 
G01 X20.3540 Y6.2514 
G01 X19.7239 Y6.8814 
G01 X17.9358 Y6.8814 
G01 X17.8166 Y6.9051 
G01 X17.7043 Y6.9517 
G01 X17.6033 Y7.0192 
G01 X17.5174 Y7.1051 
G01 X16.5259 Y8.0965 
G01 X16.4584 Y8.1976 
G01 X16.4119 Y8.3098 
G01 X16.3882 Y8.4290 
G01 X16.3882 Y9.5420 
G01 X16.4119 Y9.6612 
G01 X16.4584 Y9.7734 
G01 X16.5259 Y9.8745 
G01 X16.6118 Y9.9604 
G01 X17.6033 Y10.9519 
G01 X17.7043 Y11.0194 
G01 X17.8166 Y11.0659 
G01 X17.9358 Y11.0896 
G01 X20.0402 Y11.0896 
G01 X20.1594 Y11.0659 
G01 X20.2716 Y11.0194 
G01 X20.3727 Y10.9519 
G01 X20.4586 Y10.8659 
G01 X21.4501 Y9.8745 
G00 Z2.0000 
G00 X7.7238 Y4.4632 
G01 Z-0.2000 F200.00 
G01 X7.7001 Y4.3441 F200.00 
G01 X7.6536 Y4.2318 
G01 X7.5861 Y4.1307 
G01 X7.5001 Y4.0448 
G01 X7.3991 Y3.9773 
G01 X7.2868 Y3.9308 
G01 X7.1677 Y3.9071 
G01 X7.0461 Y3.9071 
G01 X6.9270 Y3.9308 
G01 X6.8147 Y3.9773 
G01 X6.7136 Y4.0448 
G01 X6.6277 Y4.1307 
G01 X6.5602 Y4.2318 
G01 X6.5137 Y4.3441 
G01 X6.4900 Y4.4632 
G01 X6.4900 Y9.8558 
G01 X5.0632 Y9.8558 
G01 X4.9441 Y9.8795 
G01 X4.8318 Y9.9260 
G01 X4.7308 Y9.9935 
G01 X4.6448 Y10.0794 
G01 X4.5773 Y10.1805 
G01 X4.5308 Y10.2927 
G01 X4.5071 Y10.4119 
G01 X4.5071 Y10.5334 
G01 X4.5308 Y10.6526 
G01 X4.5773 Y10.7649 
G01 X4.6448 Y10.8659 
G01 X4.7308 Y10.9519 
G01 X4.8318 Y11.0194 
G01 X4.9441 Y11.0659 
G01 X5.0632 Y11.0896 
G01 X9.1505 Y11.0896 
G01 X9.2697 Y11.0659 
G01 X9.3820 Y11.0194 
G01 X9.4830 Y10.9519 
G01 X9.5690 Y10.8659 
G01 X9.6365 Y10.7649 
G01 X9.6830 Y10.6526 
G01 X9.7067 Y10.5334 
G01 X9.7067 Y10.4119 
G01 X9.6830 Y10.2927 
G01 X9.6365 Y10.1805 
G01 X9.5690 Y10.0794 
G01 X9.4830 Y9.9935 
G01 X9.3820 Y9.9260 
G01 X9.2697 Y9.8795 
G01 X9.1505 Y9.8558 
G01 X7.7238 Y9.8558 
G01 X7.7238 Y4.4632 
G00 Z2.0000 
G00 X15.0911 Y11.0896 
G01 Z-0.2000 F200.00 
G01 X15.2103 Y11.0659 F200.00 
G01 X15.3225 Y11.0194 
G01 X15.4236 Y10.9519 
G01 X15.5095 Y10.8659 
G01 X15.5770 Y10.7649 
G01 X15.6235 Y10.6526 
G01 X15.6472 Y10.5334 
G01 X15.6472 Y10.4119 
G01 X15.6235 Y10.2927 
G01 X15.5770 Y10.1805 
G01 X15.5095 Y10.0794 
G01 X15.4236 Y9.9935 
G01 X15.3225 Y9.9260 
G01 X15.2103 Y9.8795 
G01 X15.0911 Y9.8558 
G01 X11.6814 Y9.8558 
G01 X11.6814 Y8.1152 
G01 X13.1082 Y8.1152 
G01 X13.2274 Y8.0915 
G01 X13.3397 Y8.0450 
G01 X13.4407 Y7.9775 
G01 X13.5266 Y7.8916 
G01 X13.5941 Y7.7906 
G01 X13.6406 Y7.6783 
G01 X13.6643 Y7.5591 
G01 X13.6643 Y7.4376 
G01 X13.6406 Y7.3184 
G01 X13.5941 Y7.2061 
G01 X13.5266 Y7.1051 
G01 X13.4407 Y7.0192 
G01 X13.3397 Y6.9517 
G01 X13.2274 Y6.9051 
G01 X13.1082 Y6.8814 
G01 X11.6814 Y6.8814 
G01 X11.6814 Y5.1409 
G01 X15.0911 Y5.1409 
G01 X15.2103 Y5.1172 
G01 X15.3225 Y5.0707 
G01 X15.4236 Y5.0032 
G01 X15.5095 Y4.9173 
G01 X15.5770 Y4.8162 
G01 X15.6235 Y4.7039 
G01 X15.6472 Y4.5848 
G01 X15.6472 Y4.4632 
G01 X15.6235 Y4.3441 
G01 X15.5770 Y4.2318 
G01 X15.5095 Y4.1307 
G01 X15.4236 Y4.0448 
G01 X15.3225 Y3.9773 
G01 X15.2103 Y3.9308 
G01 X15.0911 Y3.9071 
G01 X11.0038 Y3.9071 
G01 X10.8846 Y3.9308 
G01 X10.7723 Y3.9773 
G01 X10.6713 Y4.0448 
G01 X10.5854 Y4.1307 
G01 X10.5179 Y4.2318 
G01 X10.4714 Y4.3441 
G01 X10.4476 Y4.4632 
G01 X10.4476 Y10.5334 
G01 X10.4714 Y10.6526 
G01 X10.5179 Y10.7649 
G01 X10.5854 Y10.8659 
G01 X10.6713 Y10.9519 
G01 X10.7723 Y11.0194 
G01 X10.8846 Y11.0659 
G01 X11.0038 Y11.0896 
G01 X11.1253 Y11.0896 
G01 X15.0911 Y11.0896 
G00 Z2.0000 
G00 X25.5579 Y4.4620 
G01 Z-0.2000 F200.00 
G01 X25.5337 Y4.3404 F200.00 
G01 X25.4863 Y4.2259 
G01 X25.4174 Y4.1228 
G01 X25.3298 Y4.0351 
G01 X25.2267 Y3.9662 
G01 X25.1121 Y3.9188 
G01 X24.9905 Y3.8946 
G01 X24.8665 Y3.8946 
G01 X24.7449 Y3.9188 
G01 X24.6304 Y3.9662 
G01 X24.5273 Y4.0351 
G01 X24.4396 Y4.1228 
G01 X24.3708 Y4.2259 
G01 X24.3233 Y4.3404 
G01 X24.2991 Y4.4620 
G01 X24.2991 Y9.8433 
G01 X22.8836 Y9.8433 
G01 X22.7621 Y9.8675 
G01 X22.6475 Y9.9149 
G01 X22.5444 Y9.9838 
G01 X22.4568 Y10.0715 
G01 X22.3879 Y10.1745 
G01 X22.3404 Y10.2891 
G01 X22.3162 Y10.4107 
G01 X22.3162 Y10.5347 
G01 X22.3404 Y10.6563 
G01 X22.3879 Y10.7708 
G01 X22.4568 Y10.8739 
G01 X22.5444 Y10.9616 
G01 X22.6475 Y11.0304 
G01 X22.7621 Y11.0779 
G01 X22.8836 Y11.1021 
G01 X26.9734 Y11.1021 
G01 X27.0950 Y11.0779 
G01 X27.2096 Y11.0304 
G01 X27.3126 Y10.9616 
G01 X27.4003 Y10.8739 
G01 X27.4692 Y10.7708 
G01 X27.5166 Y10.6563 
G01 X27.5408 Y10.5347 
G01 X27.5408 Y10.4107 
G01 X27.5166 Y10.2891 
G01 X27.4692 Y10.1745 
G01 X27.4003 Y10.0715 
G01 X27.3126 Y9.9838 
G01 X27.2096 Y9.9149 
G01 X27.0950 Y9.8675 
G01 X26.9734 Y9.8433 
G01 X25.5579 Y9.8433 
G01 X25.5579 Y4.4620 
G00 Z2.0000 
G00 X21.4598 Y9.8825 
G01 Z-0.2000 F200.00 
G01 X21.5286 Y9.7794 F200.00 
G01 X21.5761 Y9.6648 
G01 X21.6003 Y9.5432 
G01 X21.6003 Y9.4192 
G01 X21.5761 Y9.2976 
G01 X21.5286 Y9.1831 
G01 X21.4598 Y9.0800 
G01 X21.3721 Y8.9923 
G01 X21.2690 Y8.9235 
G01 X21.1545 Y8.8760 
G01 X21.0329 Y8.8518 
G01 X20.9089 Y8.8518 
G01 X20.7873 Y8.8760 
G01 X20.6727 Y8.9235 
G01 X20.5697 Y8.9923 
G01 X19.7187 Y9.8433 
G01 X18.2572 Y9.8433 
G01 X17.6345 Y9.2205 
G01 X17.6345 Y8.7505 
G01 X18.2572 Y8.1277 
G01 X20.0414 Y8.1277 
G01 X20.1630 Y8.1036 
G01 X20.2776 Y8.0561 
G01 X20.3807 Y7.9872 
G01 X21.3721 Y6.9958 
G01 X21.4598 Y6.9081 
G01 X21.5286 Y6.8050 
G01 X21.5761 Y6.6905 
G01 X21.6003 Y6.5689 
G01 X21.6003 Y5.4535 
G01 X21.5761 Y5.3319 
G01 X21.5286 Y5.2173 
G01 X21.4598 Y5.1142 
G01 X20.4683 Y4.1228 
G01 X20.3807 Y4.0351 
G01 X20.2776 Y3.9662 
G01 X20.1630 Y3.9188 
G01 X20.0414 Y3.8946 
G01 X17.9345 Y3.8946 
G01 X17.8130 Y3.9188 
G01 X17.6984 Y3.9662 
G01 X17.5953 Y4.0351 
G01 X16.5162 Y5.1142 
G01 X16.4473 Y5.2173 
G01 X16.3999 Y5.3319 
G01 X16.3757 Y5.4535 
G01 X16.3757 Y5.5774 
G01 X16.3999 Y5.6990 
G01 X16.4473 Y5.8136 
G01 X16.5162 Y5.9167 
G01 X16.6039 Y6.0043 
G01 X16.7070 Y6.0732 
G01 X16.8215 Y6.1207 
G01 X16.9431 Y6.1448 
G01 X17.0671 Y6.1448 
G01 X17.1887 Y6.1207 
G01 X17.3032 Y6.0732 
G01 X17.4063 Y6.0043 
G01 X18.2572 Y5.1534 
G01 X19.7187 Y5.1534 
G01 X20.3415 Y5.7762 
G01 X20.3415 Y6.2462 
G01 X19.7187 Y6.8689 
G01 X17.9345 Y6.8689 
G01 X17.8130 Y6.8931 
G01 X17.6984 Y6.9406 
G01 X17.5953 Y7.0095 
G01 X17.5077 Y7.0971 
G01 X16.5162 Y8.0886 
